; generated by PrusaSlicer 2.7.4 on 2024-10-19 at 16:46:15 UTC


;
;

;
;
; 

; external perimeters extrusion width = 0.40mm
; perimeters extrusion width = 0.40mm
; infill extrusion width = 0.45mm
; solid infill extrusion width = 0.45mm
; top infill extrusion width = 0.40mm
; first layer extrusion width = 0.42mm

M73 P0 R37
M201 X2500 Y2500 Z400 E5000 ; sets maximum accelerations, mm/sec^2
M203 X180 Y180 Z12 E80 ; sets maximum feedrates, mm / sec
M204 P2000 R1250 T2500 ; sets acceleration (P, T) and retract acceleration (R), mm/sec^2
M205 X8.00 Y8.00 Z2.00 E10.00 ; sets the jerk limits, mm/sec
M205 S0 T0 ; sets the minimum extruding and travel feed rate, mm/sec

; printing object binary_purple.stl id:0 copy 0
; stop printing object binary_purple.stl id:0 copy 0

;TYPE:Custom
M862.3 P "MINI" ; printer model check
G90 ; use absolute coordinates
M83 ; extruder relative mode
M104 S170 ; set extruder temp for bed leveling
M140 S60 ; set bed temp
M109 R170 ; wait for bed leveling temp
M190 S60 ; wait for bed temp
M204 T1250 ; set travel acceleration
G28 ; home all without mesh bed level
G29 ; mesh bed leveling 
M204 T2500 ; restore travel acceleration
M104 S215 ; set extruder temp
G92 E0
G1 Y-2 X179 F2400
G1 Z3 F720
M109 S215 ; wait for extruder temp

; intro line
G1 X170 F1000
G1 Z0.2 F720
G1 X110 E8 F900
G1 X40 E10 F700
G92 E0

M221 S95 ; set flow
G21 ; set units to millimeters
G90 ; use absolute coordinates
M83 ; use relative distances for extrusion
M900 K0.2 ; Filament gcode LA 1.5
; ; Filament gcode LA 1.0
M107
;LAYER_CHANGE
;Z:0.2
;HEIGHT:0.2
G1 E-3.2 F4200
G1 Z.4 F720
G1 X79.009 Y50.951 F9000
G1 Z.2 F720
G1 E3.2 F2400
M204 P600
;TYPE:Skirt/Brim
;WIDTH:0.42
G1 F1200
G1 X80.232 Y49.667 E.0556
G1 X80.618 Y49.357 E.01552
G1 X82.159 Y48.51 E.05513
G1 X82.892 Y48.241 E.02448
G1 X84.359 Y47.976 E.04674
G1 X85.693 Y48.007 E.04184
G1 X92.139 Y49.092 E.20495
G1 X92.29 Y49.142 E.00499
G1 X93.62 Y50.251 E.0543
G1 X114.82 Y88.79 E1.37912
G1 X115.114 Y89.936 E.0371
G1 X115.019 Y90.694 E.02395
G1 X104.401 Y127.088 E1.18868
G1 X103.162 Y128.558 E.06028
G1 X97.506 Y131.318 E.19733
G1 X96.786 Y131.58 E.02402
G1 X95.567 Y131.813 E.03891
G1 X94.407 Y131.813 E.03637
G1 X88.338 Y130.657 E.19371
G1 X87.322 Y130.192 E.03503
G1 X70.936 Y117.284 E.65403
G1 X69.57 Y115.857 E.06194
M73 P1 R37
G1 X66.563 Y111.282 E.17166
G1 X66.173 Y109.977 E.04271
G1 X66.222 Y109.405 E.018
G1 X77.699 Y53.72 E1.78266
G1 X78.111 Y52.558 E.03866
G1 X78.979 Y51.003 E.05584
M204 P1000
G1 E-2.24 F4200
;WIPE_START
G1 F7200
G1 X79.009 Y50.951 E-.03327
G1 X80.162 Y49.74 E-.92673
;WIPE_END
G1 Z.4 F720
; printing object binary_purple.stl id:0 copy 0
G1 X89.982 Y118.251 F9000
G1 Z.2 F720
G1 E3.2 F2400
M204 P600
;TYPE:Perimeter
;WIDTH:0.419999
G1 F1200
G1 X90.125 Y118.538 E.01005
G1 X90.594 Y119.034 E.0214
G1 X90.976 Y119.399 E.01657
G1 X91.207 Y119.507 E.008
G1 X91.557 Y119.833 E.015
G1 X92.071 Y120.077 E.01784
G1 X92.205 Y120.198 E.00566
G1 X92.459 Y120.363 E.0095
G1 X92.774 Y120.438 E.01015
G1 X93.318 Y120.646 E.01826
G1 X93.705 Y120.729 E.01241
G1 X94.526 Y120.729 E.02574
G1 X94.736 Y120.837 E.0074
G1 X94.985 Y120.872 E.00788
G1 X95.672 Y120.872 E.02154
G1 X96.139 Y121.057 E.01575
G1 X96.439 Y121.15 E.00985
G1 X96.933 Y121.364 E.01688
G1 X97.09 Y121.506 E.00664
G1 X97.322 Y121.62 E.0081
G1 X98.091 Y122.389 E.0341
G1 X98.18 Y122.605 E.00732
G1 X98.376 Y122.938 E.01212
G1 X98.434 Y123.477 E.017
G1 X98.592 Y123.97 E.01623
G1 X98.833 Y124.49 E.01797
G1 X99.307 Y125.443 E.03337
G1 X99.7 Y125.833 E.01736
G1 X99.473 Y125.896 E.00739
G1 X98.581 Y126.343 E.03128
G1 X98.106 Y126.547 E.01621
G1 X97.843 Y126.746 E.01034
G1 X97.048 Y127.546 E.03536
G1 X96.767 Y127.664 E.00956
G1 X96.292 Y127.917 E.01687
G1 X95.662 Y128.161 E.02118
G1 X95.28 Y128.161 E.01198
G1 X95.017 Y128.198 E.00833
G1 X94.817 Y128.168 E.00634
G1 X94.312 Y128.161 E.01584
G1 X94.081 Y128.049 E.00805
G1 X93.598 Y127.894 E.0159
G1 X93.282 Y127.696 E.01169
G1 X92.797 Y127.478 E.01667
G1 X92.552 Y127.446 E.00775
G1 X92.21 Y127.331 E.01131
G1 X91.745 Y127.303 E.01461
G1 X91.626 Y127.232 E.00434
G1 X91.252 Y127.16 E.01194
G1 X90.695 Y127.167 E.01747
G1 X90.704 Y127.078 E.0028
G1 X90.961 Y126.369 E.02365
G1 X90.986 Y125.776 E.01861
G1 X91.067 Y125.634 E.00513
G1 X91.128 Y125.299 E.01068
G1 X91.106 Y123.961 E.04196
G1 X90.986 Y123.691 E.00926
G1 X90.97 Y123.134 E.01747
G1 X90.837 Y122.802 E.01121
G1 X90.685 Y122.28 E.01705
G1 X90.502 Y121.838 E.015
G1 X90.117 Y121.199 E.02339
G1 X89.769 Y120.814 E.01627
G1 X89.748 Y120.722 E.00296
G1 X89.561 Y120.46 E.01009
G1 X89.084 Y119.993 E.02093
G1 X88.573 Y119.661 E.01911
G1 X88.668 Y119.575 E.00402
G1 X88.943 Y119.436 E.00966
G1 X89.105 Y119.304 E.00655
G1 X89.713 Y118.687 E.02716
G1 X89.951 Y118.302 E.01419
M204 P1000
G1 X89.951 Y118.302 F9000
G1 X89.982 Y117.584
M204 P600
G1 F1200
G1 X89.999 Y117.654 E.00226
G1 X90.369 Y118.12 E.01866
G1 X90.379 Y118.191 E.00225
G1 X90.526 Y118.437 E.00899
G1 X91.202 Y119.096 E.0296
G1 X91.409 Y119.178 E.00698
G1 X91.719 Y119.478 E.01353
G1 X92.169 Y119.722 E.01605
G1 X92.611 Y120.018 E.01668
G1 X92.839 Y120.066 E.00731
G1 X93.026 Y120.151 E.00644
G1 X93.276 Y120.209 E.00805
G1 X93.429 Y120.281 E.0053
G1 X93.705 Y120.352 E.00894
G1 X94.584 Y120.352 E.02756
G1 X94.838 Y120.474 E.00884
G1 X94.987 Y120.495 E.00472
G1 X95.728 Y120.495 E.02323
G1 X95.987 Y120.618 E.00899
G1 X96.136 Y120.638 E.00471
G1 X96.309 Y120.72 E.006
G1 X96.565 Y120.781 E.00825
G1 X97.129 Y121.032 E.01936
G1 X97.32 Y121.206 E.0081
G1 X97.543 Y121.307 E.00768
G1 X98.397 Y122.162 E.03789
G1 X98.562 Y122.545 E.01308
G1 X98.794 Y122.837 E.01169
G1 X98.798 Y123.364 E.01652
G1 X98.907 Y123.636 E.00919
G1 X98.945 Y123.82 E.00589
G1 X99.541 Y125.082 E.04376
G1 X99.693 Y125.315 E.00872
G1 X100.174 Y125.755 E.02044
;WIDTH:0.420306
G1 X100.341 Y126.025 E.00996
G1 X100.195 Y126.072 E.00481
;WIDTH:0.419999
G1 X99.684 Y126.209 E.01659
G1 X98.366 Y126.847 E.04591
G1 X98.119 Y127.003 E.00916
G1 X97.71 Y127.432 E.01858
G1 X97.259 Y127.867 E.01965
G1 X96.226 Y128.365 E.03596
G1 X96.03 Y128.405 E.00627
G1 X95.758 Y128.538 E.00949
G1 X95.251 Y128.539 E.0159
G1 X94.988 Y128.629 E.00872
G1 X94.753 Y128.541 E.00787
G1 X94.246 Y128.538 E.0159
G1 X94.022 Y128.425 E.00787
G1 X93.839 Y128.395 E.00581
G1 X93.67 Y128.316 E.00585
G1 X93.409 Y128.252 E.00843
G1 X93.152 Y128.056 E.01013
G1 X92.699 Y127.842 E.01571
G1 X92.387 Y127.823 E.0098
G1 X92.118 Y127.697 E.00931
G1 X91.672 Y127.68 E.01399
G1 X91.481 Y127.581 E.00675
G1 X91.215 Y127.538 E.00845
G1 X90.662 Y127.546 E.01734
G1 X90.097 Y127.596 E.01778
G1 X90.309 Y127.138 E.01582
G1 X90.322 Y127.015 E.00388
G1 X90.594 Y126.284 E.02446
G1 X90.608 Y125.706 E.01813
G1 X90.714 Y125.5 E.00726
G1 X90.751 Y125.299 E.00641
G1 X90.75 Y124.124 E.03684
G1 X90.608 Y123.756 E.01237
G1 X90.599 Y123.203 E.01734
G1 X90.495 Y122.966 E.00811
G1 X90.46 Y122.802 E.00526
G1 X90.352 Y122.537 E.00897
G1 X90.313 Y122.347 E.00608
G1 X90.139 Y121.945 E.01373
G1 X89.868 Y121.592 E.01395
G1 X89.802 Y121.405 E.00622
G1 X89.438 Y121.014 E.01675
G1 X89.408 Y120.886 E.00412
G1 X89.11 Y120.546 E.01418
G1 X88.734 Y120.194 E.01615
G1 X88.521 Y120.116 E.00711
G1 X88.227 Y119.86 E.01222
G1 X87.866 Y119.61 E.01377
G1 X88.081 Y119.564 E.00689
G1 X88.424 Y119.287 E.01382
G1 X88.739 Y119.119 E.01119
G1 X89.094 Y118.779 E.01541
G1 X89.517 Y118.332 E.0193
G1 X89.592 Y118.122 E.00699
G1 X89.865 Y117.815 E.01288
G1 X89.955 Y117.638 E.00623
M204 P1000
G1 X89.955 Y117.638 F9000
G1 X89.982 Y116.53
M204 P600
;TYPE:External perimeter
;WIDTH:0.609844
G1 F1200
G1 X90.059 Y116.63 E.00595
;WIDTH:0.566514
G1 X90.136 Y116.729 E.00546
;WIDTH:0.523183
G1 X90.183 Y116.856 E.00541
;WIDTH:0.550976
G1 X90.218 Y117.137 E.01196
;WIDTH:0.584566
G1 X90.252 Y117.418 E.01275
G1 X90.285 Y117.455 E.00223
;WIDTH:0.543425
G1 X90.317 Y117.491 E.002
;WIDTH:0.502283
G1 X90.349 Y117.528 E.00187
;WIDTH:0.461141
G1 X90.381 Y117.565 E.0017
;WIDTH:0.419999
G1 X90.735 Y117.963 E.0167
G1 X90.734 Y118.033 E.0022
G1 X90.79 Y118.169 E.00461
G1 X91.414 Y118.783 E.02745
G1 X91.593 Y118.831 E.00581
G1 X91.981 Y119.207 E.01694
G1 X92.22 Y119.298 E.00802
G1 X92.418 Y119.403 E.00703
G1 X92.737 Y119.659 E.01282
G1 X93.031 Y119.689 E.00927
G1 X93.192 Y119.813 E.00637
G1 X93.46 Y119.832 E.00842
G1 X93.587 Y119.934 E.00511
G1 X93.705 Y119.975 E.00392
G1 X94.747 Y119.975 E.03267
G1 X94.874 Y120.077 E.00511
G1 X94.99 Y120.118 E.00386
G1 X95.891 Y120.118 E.02825
G1 X96.086 Y120.255 E.00747
G1 X96.32 Y120.261 E.00734
G1 X96.48 Y120.384 E.00633
G1 X96.749 Y120.404 E.00846
G1 X96.876 Y120.506 E.00511
G1 X97.28 Y120.69 E.01392
G1 X97.574 Y120.927 E.01184
G1 X97.745 Y120.976 E.00558
G1 X98.664 Y121.895 E.04075
G1 X98.853 Y122.211 E.01154
G1 X98.892 Y122.356 E.00471
G1 X99.171 Y122.691 E.01367
G1 X99.171 Y123.311 E.01944
G1 X99.314 Y123.541 E.00849
G1 X99.317 Y123.757 E.00677
G1 X99.431 Y123.938 E.00671
G1 X99.463 Y124.059 E.00392
G1 X99.574 Y124.224 E.00624
G1 X99.606 Y124.345 E.00392
G1 X99.717 Y124.51 E.00624
G1 X99.749 Y124.631 E.00392
G1 X99.844 Y124.775 E.00541
G1 X99.948 Y125.037 E.00884
G1 X100.528 Y125.568 E.02466
G1 X100.605 Y125.744 E.00602
;WIDTH:0.468957
G1 X100.673 Y125.823 E.00369
;WIDTH:0.517915
G1 X100.742 Y125.903 E.00417
G1 X100.918 Y125.907 E.00695
;WIDTH:0.488034
G1 X101.06 Y125.96 E.00561
;WIDTH:0.486584
G1 X101.278 Y126.118 E.00993
;WIDTH:0.451699
G1 X101.497 Y126.275 E.00916
G1 X101.389 Y126.304 E.0038
;WIDTH:0.486584
G1 X101.1 Y126.356 E.01083
G1 X100.478 Y126.367 E.02295
;WIDTH:0.470467
G1 X100.349 Y126.434 E.00517
;WIDTH:0.445233
G1 X100.22 Y126.5 E.00485
;WIDTH:0.419999
G1 X100.008 Y126.49 E.00665
G1 X99.792 Y126.601 E.00761
G1 X99.668 Y126.633 E.00402
G1 X99.5 Y126.744 E.00631
G1 X99.378 Y126.776 E.00395
G1 X99.212 Y126.887 E.00626
G1 X99.091 Y126.919 E.00392
G1 X98.926 Y127.03 E.00624
G1 X98.806 Y127.062 E.00389
G1 X98.666 Y127.152 E.00522
G1 X98.395 Y127.259 E.00914
G1 X97.969 Y127.707 E.01938
G1 X97.422 Y128.2 E.02309
G1 X97.21 Y128.317 E.00759
G1 X97.089 Y128.349 E.00392
G1 X96.924 Y128.46 E.00624
G1 X96.804 Y128.492 E.00389
G1 X96.638 Y128.603 E.00626
G1 X96.517 Y128.635 E.00392
G1 X96.32 Y128.772 E.00752
G1 X96.111 Y128.774 E.00655
G1 X95.891 Y128.915 E.00819
G1 X95.28 Y128.915 E.01916
G1 X94.987 Y129.058 E.01022
G1 X94.814 Y128.956 E.0063
G1 X94.697 Y128.915 E.00389
G1 X94.083 Y128.915 E.01925
G1 X93.9 Y128.782 E.00709
G1 X93.654 Y128.772 E.00772
G1 X93.496 Y128.65 E.00626
G1 X93.233 Y128.629 E.00827
G1 X92.972 Y128.392 E.01105
G1 X92.845 Y128.343 E.00427
G1 X92.648 Y128.226 E.00718
G1 X92.224 Y128.2 E.01332
G1 X92.026 Y128.063 E.00755
G1 X91.509 Y128.057 E.01621
G1 X91.382 Y127.956 E.00509
G1 X91.22 Y127.915 E.00524
G1 X90.325 Y127.951 E.02808
G1 X89.24 Y128.095 E.03432
G1 X89.458 Y127.884 E.00951
G1 X89.514 Y127.768 E.00404
G1 X89.798 Y127.348 E.0159
G1 X89.941 Y127.056 E.01019
G1 X89.945 Y126.83 E.00709
G1 X90.061 Y126.684 E.00585
G1 X90.088 Y126.401 E.00891
G1 X90.19 Y126.274 E.00511
G1 X90.231 Y126.156 E.00392
G1 X90.231 Y125.543 E.01922
G1 X90.333 Y125.416 E.00511
G1 X90.374 Y125.299 E.00389
G1 X90.374 Y124.15 E.03603
G1 X90.231 Y123.919 E.00852
G1 X90.228 Y123.271 E.02032
G1 X90.088 Y123.061 E.00791
G1 X90.087 Y122.852 E.00655
G1 X89.945 Y122.632 E.00821
G1 X89.942 Y122.414 E.00684
G1 X89.833 Y122.241 E.00641
G1 X89.797 Y122.11 E.00426
G1 X89.552 Y121.805 E.01227
G1 X89.486 Y121.611 E.00643
G1 X89.131 Y121.239 E.01612
G1 X89.031 Y120.996 E.00824
G1 X88.528 Y120.509 E.02195
G1 X88.363 Y120.478 E.00526
G1 X88.175 Y120.314 E.00782
;WIDTH:0.451592
G1 X87.961 Y120.121 E.00979
;WIDTH:0.483184
G1 X87.747 Y119.928 E.01055
;WIDTH:0.514605
G1 X87.625 Y119.9 E.00491
;WIDTH:0.546026
G1 X87.337 Y119.858 E.01218
;WIDTH:0.496501
G1 X87.17 Y119.845 E.00632
;WIDTH:0.446976
G1 X87.002 Y119.831 E.00566
;WIDTH:0.423359
G1 X86.851 Y119.698 E.00637
;WIDTH:0.467896
G1 X86.655 Y119.653 E.00711
G1 X86.834 Y119.515 E.00799
;WIDTH:0.432105
G1 X87.126 Y119.478 E.00952
;WIDTH:0.474495
G1 X87.271 Y119.425 E.00554
;WIDTH:0.516885
G1 X87.417 Y119.373 E.00611
;WIDTH:0.53192
G1 X87.539 Y119.392 E.00502
G1 X87.679 Y119.309 E.00662
;WIDTH:0.483184
G1 X87.831 Y119.271 E.00574
G1 X87.9 Y119.231 E.00292
;WIDTH:0.451592
G1 X87.969 Y119.191 E.00271
;WIDTH:0.419999
G1 X88.365 Y118.831 E.01678
G1 X88.492 Y118.822 E.00399
G1 X88.825 Y118.514 E.01422
G1 X89.2 Y118.128 E.01687
G1 X89.23 Y117.963 E.00526
G1 X89.583 Y117.565 E.01668
;WIDTH:0.461316
G1 X89.615 Y117.539 E.00143
;WIDTH:0.502632
G1 X89.647 Y117.514 E.00155
;WIDTH:0.543949
G1 X89.68 Y117.489 E.00172
;WIDTH:0.585265
G1 X89.712 Y117.463 E.00186
G1 X89.707 Y117.342 E.00546
;WIDTH:0.584614
G1 X89.739 Y117.089 E.01149
;WIDTH:0.551
G1 X89.771 Y116.837 E.01073
;WIDTH:0.563615
G1 X89.876 Y116.684 E.00803
;WIDTH:0.609844
G1 X89.948 Y116.58 E.00596
M204 P1000
G1 X89.948 Y116.58 F9000
G1 X89.982 Y116.341
M204 P600
G1 F1200
G1 X89.982 Y116.53 E.00891
M204 P1000
G1 E-2.24 F4200
;WIPE_START
G1 F7200
G1 X89.982 Y116.341 E-.10474
;WIPE_END
G1 E-.85526 F4200
G1 Z.4 F720
G1 X86.025 Y119.655 F9000
G1 Z.2 F720
G1 E3.2 F2400
M204 P600
;WIDTH:0.38292
G1 F1200
M73 P1 R36
G1 X86.43 Y119.6 E.01155
;WIDTH:0.425408
G1 X86.543 Y119.627 E.0037
;WIDTH:0.467896
G1 X86.655 Y119.653 E.00406
M204 P1000
G1 E-2.24 F4200
;WIPE_START
G1 F7200
G1 X86.543 Y119.627 E-.06372
G1 X86.43 Y119.6 E-.06438
G1 X86.025 Y119.655 E-.2265
;WIPE_END
G1 E-.6054 F4200
G1 Z.4 F720
G1 X98.217 Y123.005 F9000
G1 Z.2 F720
G1 E3.2 F2400
M204 P600
;TYPE:Solid infill
;WIDTH:0.43418
G1 F1200
G1 X97.118 Y121.906 E.05056
G1 X97.019 Y121.877 E.00336
G1 X96.767 Y121.669 E.01063
G1 X96.567 Y121.564 E.00735
G1 X96.38 Y121.481 E.00666
G1 X96.117 Y121.418 E.0088
G1 X96.038 Y121.379 E.00287
G1 X98.095 Y123.436 E.09464
G1 X98.099 Y123.539 E.00335
G1 X98.169 Y123.774 E.00798
G1 X98.24 Y123.913 E.00508
G1 X98.318 Y124.213 E.01008
G1 X95.316 Y121.211 E.13812
G1 X94.902 Y121.209 E.01347
G1 X94.732 Y121.18 E.00561
G1 X98.857 Y125.304 E.18976
G1 X98.948 Y125.508 E.00727
G1 X99.087 Y125.705 E.00784
G1 X98.832 Y125.833 E.00928
G1 X94.068 Y121.069 E.21919
G1 X93.696 Y121.069 E.0121
G1 X93.492 Y121.046 E.00668
G1 X98.462 Y126.017 E.22869
G1 X98.088 Y126.196 E.01349
G1 X92.656 Y120.764 E.24992
G1 X92.493 Y120.736 E.00538
G1 X92.322 Y120.674 E.00592
G1 X92.141 Y120.577 E.00668
G1 X91.893 Y120.372 E.01047
G1 X91.567 Y120.228 E.01159
G1 X97.735 Y126.396 E.28378
G1 X97.627 Y126.48 E.00445
G1 X97.453 Y126.668 E.00833
G1 X89.834 Y119.048 E.35057
G1 X89.559 Y119.327 E.01274
G1 X97.182 Y126.95 E.35073
G1 X96.899 Y127.22 E.01273
G1 X89.28 Y119.601 E.35054
G1 X89.207 Y119.658 E.00301
G1 X89.804 Y120.223 E.02674
G1 X89.969 Y120.425 E.00849
G1 X90.073 Y120.64 E.00777
G1 X90.296 Y120.873 E.01049
G1 X90.406 Y121.018 E.00592
G1 X90.503 Y121.229 E.00756
G1 X90.722 Y121.508 E.01154
G1 X90.805 Y121.68 E.00621
G1 X96.53 Y127.404 E.26338
G1 X96.161 Y127.589 E.01343
G1 X91.133 Y122.561 E.23133
G1 X91.305 Y123.076 E.01766
G1 X91.313 Y123.294 E.0071
G1 X95.758 Y127.738 E.20449
G1 X95.58 Y127.822 E.0064
G1 X95.289 Y127.824 E.00947
G1 X91.448 Y123.982 E.17674
G1 X91.465 Y124.07 E.00292
G1 X91.465 Y124.553 E.01571
G1 X94.736 Y127.823 E.15047
G1 X94.393 Y127.822 E.01116
G1 X94.259 Y127.748 E.00498
G1 X94.065 Y127.706 E.00646
G1 X91.466 Y125.107 E.11958
G1 X91.466 Y125.375 E.00872
G1 X91.426 Y125.62 E.00808
G1 X93.01 Y127.204 E.07288
G1 X92.887 Y127.149 E.00438
G1 X92.569 Y127.11 E.01042
G1 X92.419 Y127.04 E.00539
G1 X92.254 Y127.001 E.00552
G1 X91.323 Y126.071 E.04281
G1 X91.322 Y126.243 E.0056
G1 X91.292 Y126.449 E.00677
G1 X91.253 Y126.554 E.00364
G1 X91.833 Y127.134 E.02669
M204 P1000
G1 E-2.24 F4200
;WIPE_START
G1 F7200
G1 X91.253 Y126.554 E-.45455
G1 X91.292 Y126.449 E-.06207
G1 X91.322 Y126.243 E-.11536
G1 X91.323 Y126.071 E-.09532
G1 X91.62 Y126.368 E-.2327
;WIPE_END
G1 Z.4 F720
G1 X78.818 Y116.337 F9000
G1 Z.2 F720
G1 E3.2 F2400
M204 P600
;TYPE:Perimeter
;WIDTH:0.419999
G1 F1200
G1 X78.465 Y116.108 E.01319
G1 X78.048 Y115.871 E.01504
G1 X77.118 Y115.542 E.03093
G1 X76.679 Y115.434 E.01417
G1 X75.716 Y115.434 E.03019
G1 X75.403 Y115.303 E.01064
G1 X74.864 Y115.291 E.0169
