; generated by PrusaSlicer 2.7.4 on 2024-10-19 at 16:46:34 UTC


;
;

;
;
; 

; external perimeters extrusion width = 0.40mm
; perimeters extrusion width = 0.40mm
; infill extrusion width = 0.45mm
; solid infill extrusion width = 0.45mm
; top infill extrusion width = 0.40mm
; first layer extrusion width = 0.42mm

M73 P0 R43
M201 X2500 Y2500 Z400 E5000 ; sets maximum accelerations, mm/sec^2
M203 X180 Y180 Z12 E80 ; sets maximum feedrates, mm / sec
M204 P2000 R1250 T2500 ; sets acceleration (P, T) and retract acceleration (R), mm/sec^2
M205 X8.00 Y8.00 Z2.00 E10.00 ; sets the jerk limits, mm/sec
M205 S0 T0 ; sets the minimum extruding and travel feed rate, mm/sec

; printing object binary_cyan.stl id:0 copy 0
; stop printing object binary_cyan.stl id:0 copy 0

;TYPE:Custom
M862.3 P "MINI" ; printer model check
G90 ; use absolute coordinates
M83 ; extruder relative mode
M104 S170 ; set extruder temp for bed leveling
M140 S60 ; set bed temp
M109 R170 ; wait for bed leveling temp
M190 S60 ; wait for bed temp
M204 T1250 ; set travel acceleration
G28 ; home all without mesh bed level
G29 ; mesh bed leveling 
M204 T2500 ; restore travel acceleration
M104 S215 ; set extruder temp
G92 E0
G1 Y-2 X179 F2400
G1 Z3 F720
M109 S215 ; wait for extruder temp

; intro line
G1 X170 F1000
G1 Z0.2 F720
G1 X110 E8 F900
G1 X40 E10 F700
G92 E0

M221 S95 ; set flow
G21 ; set units to millimeters
G90 ; use absolute coordinates
M83 ; use relative distances for extrusion
M900 K0.2 ; Filament gcode LA 1.5
; ; Filament gcode LA 1.0
M107
;LAYER_CHANGE
;Z:0.2
;HEIGHT:0.2
G1 E-3.2 F4200
G1 Z.4 F720
G1 X64.002 Y69.538 F9000
G1 Z.2 F720
G1 E3.2 F2400
M204 P600
;TYPE:Skirt/Brim
;WIDTH:0.42
G1 F1200
G1 X68.678 Y66.428 E.17608
G1 X69.994 Y66.03 E.04311
G1 X70.191 Y66.033 E.00618
G1 X112.304 Y67.999 E1.32186
G1 X112.945 Y68.118 E.02044
G1 X113.681 Y68.388 E.02458
G1 X115.791 Y69.52 E.07508
G1 X116.184 Y69.837 E.01583
G1 X117.534 Y71.25 E.06127
G1 X118.3 Y72.582 E.04818
G1 X118.71 Y73.74 E.03852
G1 X118.832 Y74.492 E.02389
G1 X118.832 Y76.158 E.05224
G1 X118.618 Y77.306 E.03661
G1 X117.712 Y79.215 E.06625
G1 X96.513 Y110.732 E1.19093
G1 X95.952 Y111.317 E.02541
G1 X91.042 Y114.887 E.19034
G1 X71.094 Y124.289 E.69145
G1 X69.994 Y124.516 E.03522
G1 X68.86 Y124.228 E.03668
G1 X62.34 Y120.689 E.2326
G1 X61.035 Y119.778 E.0499
G1 X60.211 Y118.971 E.03616
G1 X59.284 Y117.64 E.05086
G1 X51.448 Y103.244 E.51391
G1 X51.201 Y102.61 E.02133
G1 X50.664 Y100.572 E.06608
G1 X50.586 Y99.874 E.02202
G1 X50.76 Y98.981 E.02853
G1 X61.308 Y73.021 E.87858
G1 X62.008 Y71.621 E.04908
G1 X62.436 Y71.038 E.02268
M73 P1 R43
G1 X63.958 Y69.58 E.06608
M204 P1000
G1 E-2.24 F4200
;WIPE_START
G1 F7200
G1 X64.002 Y69.538 E-.03371
G1 X65.394 Y68.612 E-.92629
;WIPE_END
G1 Z.4 F720
; printing object binary_cyan.stl id:0 copy 0
G1 X106.998 Y76.638 F9000
G1 Z.2 F720
G1 E3.2 F2400
M204 P600
;TYPE:Perimeter
;WIDTH:0.419999
G1 F1200
G1 X107.399 Y76.251 E.01747
G1 X107.513 Y76.002 E.00859
G1 X107.619 Y75.885 E.00495
G1 X108.195 Y74.8 E.03852
G1 X108.533 Y73.805 E.03295
G1 X108.78 Y73.307 E.01743
G1 X108.938 Y73.131 E.00742
G1 X109.049 Y72.903 E.00795
G1 X109.501 Y72.447 E.02013
G1 X109.646 Y72.391 E.00487
G1 X109.825 Y72.26 E.00695
G1 X110.17 Y72.055 E.01258
G1 X110.644 Y71.819 E.0166
G1 X111.718 Y71.537 E.03482
G1 X112.002 Y71.634 E.00941
G1 X112.221 Y71.674 E.00698
G1 X113.521 Y72.315 E.04545
G1 X113.681 Y72.46 E.00677
G1 X113.912 Y72.573 E.00806
G1 X114.531 Y73.192 E.02745
G1 X114.601 Y73.358 E.00565
M73 P1 R42
G1 X114.712 Y73.504 E.00575
G1 X115.01 Y74.036 E.01912
G1 X115.16 Y74.544 E.01661
G1 X115.291 Y74.86 E.01073
G1 X115.291 Y75.789 E.02913
G1 X115.191 Y75.977 E.00668
G1 X115.116 Y76.387 E.01307
G1 X114.678 Y77.309 E.032
G1 X114.17 Y77.85 E.02327
G1 X113.777 Y78.212 E.01675
G1 X113.664 Y78.243 E.00367
G1 X113.378 Y78.477 E.01159
G1 X112.884 Y78.691 E.01688
G1 X112.565 Y78.795 E.01052
G1 X112.276 Y78.84 E.00917
G1 X111.961 Y78.969 E.01067
G1 X111.333 Y78.969 E.01969
G1 X110.72 Y78.73 E.02063
G1 X110.347 Y78.683 E.01179
G1 X109.956 Y78.412 E.01492
G1 X109.486 Y78.191 E.01628
G1 X109.329 Y78.049 E.00664
G1 X109.096 Y77.933 E.00816
G1 X108.78 Y77.625 E.01384
G1 X108.445 Y77.357 E.01345
G1 X108.067 Y77.106 E.01423
G1 X107.51 Y76.835 E.01942
G1 X107.054 Y76.66 E.01531
M204 P1000
G1 X107.054 Y76.66 F9000
G1 X106.248 Y76.814
M204 P600
G1 F1200
G1 X107.091 Y76.033 E.03603
G1 X107.174 Y75.814 E.00734
G1 X107.338 Y75.634 E.00764
G1 X107.838 Y74.67 E.03405
G1 X107.911 Y74.391 E.00904
G1 X107.994 Y74.216 E.00607
G1 X108.054 Y73.962 E.00818
G1 X108.448 Y73.111 E.0294
G1 X108.636 Y72.904 E.00877
G1 X108.729 Y72.69 E.00732
G1 X109.273 Y72.142 E.02421
G1 X109.461 Y72.063 E.00639
G1 X109.723 Y71.841 E.01077
G1 X110.48 Y71.476 E.02635
G1 X110.676 Y71.436 E.00627
G1 X110.923 Y71.322 E.00853
G1 X111.227 Y71.297 E.00956
G1 X111.495 Y71.179 E.00918
G1 X111.887 Y71.16 E.01231
G1 X112.03 Y71.238 E.00511
G1 X112.37 Y71.322 E.01098
G1 X112.615 Y71.433 E.00843
G1 X113.053 Y71.678 E.01574
G1 X113.717 Y71.983 E.02291
G1 X113.908 Y72.157 E.0081
G1 X114.132 Y72.259 E.00772
G1 X114.834 Y72.961 E.03113
G1 X114.921 Y73.16 E.00681
G1 X115.13 Y73.401 E.01
G1 X115.352 Y73.872 E.01633
G1 X115.387 Y74.037 E.00529
G1 X115.495 Y74.301 E.00894
G1 X115.532 Y74.483 E.00582
G1 X115.668 Y74.798 E.01076
G1 X115.668 Y75.851 E.03302
G1 X115.551 Y76.09 E.00834
G1 X115.525 Y76.423 E.01047
G1 X115.29 Y76.881 E.01614
G1 X114.998 Y77.521 E.02206
G1 X114.471 Y78.078 E.02404
G1 X113.99 Y78.531 E.02072
G1 X113.856 Y78.567 E.00435
G1 X113.574 Y78.809 E.01165
G1 X113.099 Y79.03 E.01643
G1 X112.903 Y79.07 E.00627
G1 X112.657 Y79.184 E.0085
G1 X112.35 Y79.21 E.00966
G1 X112.062 Y79.346 E.00999
G1 X111.263 Y79.346 E.02505
G1 X111.054 Y79.239 E.00736
G1 X110.856 Y79.203 E.00631
G1 X110.62 Y79.094 E.00815
G1 X110.262 Y79.06 E.01128
G1 X110.003 Y78.95 E.00882
G1 X109.814 Y78.778 E.00801
G1 X109.29 Y78.523 E.01827
G1 X109.099 Y78.349 E.0081
G1 X108.879 Y78.248 E.00759
G1 X108.359 Y77.747 E.02264
G1 X108.135 Y77.655 E.00759
G1 X107.955 Y77.491 E.00764
G1 X107.53 Y77.259 E.01518
G1 X107.023 Y77.017 E.01761
G1 X106.306 Y76.829 E.02324
M204 P1000
G1 X106.306 Y76.829 F9000
G1 X105.115 Y77.206
M204 P600
;TYPE:External perimeter
G1 F1200
G1 X105.545 Y76.794 E.01867
G1 X105.964 Y76.539 E.01538
G1 X106.784 Y75.815 E.0343
G1 X106.818 Y75.644 E.00547
G1 X107.056 Y75.383 E.01107
G1 X107.248 Y74.963 E.01448
G1 X107.35 Y74.795 E.00616
G1 X107.391 Y74.677 E.00392
G1 X107.503 Y74.495 E.0067
G1 X107.534 Y74.207 E.00908
G1 X107.657 Y74.047 E.00633
G1 X107.677 Y73.777 E.00849
G1 X107.779 Y73.65 E.00511
G1 X107.82 Y73.533 E.00389
G1 X107.922 Y73.364 E.00619
G1 X108.106 Y72.961 E.01389
G1 X108.343 Y72.666 E.01186
G1 X108.392 Y72.494 E.00561
G1 X109.098 Y71.783 E.03142
G1 X109.226 Y71.753 E.00412
G1 X109.515 Y71.519 E.01166
G1 X109.649 Y71.48 E.00438
G1 X109.781 Y71.381 E.00517
G1 X109.902 Y71.349 E.00392
G1 X110.067 Y71.238 E.00624
G1 X110.188 Y71.206 E.00392
G1 X110.385 Y71.069 E.00752
G1 X110.595 Y71.068 E.00658
G1 X110.814 Y70.926 E.00818
G1 X111.162 Y70.925 E.01091
G1 X111.386 Y70.783 E.00832
G1 X112.05 Y70.783 E.02082
G1 X112.207 Y70.904 E.00621
G1 X112.479 Y70.926 E.00856
G1 X112.606 Y71.028 E.00511
G1 X113.01 Y71.212 E.01392
G1 X113.75 Y71.6 E.0262
G1 X113.868 Y71.641 E.00392
G1 X114.162 Y71.878 E.01184
G1 X114.333 Y71.927 E.00558
G1 X115.19 Y72.784 E.038
G1 X115.219 Y72.907 E.00396
G1 X115.452 Y73.193 E.01157
G1 X115.491 Y73.327 E.00438
G1 X115.59 Y73.459 E.00517
G1 X115.622 Y73.58 E.00392
G1 X115.759 Y73.777 E.00752
G1 X115.761 Y73.987 E.00658
G1 X115.902 Y74.207 E.00819
G1 X115.904 Y74.421 E.00671
G1 X116.045 Y74.636 E.00806
G1 X116.045 Y74.798 E.00508
G1 X116.045 Y76.014 E.03813
G1 X115.911 Y76.202 E.00724
G1 X115.902 Y76.586 E.01204
G1 X115.8 Y76.713 E.00511
G1 X115.759 Y76.831 E.00392
G1 X115.514 Y77.285 E.01618
G1 X115.473 Y77.403 E.00392
G1 X115.371 Y77.571 E.00616
G1 X115.33 Y77.721 E.00488
G1 X114.811 Y78.252 E.02328
G1 X114.758 Y78.384 E.00446
G1 X114.577 Y78.487 E.00653
G1 X114.217 Y78.836 E.01572
G1 X114.049 Y78.892 E.00555
G1 X113.783 Y79.128 E.01115
G1 X113.642 Y79.17 E.00461
G1 X113.512 Y79.268 E.0051
G1 X113.391 Y79.3 E.00392
G1 X113.194 Y79.437 E.00752
G1 X112.985 Y79.439 E.00655
G1 X112.765 Y79.58 E.00819
G1 X112.422 Y79.581 E.01075
G1 X112.192 Y79.723 E.00848
G1 X111.1 Y79.723 E.03424
G1 X110.922 Y79.592 E.00693
G1 X110.671 Y79.58 E.00788
G1 X110.516 Y79.46 E.00615
G1 X110.099 Y79.437 E.01309
G1 X109.972 Y79.335 E.00511
G1 X109.855 Y79.294 E.00389
G1 X109.587 Y79.081 E.01073
G1 X109.258 Y78.906 E.01168
G1 X109.14 Y78.865 E.00392
G1 X108.845 Y78.628 E.01186
G1 X108.649 Y78.551 E.0066
G1 X108.138 Y78.052 E.02239
G1 X107.962 Y78.007 E.0057
G1 X107.701 Y77.77 E.01105
G1 X107.28 Y77.578 E.01451
G1 X107.111 Y77.477 E.00617
G1 X106.993 Y77.436 E.00392
G1 X106.811 Y77.33 E.0066
G1 X106.491 Y77.307 E.01006
G1 X106.368 Y77.223 E.00467
G1 X106.222 Y77.195 E.00466
G1 X105.708 Y77.306 E.01649
G1 X105.592 Y77.234 E.00428
G1 X105.175 Y77.21 E.0131
M204 P1000
G1 E-2.24 F4200
;WIPE_START
G1 F7200
G1 X105.115 Y77.206 E-.03332
G1 X105.545 Y76.794 E-.33002
G1 X105.964 Y76.539 E-.27182
G1 X106.403 Y76.151 E-.32484
;WIPE_END
G1 Z.4 F720
G1 X114.763 Y73.91 F9000
G1 Z.2 F720
G1 E3.2 F2400
M204 P600
;TYPE:Solid infill
;WIDTH:0.429116
G1 F1200
G1 X113.71 Y72.857 E.04782
G1 X113.585 Y72.813 E.00426
G1 X113.354 Y72.62 E.00967
G1 X112.509 Y72.202 E.03027
G1 X114.773 Y74.466 E.10282
G1 X114.826 Y74.575 E.00389
G1 X114.867 Y74.781 E.00674
G1 X114.951 Y74.938 E.00572
G1 X114.951 Y75.191 E.00812
G1 X111.663 Y71.902 E.14934
G1 X111.542 Y71.956 E.00425
G1 X111.372 Y71.999 E.00563
G1 X111.226 Y72.011 E.0047
G1 X114.944 Y75.73 E.16887
G1 X114.85 Y75.926 E.00698
G1 X114.823 Y76.155 E.0074
G1 X110.805 Y72.136 E.18249
G1 X110.424 Y72.302 E.01335
G1 X114.662 Y76.54 E.19246
G1 X114.48 Y76.904 E.01307
G1 X110.068 Y72.493 E.20034
G1 X109.88 Y72.648 E.00782
G1 X109.741 Y72.711 E.0049
G1 X114.273 Y77.243 E.20581
G1 X114.008 Y77.524 E.0124
G1 X109.457 Y72.974 E.20665
G1 X109.338 Y73.094 E.00543
G1 X109.277 Y73.243 E.00517
G1 X109.233 Y73.296 E.00221
G1 X113.73 Y77.793 E.20423
G1 X113.593 Y77.919 E.00598
G1 X113.481 Y77.954 E.00377
G1 X113.406 Y78.015 E.0031
G1 X109.012 Y73.621 E.19955
G1 X108.827 Y73.982 E.01303
G1 X113.081 Y78.236 E.19319
G1 X112.827 Y78.359 E.00906
G1 X112.688 Y78.389 E.00457
G1 X108.692 Y74.393 E.18147
G1 X108.61 Y74.573 E.00635
G1 X108.556 Y74.803 E.00759
G1 X112.262 Y78.509 E.1683
G1 X112.128 Y78.524 E.00433
G1 X111.984 Y78.57 E.00485
G1 X111.877 Y78.63 E.00394
G1 X111.836 Y78.63 E.00132
G1 X108.379 Y75.172 E.15702
G1 X108.196 Y75.536 E.01308
G1 X111.203 Y78.542 E.13654
G1 X111.039 Y78.504 E.00541
G1 X110.788 Y78.394 E.0088
G1 X110.465 Y78.351 E.01046
G1 X108.022 Y75.907 E.11097
G1 X107.815 Y76.171 E.01077
G1 X107.794 Y76.226 E.00189
G1 X109.641 Y78.073 E.08388
M204 P1000
G1 E-2.24 F4200
;WIPE_START
G1 F7200
G1 X108.416 Y76.848 E-.96
;WIPE_END
G1 Z.4 F720
G1 X89.984 Y110.473 F9000
G1 Z.2 F720
G1 E3.2 F2400
M204 P600
;TYPE:Perimeter
;WIDTH:0.419999
G1 F1200
G1 X89.001 Y109.481 E.04379
G1 X88.733 Y109.349 E.00937
G1 X88.571 Y109.204 E.00682
G1 X88.315 Y109.073 E.00902
G1 X88.189 Y108.958 E.00535
G1 X87.743 Y108.702 E.01612
G1 X86.785 Y108.365 E.03184
G1 X86.403 Y108.284 E.01224
G1 X83.695 Y108.284 E.08491
G1 X83.533 Y108.298 E.0051
G1 X83.225 Y108.427 E.01047
G1 X82.296 Y108.427 E.02913
G1 X81.717 Y108.197 E.01953
G1 X81.241 Y108.04 E.01572
G1 X80.773 Y107.813 E.01631
G1 X80.551 Y107.599 E.00967
G1 X80.119 Y107.302 E.01644
G1 X79.945 Y107.013 E.01058
G1 X79.587 Y106.627 E.01651
G1 X79.396 Y106.215 E.01424
G1 X79.245 Y105.692 E.01707
G1 X79.116 Y105.386 E.01041
G1 X79.116 Y105.002 E.01204
G1 X79.079 Y104.738 E.00836
G1 X79.109 Y104.541 E.00625
G1 X79.116 Y104.036 E.01584
G1 X79.282 Y103.594 E.0148
G1 X79.728 Y102.657 E.03254
G1 X80.333 Y102.035 E.02721
G1 X80.966 Y100.787 E.04388
G1 X81.333 Y99.776 E.03372
G1 X81.548 Y98.843 E.03002
G1 X81.548 Y98.309 E.01674
G1 X81.653 Y98.106 E.00717
G1 X81.69 Y97.842 E.00836
G1 X81.681 Y96.142 E.0533
G1 X81.535 Y95.696 E.01471
G1 X81.404 Y95.38 E.01073
G1 X81.404 Y94.451 E.02913
G1 X81.504 Y94.264 E.00665
G1 X81.548 Y93.982 E.00895
G1 X81.671 Y93.597 E.01267
G1 X81.794 Y93.402 E.00723
G1 X81.939 Y93.104 E.01039
G1 X82.157 Y92.775 E.01237
G1 X82.317 Y92.484 E.01041
G1 X82.623 Y92.183 E.01346
G1 X82.704 Y92.163 E.00262
G1 X83.024 Y91.913 E.01273
G1 X83.092 Y91.897 E.00219
G1 X83.617 Y91.552 E.0197
G1 X84.135 Y91.4 E.01693
G1 X84.436 Y91.271 E.01027
G1 X85.662 Y91.271 E.03844
G1 X86.129 Y91.456 E.01575
G1 X86.429 Y91.549 E.00985
G1 X86.924 Y91.763 E.01691
G1 X87.081 Y91.906 E.00666
G1 X87.314 Y92.02 E.00813
G1 X87.933 Y92.64 E.02747
G1 X88.003 Y92.806 E.00565
G1 X88.114 Y92.952 E.00575
G1 X88.412 Y93.484 E.01912
G1 X88.564 Y94.002 E.01693
G1 X88.693 Y94.302 E.01024
G1 X88.693 Y96.271 E.06174
G1 X88.856 Y96.893 E.02016
G1 X89.014 Y97.382 E.01611
G1 X89.243 Y97.884 E.0173
G1 X89.482 Y98.182 E.01198
G1 X89.497 Y98.25 E.00218
G1 X89.752 Y98.594 E.01343
G1 X89.766 Y98.663 E.00221
G1 X89.973 Y98.97 E.01161
G1 X90.98 Y99.954 E.04415
G1 X91.231 Y100.073 E.00871
G1 X91.346 Y100.178 E.00488
G1 X92.406 Y100.8 E.03853
G1 X92.315 Y100.965 E.00591
G1 X91.922 Y101.366 E.0176
G1 X91.369 Y102.429 E.03757
G1 X91.195 Y102.927 E.01654
G1 X90.981 Y103.858 E.02995
G1 X90.986 Y106.093 E.07008
G1 X91.092 Y106.437 E.01129
G1 X91.129 Y106.665 E.00724
G1 X91.382 Y107.446 E.02574
G1 X91.84 Y108.368 E.03228
G1 X92.194 Y108.746 E.01624
G1 X91.956 Y108.835 E.00797
G1 X91.519 Y109.12 E.01636
G1 X91.238 Y109.343 E.01125
G1 X91.151 Y109.365 E.00281
G1 X90.854 Y109.571 E.01133
G1 X90.025 Y110.429 E.03741
M204 P1000
G1 X90.025 Y110.429 F9000
G1 X89.999 Y111.347
M204 P600
G1 F1200
G1 X89.919 Y111.207 E.00506
G1 X89.811 Y110.881 E.01077
G1 X89.71 Y110.738 E.00549
G1 X88.841 Y109.843 E.03911
G1 X88.771 Y109.78 E.00295
G1 X88.544 Y109.687 E.00769
G1 X88.347 Y109.508 E.00835
G1 X88.122 Y109.407 E.00773
G1 X87.935 Y109.237 E.00792
G1 X87.54 Y109.021 E.01412
G1 X87.261 Y108.947 E.00905
G1 X87.092 Y108.867 E.00586
G1 X86.832 Y108.804 E.00839
G1 X86.659 Y108.722 E.006
G1 X86.403 Y108.661 E.00825
G1 X83.695 Y108.661 E.08491
G1 X83.598 Y108.669 E.00305
G1 X83.318 Y108.804 E.00975
G1 X82.234 Y108.804 E.03399
G1 X81.996 Y108.687 E.00832
G1 X81.827 Y108.661 E.00536
G1 X81.659 Y108.582 E.00582
G1 X81.398 Y108.518 E.00843
G1 X80.562 Y108.133 E.02886
G1 X80.25 Y107.832 E.01359
G1 X79.998 Y107.701 E.00891
G1 X79.714 Y107.427 E.01237
G1 X79.616 Y107.203 E.00767
G1 X79.267 Y106.838 E.01583
G1 X79.055 Y106.378 E.01588
G1 X79.016 Y106.183 E.00624
G1 X78.913 Y105.95 E.00799
G1 X78.874 Y105.759 E.00611
G1 X78.739 Y105.482 E.00966
G1 X78.738 Y104.966 E.01618
G1 X78.648 Y104.711 E.00848
G1 X78.737 Y104.477 E.00785
G1 X78.739 Y103.97 E.0159
G1 X78.852 Y103.746 E.00787
G1 X78.882 Y103.563 E.00581
G1 X79.409 Y102.444 E.03878
G1 X80.07 Y101.758 E.02987
G1 X80.161 Y101.519 E.00802
G1 X80.666 Y100.555 E.03412
G1 X80.741 Y100.273 E.00915
G1 X80.818 Y100.11 E.00565
G1 X80.884 Y99.844 E.00859
G1 X80.988 Y99.624 E.00763
G1 X81.027 Y99.251 E.01176
G1 X81.104 Y99.11 E.00504
G1 X81.17 Y98.843 E.00862
G1 X81.17 Y98.25 E.01859
G1 X81.291 Y98.001 E.00868
G1 X81.313 Y97.842 E.00503
G1 X81.307 Y96.197 E.05158
G1 X81.2 Y95.94 E.00873
G1 X81.163 Y95.758 E.00582
G1 X81.027 Y95.472 E.00993
G1 X81.027 Y94.389 E.03396
G1 X81.144 Y94.151 E.00832
G1 X81.17 Y93.817 E.0105
G1 X81.247 Y93.675 E.00506
G1 X81.313 Y93.409 E.00859
G1 X81.452 Y93.226 E.00721
G1 X81.708 Y92.706 E.01817
G1 X81.869 Y92.532 E.00743
G1 X81.992 Y92.274 E.00896
G1 X82.417 Y91.857 E.01867
G1 X82.528 Y91.83 E.00358
G1 X82.831 Y91.579 E.01234
G1 X82.933 Y91.556 E.00328
G1 X83.264 Y91.289 E.01333
G1 X83.453 Y91.21 E.00642
G1 X83.62 Y91.175 E.00535
G1 X83.882 Y91.067 E.00889
G1 X84.07 Y91.029 E.00601
G1 X84.349 Y90.894 E.00972
G1 X85.718 Y90.894 E.04292
G1 X85.977 Y91.017 E.00899
G1 X86.126 Y91.037 E.00471
G1 X86.299 Y91.119 E.006
G1 X86.555 Y91.18 E.00825
G1 X87.119 Y91.431 E.01936
G1 X87.31 Y91.605 E.0081
G1 X87.534 Y91.707 E.00772
