; generated by PrusaSlicer 2.7.4 on 2024-10-19 at 23:22:26 UTC


;
;

;
;
; 

; external perimeters extrusion width = 0.40mm
; perimeters extrusion width = 0.40mm
; infill extrusion width = 0.45mm
; solid infill extrusion width = 0.45mm
; top infill extrusion width = 0.40mm
; first layer extrusion width = 0.42mm

M73 P0 R773
M201 X2500 Y2500 Z400 E5000 ; sets maximum accelerations, mm/sec^2
M203 X180 Y180 Z12 E80 ; sets maximum feedrates, mm / sec
M204 P2000 R1250 T2500 ; sets acceleration (P, T) and retract acceleration (R), mm/sec^2
M205 X8.00 Y8.00 Z2.00 E10.00 ; sets the jerk limits, mm/sec
M205 S0 T0 ; sets the minimum extruding and travel feed rate, mm/sec

; printing object binary_black.stl id:0 copy 0
; stop printing object binary_black.stl id:0 copy 0

;TYPE:Custom
M862.3 P "MINI" ; printer model check
G90 ; use absolute coordinates
M83 ; extruder relative mode
M104 S170 ; set extruder temp for bed leveling
M140 S60 ; set bed temp
M109 R170 ; wait for bed leveling temp
M190 S60 ; wait for bed temp
M204 T1250 ; set travel acceleration
G28 ; home all without mesh bed level
G29 ; mesh bed leveling 
M204 T2500 ; restore travel acceleration
M104 S215 ; set extruder temp
G92 E0
G1 Y-2 X179 F2400
G1 Z3 F720
M109 S215 ; wait for extruder temp

; intro line
G1 X170 F1000
G1 Z0.2 F720
G1 X110 E8 F900
G1 X40 E10 F700
G92 E0

M221 S95 ; set flow
G21 ; set units to millimeters
G90 ; use absolute coordinates
M83 ; use relative distances for extrusion
M900 K0.2 ; Filament gcode LA 1.5
; ; Filament gcode LA 1.0
M107
;LAYER_CHANGE
;Z:0.2
;HEIGHT:0.2
G1 E-3.2 F4200
G1 Z.4 F720
G1 X16.515 Y17.193 F9000
G1 Z.2 F720
G1 E3.2 F2400
M204 P600
;TYPE:Skirt/Brim
;WIDTH:0.42
G1 F1200
G1 X17.56 Y16.317 E.04275
G1 X18.5 Y16.123 E.03009
G1 X161.5 Y16.123 E4.48366
G1 X162.807 Y16.515 E.04278
G1 X163.683 Y17.56 E.04275
G1 X163.877 Y18.5 E.03009
G1 X163.877 Y161.5 E4.48366
G1 X163.485 Y162.807 E.04278
G1 X162.44 Y163.683 E.04275
G1 X161.5 Y163.877 E.03009
G1 X18.5 Y163.877 E4.48366
G1 X17.193 Y163.485 E.04278
G1 X16.317 Y162.44 E.04275
G1 X16.123 Y161.5 E.03009
G1 X16.123 Y18.5 E4.48366
G1 X16.497 Y17.25 E.04091
M204 P1000
G1 E-2.24 F4200
;WIPE_START
G1 F7200
G1 X16.515 Y17.193 E-.03313
G1 X17.56 Y16.317 E-.75566
G1 X17.863 Y16.255 E-.17121
;WIPE_END
G1 Z.4 F720
; printing object binary_black.stl id:0 copy 0
G1 X160.336 Y160.336 F9000
G1 Z.2 F720
G1 E3.2 F2400
M204 P600
;TYPE:Perimeter
;WIDTH:0.419999
G1 F1200
G1 X19.664 Y160.336 E4.41066
G1 X19.664 Y19.664 E4.41066
M73 P0 R772
G1 X160.336 Y19.664 E4.41066
G1 X160.336 Y90 E2.20533
G1 X160.336 Y160.276 E2.20345
M204 P1000
G1 X160.336 Y160.276 F9000
G1 X160.713 Y160.713
M204 P600
G1 F1200
G1 X19.287 Y160.713 E4.43431
G1 X19.287 Y19.287 E4.43431
G1 X160.713 Y19.287 E4.43431
G1 X160.713 Y90 E2.21715
G1 X160.713 Y160.653 E2.21527
M204 P1000
G1 X161.09 Y161.09 F9000
M204 P600
;TYPE:External perimeter
G1 F1200
G1 X18.91 Y161.09 E4.45795
G1 X18.91 Y18.91 E4.45795
G1 X161.09 Y18.91 E4.45795
M73 P0 R771
G1 X161.09 Y90 E2.22897
G1 X161.09 Y161.03 E2.22709
M204 P1000
G1 E-2.24 F4200
;WIPE_START
G1 F7200
G1 X161.09 Y161.09 E-.03325
G1 X159.418 Y161.09 E-.92675
;WIPE_END
G1 Z.4 F720
G1 X160.166 Y20.597 F9000
G1 Z.2 F720
G1 E3.2 F2400
M204 P600
;TYPE:Solid infill
;WIDTH:0.420321
G1 F1200
G1 X159.573 Y20.004 E.02632
G1 X159.039 Y20.004 E.01676
G1 X159.996 Y20.961 E.04247
G1 X159.996 Y21.495 E.01676
G1 X158.505 Y20.004 E.06617
G1 X157.972 Y20.004 E.01673
G1 X159.996 Y22.028 E.08982
G1 X159.996 Y22.562 E.01676
G1 X157.438 Y20.004 E.11352
G1 X156.904 Y20.004 E.01676
G1 X159.996 Y23.096 E.13722
G1 X159.996 Y23.629 E.01673
G1 X156.371 Y20.004 E.16088
G1 X155.837 Y20.004 E.01676
G1 X159.996 Y24.163 E.18457
G1 X159.996 Y24.697 E.01676
G1 X155.303 Y20.004 E.20827
G1 X154.769 Y20.004 E.01676
G1 X159.996 Y25.231 E.23197
G1 X159.996 Y25.764 E.01673
G1 X154.236 Y20.004 E.25563
G1 X153.702 Y20.004 E.01676
G1 X159.996 Y26.298 E.27932
G1 X159.996 Y26.832 E.01676
G1 X153.168 Y20.004 E.30302
G1 X152.634 Y20.004 E.01676
G1 X159.996 Y27.366 E.32672
G1 X159.996 Y27.899 E.01673
G1 X152.101 Y20.004 E.35038
G1 X151.567 Y20.004 E.01676
G1 X159.996 Y28.433 E.37407
G1 X159.996 Y28.967 E.01676
G1 X151.033 Y20.004 E.39777
G1 X150.5 Y20.004 E.01673
G1 X159.996 Y29.5 E.42143
G1 X159.996 Y30.034 E.01676
G1 X149.966 Y20.004 E.44513
G1 X149.432 Y20.004 E.01676
G1 X159.996 Y30.568 E.46882
G1 X159.996 Y31.102 E.01676
G1 X148.898 Y20.004 E.49252
G1 X148.365 Y20.004 E.01673
G1 X159.996 Y31.635 E.51618
G1 X159.996 Y32.169 E.01676
G1 X147.831 Y20.004 E.53988
G1 X147.297 Y20.004 E.01676
G1 X159.996 Y32.703 E.56357
G1 X159.996 Y33.237 E.01676
G1 X146.763 Y20.004 E.58727
G1 X146.23 Y20.004 E.01673
G1 X159.996 Y33.77 E.61093
G1 X159.996 Y34.304 E.01676
G1 X145.696 Y20.004 E.63463
G1 X145.162 Y20.004 E.01676
G1 X159.996 Y34.838 E.65832
G1 X159.996 Y35.371 E.01673
G1 X144.629 Y20.004 E.68198
G1 X144.095 Y20.004 E.01676
G1 X159.996 Y35.905 E.70568
G1 X159.996 Y36.439 E.01676
G1 X143.561 Y20.004 E.72938
G1 X143.027 Y20.004 E.01676
G1 X159.996 Y36.973 E.75308
G1 X159.996 Y37.506 E.01673
G1 X142.494 Y20.004 E.77673
G1 X141.96 Y20.004 E.01676
G1 X159.996 Y38.04 E.80043
G1 X159.996 Y38.574 E.01676
G1 X141.426 Y20.004 E.82413
G1 X140.892 Y20.004 E.01676
G1 X159.996 Y39.108 E.84783
G1 X159.996 Y39.641 E.01673
G1 X140.359 Y20.004 E.87148
G1 X139.825 Y20.004 E.01676
G1 X159.996 Y40.175 E.89518
G1 X159.996 Y40.709 E.01676
G1 X139.291 Y20.004 E.91888
G1 X138.758 Y20.004 E.01673
G1 X159.996 Y41.242 E.94253
G1 X159.996 Y41.776 E.01676
G1 X138.224 Y20.004 E.96623
G1 X137.69 Y20.004 E.01676
G1 X159.996 Y42.31 E.98993
G1 X159.996 Y42.844 E.01676
G1 X137.156 Y20.004 E1.01363
G1 X136.623 Y20.004 E.01673
G1 X159.996 Y43.377 E1.03728
G1 X159.996 Y43.911 E.01676
M73 P0 R770
G1 X136.089 Y20.004 E1.06098
G1 X135.555 Y20.004 E.01676
G1 X159.996 Y44.445 E1.08468
G1 X159.996 Y44.978 E.01673
G1 X135.022 Y20.004 E1.10833
G1 X134.488 Y20.004 E.01676
G1 X159.996 Y45.512 E1.13203
G1 X159.996 Y46.046 E.01676
G1 X133.954 Y20.004 E1.15573
G1 X133.42 Y20.004 E.01676
G1 X159.996 Y46.58 E1.17943
G1 X159.996 Y47.113 E.01673
G1 X132.887 Y20.004 E1.20308
G1 X132.353 Y20.004 E.01676
G1 X159.996 Y47.647 E1.22678
G1 X159.996 Y48.181 E.01676
G1 X131.819 Y20.004 E1.25048
G1 X131.285 Y20.004 E.01676
G1 X159.996 Y48.715 E1.27418
G1 X159.996 Y49.248 E.01673
G1 X130.752 Y20.004 E1.29783
G1 X130.218 Y20.004 E.01676
G1 X159.996 Y49.782 E1.32153
G1 X159.996 Y50.316 E.01676
G1 X129.684 Y20.004 E1.34523
G1 X129.151 Y20.004 E.01673
G1 X159.996 Y50.849 E1.36888
G1 X159.996 Y51.383 E.01676
G1 X128.617 Y20.004 E1.39258
G1 X128.083 Y20.004 E.01676
G1 X159.996 Y51.917 E1.41628
G1 X159.996 Y52.451 E.01676
G1 X127.549 Y20.004 E1.43998
G1 X127.016 Y20.004 E.01673
G1 X159.996 Y52.984 E1.46363
G1 X159.996 Y53.518 E.01676
G1 X126.482 Y20.004 E1.48733
G1 X125.948 Y20.004 E.01676
G1 X159.996 Y54.052 E1.51103
G1 X159.996 Y54.586 E.01676
G1 X125.414 Y20.004 E1.53473
G1 X124.881 Y20.004 E.01673
G1 X159.996 Y55.119 E1.55838
G1 X159.996 Y55.653 E.01676
G1 X124.347 Y20.004 E1.58208
G1 X123.813 Y20.004 E.01676
G1 X159.996 Y56.187 E1.60578
G1 X159.996 Y56.72 E.01673
G1 X123.28 Y20.004 E1.62944
G1 X122.746 Y20.004 E.01676
G1 X159.996 Y57.254 E1.65314
G1 X159.996 Y57.788 E.01676
G1 X122.212 Y20.004 E1.67683
G1 X121.678 Y20.004 E.01676
M73 P0 R769
G1 X159.996 Y58.322 E1.70053
G1 X159.996 Y58.855 E.01673
G1 X121.145 Y20.004 E1.72419
G1 X120.611 Y20.004 E.01676
G1 X159.996 Y59.389 E1.74789
G1 X159.996 Y59.923 E.01676
G1 X120.077 Y20.004 E1.77158
G1 X119.543 Y20.004 E.01676
G1 X159.996 Y60.457 E1.79528
G1 X159.996 Y60.99 E.01673
G1 X119.01 Y20.004 E1.81894
G1 X118.476 Y20.004 E.01676
G1 X159.996 Y61.524 E1.84264
G1 X159.996 Y62.058 E.01676
G1 X117.942 Y20.004 E1.86633
G1 X117.409 Y20.004 E.01673
G1 X159.996 Y62.591 E1.88999
G1 X159.996 Y63.125 E.01676
G1 X116.875 Y20.004 E1.91369
G1 X116.341 Y20.004 E.01676
G1 X159.996 Y63.659 E1.93739
G1 X159.996 Y64.193 E.01676
G1 X115.807 Y20.004 E1.96108
G1 X115.274 Y20.004 E.01673
G1 X159.996 Y64.726 E1.98474
G1 X159.996 Y65.26 E.01676
G1 X114.74 Y20.004 E2.00844
G1 X114.206 Y20.004 E.01676
G1 X159.996 Y65.794 E2.03214
G1 X159.996 Y66.328 E.01676
G1 X113.672 Y20.004 E2.05583
G1 X113.139 Y20.004 E.01673
G1 X159.996 Y66.861 E2.07949
G1 X159.996 Y67.395 E.01676
G1 X112.605 Y20.004 E2.10319
G1 X112.071 Y20.004 E.01676
G1 X159.996 Y67.929 E2.12689
G1 X159.996 Y68.462 E.01673
G1 X111.538 Y20.004 E2.15054
G1 X111.004 Y20.004 E.01676
M73 P0 R768
G1 X159.996 Y68.996 E2.17424
G1 X159.996 Y69.53 E.01676
G1 X110.47 Y20.004 E2.19794
G1 X109.936 Y20.004 E.01676
G1 X159.996 Y70.064 E2.22164
G1 X159.996 Y70.597 E.01673
G1 X109.403 Y20.004 E2.24529
G1 X108.869 Y20.004 E.01676
G1 X159.996 Y71.131 E2.26899
G1 X159.996 Y71.665 E.01676
G1 X108.335 Y20.004 E2.29269
G1 X107.802 Y20.004 E.01673
G1 X159.996 Y72.198 E2.31634
G1 X159.996 Y72.732 E.01676
G1 X107.268 Y20.004 E2.34004
G1 X106.734 Y20.004 E.01676
G1 X159.996 Y73.266 E2.36374
G1 X159.996 Y73.8 E.01676
G1 X106.2 Y20.004 E2.38744
G1 X105.667 Y20.004 E.01673
G1 X159.996 Y74.333 E2.41109
G1 X159.996 Y74.867 E.01676
G1 X105.133 Y20.004 E2.43479
G1 X104.599 Y20.004 E.01676
G1 X159.996 Y75.401 E2.45849
G1 X159.996 Y75.935 E.01676
G1 X104.065 Y20.004 E2.48219
G1 X103.532 Y20.004 E.01673
G1 X159.996 Y76.468 E2.50584
G1 X159.996 Y77.002 E.01676
G1 X102.998 Y20.004 E2.52954
G1 X102.464 Y20.004 E.01676
M73 P0 R767
G1 X159.996 Y77.536 E2.55324
G1 X159.996 Y78.069 E.01673
G1 X101.931 Y20.004 E2.57689
G1 X101.397 Y20.004 E.01676
G1 X159.996 Y78.603 E2.60059
G1 X159.996 Y79.137 E.01676
G1 X100.863 Y20.004 E2.62429
G1 X100.329 Y20.004 E.01676
G1 X159.996 Y79.671 E2.64799
G1 X159.996 Y80.204 E.01673
G1 X99.796 Y20.004 E2.67164
G1 X99.262 Y20.004 E.01676
G1 X159.996 Y80.738 E2.69534
G1 X159.996 Y81.272 E.01676
G1 X98.728 Y20.004 E2.71904
G1 X98.194 Y20.004 E.01676
G1 X159.996 Y81.806 E2.74274
G1 X159.996 Y82.339 E.01673
G1 X97.661 Y20.004 E2.76639
G1 X97.127 Y20.004 E.01676
G1 X159.996 Y82.873 E2.79009
G1 X159.996 Y83.407 E.01676
G1 X96.593 Y20.004 E2.81379
G1 X96.06 Y20.004 E.01673
G1 X159.996 Y83.94 E2.83745
G1 X159.996 Y84.474 E.01676
G1 X95.526 Y20.004 E2.86114
G1 X94.992 Y20.004 E.01676
M73 P0 R766
G1 X159.996 Y85.008 E2.88484
G1 X159.996 Y85.542 E.01676
G1 X94.458 Y20.004 E2.90854
G1 X93.925 Y20.004 E.01673
G1 X159.996 Y86.075 E2.9322
G1 X159.996 Y86.609 E.01676
G1 X93.391 Y20.004 E2.95589
G1 X92.857 Y20.004 E.01676
G1 X159.996 Y87.143 E2.97959
G1 X159.996 Y87.677 E.01676
G1 X92.323 Y20.004 E3.00329
G1 X91.79 Y20.004 E.01673
G1 X159.996 Y88.21 E3.02695
G1 X159.996 Y88.744 E.01676
G1 X91.256 Y20.004 E3.05064
G1 X90.722 Y20.004 E.01676
G1 X159.996 Y89.278 E3.07434
G1 X159.996 Y89.811 E.01673
G1 X90.189 Y20.004 E3.098
G1 X89.655 Y20.004 E.01676
M73 P1 R766
G1 X159.996 Y90.345 E3.1217
G1 X159.996 Y90.879 E.01676
G1 X89.121 Y20.004 E3.14539
G1 X88.587 Y20.004 E.01676
M73 P1 R765
G1 X159.996 Y91.413 E3.16909
G1 X159.996 Y91.946 E.01673
G1 X88.054 Y20.004 E3.19275
G1 X87.52 Y20.004 E.01676
G1 X159.996 Y92.48 E3.21645
G1 X159.996 Y93.014 E.01676
G1 X86.986 Y20.004 E3.24014
G1 X86.452 Y20.004 E.01676
G1 X159.996 Y93.548 E3.26384
G1 X159.996 Y94.081 E.01673
G1 X85.919 Y20.004 E3.2875
G1 X85.385 Y20.004 E.01676
G1 X159.996 Y94.615 E3.3112
G1 X159.996 Y95.149 E.01676
G1 X84.851 Y20.004 E3.33489
G1 X84.318 Y20.004 E.01673
G1 X159.996 Y95.682 E3.35855
G1 X159.996 Y96.216 E.01676
G1 X83.784 Y20.004 E3.38225
G1 X83.25 Y20.004 E.01676
G1 X159.996 Y96.75 E3.40595
G1 X159.996 Y97.284 E.01676
M73 P1 R764
G1 X82.716 Y20.004 E3.42965
G1 X82.183 Y20.004 E.01673
G1 X159.996 Y97.817 E3.4533
G1 X159.996 Y98.351 E.01676
G1 X81.649 Y20.004 E3.477
G1 X81.115 Y20.004 E.01676
G1 X159.996 Y98.885 E3.5007
G1 X159.996 Y99.419 E.01676
G1 X80.582 Y20.004 E3.52437
G1 X80.048 Y20.004 E.01676
G1 X159.996 Y99.952 E3.54805
G1 X159.996 Y100.486 E.01676
G1 X79.514 Y20.004 E3.57175
G1 X78.98 Y20.004 E.01676
G1 X159.996 Y101.02 E3.59545
G1 X159.996 Y101.553 E.01673
G1 X78.447 Y20.004 E3.6191
G1 X77.913 Y20.004 E.01676
G1 X159.996 Y102.087 E3.6428
G1 X159.996 Y102.621 E.01676
G1 X77.379 Y20.004 E3.6665
G1 X76.845 Y20.004 E.01676
M73 P1 R763
G1 X159.996 Y103.155 E3.6902
G1 X159.996 Y103.688 E.01673
G1 X76.312 Y20.004 E3.71385
G1 X75.778 Y20.004 E.01676
G1 X159.996 Y104.222 E3.73755
G1 X159.996 Y104.756 E.01676
G1 X75.244 Y20.004 E3.76125
G1 X74.711 Y20.004 E.01673
G1 X159.996 Y105.289 E3.7849
G1 X159.996 Y105.823 E.01676
G1 X74.177 Y20.004 E3.8086
G1 X73.643 Y20.004 E.01676
G1 X159.996 Y106.357 E3.8323
G1 X159.996 Y106.891 E.01676
G1 X73.109 Y20.004 E3.856
G1 X72.576 Y20.004 E.01673
G1 X159.996 Y107.424 E3.87965
G1 X159.996 Y107.958 E.01676
G1 X72.042 Y20.004 E3.90335
G1 X71.508 Y20.004 E.01676
M73 P1 R762
G1 X159.996 Y108.492 E3.92705
G1 X159.996 Y109.026 E.01676
G1 X70.974 Y20.004 E3.95075
G1 X70.441 Y20.004 E.01673
G1 X159.996 Y109.559 E3.9744
G1 X159.996 Y110.093 E.01676
G1 X69.907 Y20.004 E3.9981
G1 X69.373 Y20.004 E.01676
G1 X159.996 Y110.627 E4.0218
G1 X159.996 Y111.16 E.01673
G1 X68.84 Y20.004 E4.04545
G1 X68.306 Y20.004 E.01676
G1 X159.996 Y111.694 E4.06915
G1 X159.996 Y112.228 E.01676
G1 X67.772 Y20.004 E4.09285
G1 X67.238 Y20.004 E.01676
G1 X159.996 Y112.762 E4.11655
G1 X159.996 Y113.295 E.01673
M73 P1 R761
G1 X66.705 Y20.004 E4.1402
G1 X66.171 Y20.004 E.01676
G1 X159.996 Y113.829 E4.1639
G1 X159.996 Y114.363 E.01676
G1 X65.637 Y20.004 E4.1876
G1 X65.103 Y20.004 E.01676
G1 X159.996 Y114.897 E4.2113
G1 X159.996 Y115.43 E.01673
G1 X64.57 Y20.004 E4.23495
G1 X64.036 Y20.004 E.01676
G1 X159.996 Y115.964 E4.25865
G1 X159.996 Y116.498 E.01676
G1 X63.502 Y20.004 E4.28235
G1 X62.969 Y20.004 E.01673
G1 X159.996 Y117.031 E4.30601
G1 X159.996 Y117.565 E.01676
G1 X62.435 Y20.004 E4.3297
G1 X61.901 Y20.004 E.01676
M73 P1 R760
G1 X159.996 Y118.099 E4.3534
G1 X159.996 Y118.633 E.01676
G1 X61.367 Y20.004 E4.3771
G1 X60.834 Y20.004 E.01673
G1 X159.996 Y119.166 E4.40076
G1 X159.996 Y119.7 E.01676
G1 X60.3 Y20.004 E4.42446
G1 X59.766 Y20.004 E.01676
G1 X159.996 Y120.234 E4.44815
G1 X159.996 Y120.768 E.01676
G1 X59.232 Y20.004 E4.47185
G1 X58.699 Y20.004 E.01673
G1 X159.996 Y121.301 E4.49551
G1 X159.996 Y121.835 E.01676
G1 X58.165 Y20.004 E4.51921
G1 X57.631 Y20.004 E.01676
M73 P1 R759
G1 X159.996 Y122.369 E4.5429
G1 X159.996 Y122.902 E.01673
G1 X57.098 Y20.004 E4.56656
G1 X56.564 Y20.004 E.01676
G1 X159.996 Y123.436 E4.59026
G1 X159.996 Y123.97 E.01676
G1 X56.03 Y20.004 E4.61396
G1 X55.496 Y20.004 E.01676
G1 X159.996 Y124.504 E4.63765
G1 X159.996 Y125.037 E.01673
G1 X54.963 Y20.004 E4.66131
G1 X54.429 Y20.004 E.01676
G1 X159.996 Y125.571 E4.68501
G1 X159.996 Y126.105 E.01676
G1 X53.895 Y20.004 E4.70871
G1 X53.361 Y20.004 E.01676
G1 X159.996 Y126.639 E4.7324
G1 X159.996 Y127.172 E.01673
M73 P1 R758
G1 X52.828 Y20.004 E4.75606
G1 X52.294 Y20.004 E.01676
G1 X159.996 Y127.706 E4.77976
G1 X159.996 Y128.24 E.01676
G1 X51.76 Y20.004 E4.80346
G1 X51.227 Y20.004 E.01673
G1 X159.996 Y128.773 E4.82711
G1 X159.996 Y129.307 E.01676
M73 P2 R758
G1 X50.693 Y20.004 E4.85081
G1 X50.159 Y20.004 E.01676
G1 X159.996 Y129.841 E4.87451
G1 X159.996 Y130.375 E.01676
G1 X49.625 Y20.004 E4.89821
G1 X49.092 Y20.004 E.01673
M73 P2 R757
G1 X159.996 Y130.908 E4.92186
G1 X159.996 Y131.442 E.01676
G1 X48.558 Y20.004 E4.94556
G1 X48.024 Y20.004 E.01676
G1 X159.996 Y131.976 E4.96926
G1 X159.996 Y132.509 E.01673
G1 X47.491 Y20.004 E4.99291
G1 X46.957 Y20.004 E.01676
G1 X159.996 Y133.043 E5.01661
G1 X159.996 Y133.577 E.01676
G1 X46.423 Y20.004 E5.04031
G1 X45.889 Y20.004 E.01676
G1 X159.996 Y134.111 E5.06401
G1 X159.996 Y134.644 E.01673
G1 X45.356 Y20.004 E5.08766
G1 X44.822 Y20.004 E.01676
M73 P2 R756
G1 X159.996 Y135.178 E5.11136
G1 X159.996 Y135.712 E.01676
G1 X44.288 Y20.004 E5.13506
G1 X43.754 Y20.004 E.01676
G1 X159.996 Y136.246 E5.15876
G1 X159.996 Y136.779 E.01673
G1 X43.221 Y20.004 E5.18241
G1 X42.687 Y20.004 E.01676
G1 X159.996 Y137.313 E5.20611
G1 X159.996 Y137.847 E.01676
G1 X42.153 Y20.004 E5.22981
G1 X41.62 Y20.004 E.01673
G1 X159.996 Y138.38 E5.25346
G1 X159.996 Y138.914 E.01676
M73 P2 R755
G1 X41.086 Y20.004 E5.27716
