; generated by PrusaSlicer 2.7.4 on 2024-10-19 at 16:46:08 UTC


;
;

;
;
; 

; external perimeters extrusion width = 0.40mm
; perimeters extrusion width = 0.40mm
; infill extrusion width = 0.45mm
; solid infill extrusion width = 0.45mm
; top infill extrusion width = 0.40mm
; first layer extrusion width = 0.42mm

M73 P0 R35
M201 X2500 Y2500 Z400 E5000 ; sets maximum accelerations, mm/sec^2
M203 X180 Y180 Z12 E80 ; sets maximum feedrates, mm / sec
M204 P2000 R1250 T2500 ; sets acceleration (P, T) and retract acceleration (R), mm/sec^2
M205 X8.00 Y8.00 Z2.00 E10.00 ; sets the jerk limits, mm/sec
M205 S0 T0 ; sets the minimum extruding and travel feed rate, mm/sec

; printing object binary_red.stl id:0 copy 0
; stop printing object binary_red.stl id:0 copy 0

;TYPE:Custom
M862.3 P "MINI" ; printer model check
G90 ; use absolute coordinates
M83 ; extruder relative mode
M104 S170 ; set extruder temp for bed leveling
M140 S60 ; set bed temp
M109 R170 ; wait for bed leveling temp
M190 S60 ; wait for bed temp
M204 T1250 ; set travel acceleration
G28 ; home all without mesh bed level
G29 ; mesh bed leveling 
M204 T2500 ; restore travel acceleration
M104 S215 ; set extruder temp
G92 E0
G1 Y-2 X179 F2400
G1 Z3 F720
M109 S215 ; wait for extruder temp

; intro line
G1 X170 F1000
G1 Z0.2 F720
G1 X110 E8 F900
G1 X40 E10 F700
G92 E0

M221 S95 ; set flow
G21 ; set units to millimeters
G90 ; use absolute coordinates
M83 ; use relative distances for extrusion
M900 K0.2 ; Filament gcode LA 1.5
; ; Filament gcode LA 1.0
M107
;LAYER_CHANGE
;Z:0.2
;HEIGHT:0.2
G1 E-3.2 F4200
G1 Z.4 F720
G1 X78.562 Y57.234 F9000
G1 Z.2 F720
G1 E3.2 F2400
M204 P600
;TYPE:Skirt/Brim
;WIDTH:0.42
G1 F1200
G1 X78.741 Y57.021 E.00872
G1 X80.503 Y56.173 E.06131
G1 X109.825 Y55.449 E.91965
G1 X111.104 Y55.736 E.0411
G1 X117.794 Y59.377 E.23881
G1 X118.929 Y60.186 E.0437
G1 X119.738 Y60.972 E.03537
G1 X127.643 Y71.324 E.40839
G1 X128.223 Y72.27 E.03479
G1 X128.722 Y73.603 E.04463
G1 X128.842 Y74.349 E.02369
G1 X128.842 Y76.158 E.05672
G1 X128.72 Y76.909 E.02386
G1 X128.173 Y78.351 E.04836
G1 X127.34 Y79.636 E.04802
G1 X90.296 Y129.411 E1.94543
G1 X89.352 Y130.302 E.0407
M73 P1 R35
G1 X88.566 Y130.784 E.02891
G1 X86.634 Y131.58 E.06552
G1 X85.222 Y131.837 E.045
G1 X51.045 Y134.697 E1.07534
G1 X49.61 Y134.705 E.04499
G1 X48.858 Y134.583 E.02389
G1 X47.464 Y133.981 E.04761
G1 X46.844 Y133.525 E.02413
G1 X46.222 Y132.888 E.02792
G1 X45.649 Y132.094 E.0307
G1 X45.095 Y130.82 E.04356
G1 X44.973 Y130.069 E.02386
G1 X44.973 Y128.975 E.0343
G1 X45.095 Y128.223 E.02389
G1 X45.343 Y127.532 E.02302
G1 X78.233 Y57.748 E2.41887
G1 X78.53 Y57.285 E.01725
M204 P1000
G1 E-2.24 F4200
;WIPE_START
G1 F7200
G1 X78.562 Y57.234 E-.03337
G1 X78.741 Y57.021 E-.15418
G1 X79.997 Y56.416 E-.77245
;WIPE_END
G1 Z.4 F720
; printing object binary_red.stl id:0 copy 0
G1 X52.576 Y124.016 F9000
G1 Z.2 F720
G1 E3.2 F2400
M204 P600
;TYPE:External perimeter
;WIDTH:0.647984
G1 F1200
G1 X52.878 Y123.996 E.01523
G1 X53.011 Y123.894 E.00843
;WIDTH:0.647704
G1 X53.445 Y123.875 E.02185
;WIDTH:0.644338
G1 X53.631 Y123.921 E.00958
;WIDTH:0.648008
G1 X53.727 Y123.996 E.00613
G1 X54.029 Y124.016 E.01523
;WIDTH:0.6079
G1 X54.181 Y124.07 E.00758
;WIDTH:0.571776
G1 X54.332 Y124.123 E.00704
;WIDTH:0.535652
G1 X54.516 Y124.232 E.00876
;WIDTH:0.499801
G1 X54.699 Y124.34 E.00807
;WIDTH:0.46395
G1 X54.882 Y124.449 E.00746
;WIDTH:0.462732
G1 X55.102 Y124.695 E.01152
;WIDTH:0.497366
G1 X55.321 Y124.94 E.01242
G1 X55.591 Y125.371 E.01922
;WIDTH:0.49877
G1 X55.608 Y125.457 E.00332
;WIDTH:0.532664
G1 X55.625 Y125.542 E.00353
G1 X55.708 Y125.659 E.00584
;WIDTH:0.562156
G1 X55.756 Y125.868 E.00926
;WIDTH:0.6077
G1 X55.805 Y126.078 E.01013
G1 X55.805 Y126.816 E.03466
M204 P1000
G1 X55.805 Y126.816 F9000
G1 X55.662 Y127.222
M204 P600
;WIDTH:0.608078
G1 F1200
G1 X55.662 Y127.388 E.0078
G1 X55.538 Y127.681 E.01495
;WIDTH:0.57036
G1 X55.414 Y127.973 E.01391
;WIDTH:0.53268
G1 X55.339 Y128.067 E.0049
;WIDTH:0.53314
G1 X55.271 Y128.259 E.0083
;WIDTH:0.536528
G1 X54.99 Y128.684 E.02091
G1 X54.764 Y128.926 E.01359
;WIDTH:0.526282
G1 X54.692 Y129.133 E.00881
;WIDTH:0.535696
G1 X52.92 Y130.905 E.10268
G1 X52.698 Y130.995 E.00982
;WIDTH:0.569907
G1 X52.505 Y131.152 E.0109
;WIDTH:0.608006
G1 X52.312 Y131.309 E.01169
G1 X52.08 Y131.433 E.01236
;WIDTH:0.570346
G1 X51.848 Y131.558 E.01156
;WIDTH:0.532686
G1 X51.754 Y131.633 E.0049
;WIDTH:0.55745
G1 X51.286 Y131.82 E.02156
;WIDTH:0.582575
G1 X51.22 Y131.85 E.00325
;WIDTH:0.6077
G1 X51.154 Y131.881 E.00342
;WIDTH:0.608072
G1 X51.003 Y131.881 E.0071
G1 X50.726 Y132.024 E.01465
;WIDTH:0.6077
G1 X49.723 Y132.024 E.0471
G1 X49.438 Y131.881 E.01497
;WIDTH:0.608074
G1 X49.287 Y131.881 E.0071
G1 X48.81 Y131.634 E.02524
;WIDTH:0.579766
G1 X48.675 Y131.558 E.00692
;WIDTH:0.553725
G1 X48.541 Y131.482 E.00654
;WIDTH:0.527684
G1 X48.186 Y131.119 E.02047
;WIDTH:0.533104
G1 X48.121 Y130.927 E.00826
;WIDTH:0.57059
G1 X48.03 Y130.791 E.00718
;WIDTH:0.608076
G1 X47.797 Y130.376 E.02237
;WIDTH:0.647902
G1 X47.777 Y130.089 E.01447
G1 X47.674 Y129.955 E.0085
;WIDTH:0.647786
G1 X47.654 Y129.239 E.03603
;WIDTH:0.64426
G1 X47.702 Y129.051 E.0097
;WIDTH:0.647902
G1 X47.777 Y128.954 E.00617
G1 X47.797 Y128.652 E.01523
;WIDTH:0.608172
G1 X47.921 Y128.36 E.01491
;WIDTH:0.570392
G1 X48.046 Y128.067 E.01397
;WIDTH:0.532656
G1 X48.121 Y127.973 E.0049
G1 X48.188 Y127.783 E.0082
;WIDTH:0.531532
G1 X48.407 Y127.542 E.01323
G1 X48.478 Y127.347 E.00843
;WIDTH:0.56651
G1 X48.638 Y127.152 E.01098
;WIDTH:0.607674
G1 X48.854 Y126.86 E.01706
;WIDTH:0.566766
G1 X48.91 Y126.764 E.00484
;WIDTH:0.530986
G1 X50.551 Y125.127 E.09407
G1 X50.76 Y125.052 E.00901
;WIDTH:0.527874
G1 X51.127 Y124.696 E.02062
;WIDTH:0.531458
G1 X51.323 Y124.626 E.00845
G1 X51.564 Y124.407 E.01323
;WIDTH:0.532558
G1 X51.754 Y124.34 E.0082
G1 X51.848 Y124.264 E.00492
;WIDTH:0.570165
G1 X52.009 Y124.212 E.00742
;WIDTH:0.607698
G1 X52.17 Y124.159 E.00796
M204 P1000
G1 E-2.24 F4200
;WIPE_START
G1 F7200
G1 X52.009 Y124.212 E-.09393
G1 X51.848 Y124.264 E-.09376
G1 X51.754 Y124.34 E-.06699
G1 X51.564 Y124.407 E-.11165
G1 X51.323 Y124.626 E-.18046
G1 X51.127 Y124.696 E-.11534
G1 X50.76 Y125.052 E-.28334
G1 X50.735 Y125.061 E-.01453
;WIPE_END
G1 Z.4 F720
G1 X81.663 Y121.029 F9000
G1 Z.2 F720
G1 E3.2 F2400
M204 P600
;TYPE:Perimeter
;WIDTH:0.419999
G1 F1200
G1 X81.773 Y121.09 E.00394
G1 X82.122 Y121.157 E.01114
G1 X83.431 Y121.158 E.04104
G1 X84.278 Y121.144 E.02656
G1 X84.596 Y121.015 E.01076
G1 X85.073 Y121.015 E.01496
G1 X85.194 Y121.087 E.00441
G1 X85.554 Y121.158 E.0115
G1 X86.283 Y121.403 E.02411
G1 X86.752 Y121.63 E.01634
G1 X87.315 Y122.14 E.02382
G1 X87.793 Y122.672 E.02242
G1 X87.825 Y122.786 E.00371
G1 X88.126 Y123.228 E.01677
G1 X88.279 Y123.75 E.01706
G1 X88.407 Y124.056 E.0104
G1 X88.407 Y124.44 E.01204
G1 X88.459 Y124.731 E.00927
G1 X88.414 Y124.903 E.00557
G1 X88.407 Y125.406 E.01577
G1 X88.315 Y125.574 E.00601
G1 X88.27 Y125.806 E.00741
G1 X88.072 Y126.327 E.01748
G1 X87.9 Y126.568 E.00928
G1 X87.787 Y126.801 E.00812
G1 X87.55 Y127.05 E.01078
G1 X87.4 Y127.274 E.00845
G1 X87.082 Y127.465 E.01163
G1 X86.58 Y127.68 E.01712
G1 X86.14 Y127.917 E.01567
G1 X85.509 Y128.161 E.02121
G1 X85.127 Y128.161 E.01198
G1 X84.864 Y128.198 E.00833
G1 X84.664 Y128.168 E.00634
G1 X84.159 Y128.161 E.01584
G1 X83.991 Y128.069 E.00601
G1 X83.759 Y128.024 E.00741
G1 X83.239 Y127.826 E.01745
G1 X82.988 Y127.646 E.00968
G1 X82.738 Y127.519 E.00879
G1 X82.583 Y127.38 E.00653
G1 X82.36 Y127.271 E.00778
G1 X81.792 Y126.714 E.02494
G1 X81.552 Y126.544 E.00922
G1 X80.559 Y126.067 E.03454
G1 X80.082 Y125.86 E.0163
G1 X80.626 Y125.336 E.02368
G1 X81.345 Y123.911 E.05005
G1 X81.404 Y123.583 E.01045
G1 X81.524 Y123.221 E.01196
G1 X81.548 Y122.626 E.01867
G1 X81.64 Y122.458 E.00601
G1 X81.69 Y122.143 E.01
G1 X81.664 Y121.089 E.03306
M204 P1000
G1 X81.664 Y121.089 F9000
G1 X81.033 Y120.435
M204 P600
G1 F1200
G1 X81.198 Y120.548 E.00627
G1 X81.663 Y120.612 E.01472
G1 X81.913 Y120.739 E.00879
G1 X82.122 Y120.78 E.00668
G1 X84.213 Y120.773 E.06556
G1 X84.492 Y120.638 E.00972
G1 X85.146 Y120.638 E.02051
G1 X85.387 Y120.756 E.00841
G1 X85.718 Y120.781 E.01041
G1 X85.859 Y120.858 E.00504
G1 X86.126 Y120.924 E.00862
G1 X86.963 Y121.309 E.02889
G1 X87.41 Y121.74 E.01947
G1 X87.658 Y121.877 E.00888
G1 X87.759 Y122.089 E.00736
G1 X88.112 Y122.459 E.01603
G1 X88.149 Y122.593 E.00436
G1 X88.389 Y122.875 E.01161
G1 X88.468 Y123.064 E.00642
G1 X88.503 Y123.231 E.00535
G1 X88.611 Y123.493 E.00889
G1 X88.65 Y123.683 E.00608
G1 X88.784 Y123.96 E.00965
G1 X88.785 Y124.476 E.01618
G1 X88.875 Y124.731 E.00848
G1 X88.787 Y124.966 E.00787
G1 X88.784 Y125.472 E.01587
G1 X88.672 Y125.696 E.00785
G1 X88.641 Y125.88 E.00585
G1 X88.559 Y126.054 E.00603
G1 X88.479 Y126.384 E.01065
G1 X88.389 Y126.588 E.00699
G1 X88.194 Y126.804 E.00912
G1 X88.108 Y127.01 E.007
G1 X87.823 Y127.31 E.01297
G1 X87.687 Y127.558 E.00887
G1 X87.27 Y127.823 E.01549
G1 X87.004 Y127.889 E.00859
G1 X86.073 Y128.365 E.03278
G1 X85.877 Y128.405 E.00627
G1 X85.606 Y128.538 E.00947
G1 X85.098 Y128.539 E.01593
G1 X84.835 Y128.629 E.00872
G1 X84.6 Y128.541 E.00787
G1 X84.093 Y128.538 E.0159
G1 X83.869 Y128.425 E.00787
G1 X83.686 Y128.395 E.00581
G1 X83.51 Y128.312 E.0061
G1 X83.181 Y128.233 E.01061
G1 X82.978 Y128.143 E.00696
G1 X82.755 Y127.943 E.00939
G1 X82.545 Y127.854 E.00715
G1 X82.358 Y127.684 E.00792
G1 X82.14 Y127.584 E.00752
G1 X81.499 Y126.957 E.02811
G1 X80.934 Y126.692 E.01957
G1 X80.489 Y126.444 E.01597
G1 X79.99 Y126.213 E.01724
G1 X79.235 Y126.053 E.0242
G1 X79.592 Y125.804 E.01365
G1 X80.183 Y125.248 E.02544
G1 X80.391 Y125.009 E.00993
G1 X80.728 Y124.263 E.02567
G1 X80.992 Y123.78 E.01726
G1 X81.027 Y123.418 E.0114
G1 X81.156 Y123.137 E.00969
G1 X81.17 Y122.56 E.0181
G1 X81.283 Y122.336 E.00787
G1 X81.313 Y122.146 E.00603
G1 X81.284 Y121.017 E.03541
G1 X81.161 Y120.788 E.00815
G1 X81.053 Y120.491 E.00991
M204 P1000
G1 X80.436 Y119.761 F9000
M204 P600
;TYPE:External perimeter
G1 F1200
G1 X80.66 Y119.775 E.00704
G1 X80.785 Y119.875 E.00502
G1 X81.033 Y119.959 E.00821
G1 X81.361 Y120.207 E.01289
G1 X81.866 Y120.248 E.01589
G1 X82.003 Y120.36 E.00555
G1 X82.122 Y120.403 E.00397
G1 X84.132 Y120.403 E.06302
G1 X84.359 Y120.261 E.0084
G1 X85.309 Y120.261 E.02979
G1 X85.482 Y120.39 E.00677
G1 X85.881 Y120.404 E.01252
G1 X86.037 Y120.525 E.00619
G1 X86.31 Y120.547 E.00859
G1 X86.437 Y120.649 E.00511
G1 X86.555 Y120.69 E.00392
G1 X87.009 Y120.935 E.01618
G1 X87.161 Y120.976 E.00494
G1 X87.671 Y121.468 E.02222
G1 X87.876 Y121.544 E.00686
G1 X87.94 Y121.612 E.00293
G1 X88.067 Y121.871 E.00904
G1 X88.417 Y122.232 E.01577
G1 X88.473 Y122.4 E.00555
G1 X88.71 Y122.666 E.01117
G1 X88.751 Y122.807 E.0046
G1 X88.875 Y122.969 E.0064
G1 X88.877 Y123.179 E.00658
G1 X89.018 Y123.398 E.00817
G1 X89.021 Y123.616 E.00684
G1 X89.161 Y123.827 E.00794
G1 X89.161 Y124.44 E.01922
G1 X89.304 Y124.731 E.01017
G1 X89.202 Y124.904 E.0063
G1 X89.161 Y125.021 E.00389
G1 X89.161 Y125.635 E.01925
G1 X89.028 Y125.818 E.00709
G1 X89.018 Y126.064 E.00772
G1 X88.895 Y126.224 E.00633
G1 X88.875 Y126.493 E.00846
G1 X88.773 Y126.62 E.00511
G1 X88.732 Y126.737 E.00389
G1 X88.5 Y127.026 E.01162
G1 X88.446 Y127.202 E.00577
G1 X88.096 Y127.57 E.01592
G1 X88.021 Y127.773 E.00679
G1 X87.899 Y127.888 E.00526
G1 X87.797 Y127.918 E.00333
G1 X87.446 Y128.2 E.01412
G1 X87.232 Y128.204 E.00671
G1 X87.057 Y128.317 E.00653
G1 X86.937 Y128.349 E.00389
G1 X86.771 Y128.46 E.00626
G1 X86.651 Y128.492 E.00389
G1 X86.485 Y128.603 E.00626
G1 X86.365 Y128.635 E.00389
G1 X86.167 Y128.772 E.00755
G1 X85.958 Y128.774 E.00655
G1 X85.738 Y128.915 E.00819
G1 X85.127 Y128.915 E.01916
G1 X84.834 Y129.058 E.01022
G1 X84.662 Y128.956 E.00627
G1 X84.544 Y128.915 E.00392
G1 X83.931 Y128.915 E.01922
G1 X83.747 Y128.782 E.00712
G1 X83.501 Y128.772 E.00772
G1 X83.341 Y128.649 E.00633
G1 X83.073 Y128.629 E.00843
G1 X82.946 Y128.527 E.00511
G1 X82.828 Y128.486 E.00392
G1 X82.539 Y128.254 E.01162
G1 X82.365 Y128.2 E.00571
G1 X82.104 Y127.963 E.01105
G1 X81.91 Y127.886 E.00654
G1 X81.254 Y127.244 E.02878
G1 X81.071 Y127.199 E.00591
G1 X80.944 Y127.097 E.00511
G1 X80.826 Y127.056 E.00392
G1 X80.371 Y126.811 E.0162
G1 X80.177 Y126.744 E.00644
G1 X79.687 Y126.496 E.01722
G1 X79.446 Y126.507 E.00756
G1 X79.322 Y126.434 E.00451
G1 X78.877 Y126.427 E.01395
G1 X78.569 Y126.398 E.0097
G1 X78.421 Y126.282 E.0059
G1 X78.147 Y126.293 E.0086
G1 X78.395 Y126.097 E.00991
G1 X78.586 Y126.035 E.0063
G1 X79.288 Y125.563 E.02652
G1 X80.037 Y124.865 E.0321
G1 X80.078 Y124.686 E.00576
G1 X80.18 Y124.558 E.00513
G1 X80.364 Y124.154 E.01392
G1 X80.466 Y123.986 E.00616
G1 X80.507 Y123.868 E.00392
G1 X80.623 Y123.681 E.0069
G1 X80.65 Y123.255 E.01338
G1 X80.752 Y123.129 E.00508
G1 X80.793 Y123.013 E.00386
G1 X80.793 Y122.397 E.01931
G1 X80.895 Y122.27 E.00511
G1 X80.936 Y122.15 E.00398
G1 X80.92 Y121.115 E.03246
G1 X80.745 Y120.888 E.00899
G1 X80.594 Y120.306 E.01885
G1 X80.45 Y120.122 E.00733
G1 X80.439 Y119.821 E.00944
M204 P1000
G1 E-2.24 F4200
;WIPE_START
G1 F7200
G1 X80.436 Y119.761 E-.03329
G1 X80.66 Y119.775 E-.12438
G1 X80.785 Y119.875 E-.08871
G1 X81.033 Y119.959 E-.1451
G1 X81.361 Y120.207 E-.22788
G1 X81.866 Y120.248 E-.28077
G1 X81.95 Y120.316 E-.05987
;WIPE_END
G1 Z.4 F720
G1 X77.975 Y126.304 F9000
G1 Z.2 F720
G1 E3.2 F2400
M204 P600
;WIDTH:0.38292
G1 F1200
G1 X78.064 Y126.303 E.00252
M204 P1000
G1 E-2.24 F4200
;WIPE_START
G1 F7200
G1 X77.975 Y126.304 E-.04932
;WIPE_END
G1 E-.91068 F4200
G1 Z.4 F720
G1 X87.943 Y123.242 F9000
M73 P1 R34
G1 Z.2 F720
G1 E3.2 F2400
M204 P600
;TYPE:Solid infill
;WIDTH:0.430853
G1 F1200
G1 X87.101 Y122.4 E.03841
G1 X86.952 Y122.292 E.00594
G1 X86.57 Y121.926 E.01707
G1 X85.94 Y121.624 E.02254
G1 X85.731 Y121.579 E.0069
G1 X87.95 Y123.799 E.10125
G1 X87.994 Y124.003 E.00673
G1 X88.068 Y124.138 E.00497
G1 X88.07 Y124.466 E.01058
G1 X84.958 Y121.355 E.14194
G1 X84.685 Y121.355 E.00881
G1 X84.492 Y121.438 E.00678
G1 X88.069 Y125.015 E.16318
G1 X88.068 Y125.325 E.01
G1 X87.989 Y125.483 E.0057
G1 X84.004 Y121.498 E.18179
G1 X83.455 Y121.497 E.01771
G1 X87.851 Y125.894 E.20056
G1 X87.798 Y126.126 E.00768
G1 X87.76 Y126.216 E.00315
G1 X87.698 Y126.29 E.00311
G1 X82.905 Y121.497 E.21865
G1 X82.356 Y121.496 E.01771
G1 X87.486 Y126.625 E.234
G1 X87.225 Y126.913 E.01254
G1 X82.025 Y121.714 E.23719
G1 X82.03 Y122.152 E.01413
G1 X82.014 Y122.251 E.00323
G1 X86.925 Y127.162 E.22403
G1 X86.748 Y127.216 E.00597
G1 X86.539 Y127.325 E.0076
G1 X81.898 Y122.684 E.21171
G1 X81.867 Y123.201 E.01671
G1 X86.178 Y127.512 E.19666
G1 X85.808 Y127.691 E.01326
G1 X81.74 Y123.623 E.18557
G1 X81.729 Y123.783 E.00517
G1 X81.681 Y123.982 E.0066
G1 X81.638 Y124.07 E.00316
G1 X85.39 Y127.822 E.17116
G1 X85.035 Y127.824 E.01145
G1 X84.872 Y127.852 E.00533
G1 X81.458 Y124.438 E.15574
G1 X81.278 Y124.807 E.01324
G1 X84.293 Y127.822 E.13754
G1 X84.241 Y127.822 E.00168
G1 X84.106 Y127.747 E.00498
G1 X83.869 Y127.697 E.00781
G1 X83.684 Y127.608 E.00662
G1 X83.485 Y127.562 E.00659
G1 X81.099 Y125.176 E.10884
G1 X80.97 Y125.439 E.00945
G1 X80.899 Y125.525 E.0036
G1 X82.524 Y127.15 E.07413
M204 P1000
G1 E-2.24 F4200
;WIPE_START
G1 F7200
M73 P2 R34
G1 X81.299 Y125.925 E-.96
;WIPE_END
G1 Z.4 F720
G1 X71.703 Y96.061 F9000
G1 Z.2 F720
G1 E3.2 F2400
M204 P600
;TYPE:Perimeter
;WIDTH:0.419999
G1 F1200
G1 X71.782 Y95.826 E.00777
G1 X72.007 Y95.361 E.0162
G1 X72.911 Y94.456 E.04011
G1 X73.944 Y93.98 E.03566
G1 X74.262 Y93.877 E.01048
G1 X74.578 Y93.827 E.01003
G1 X74.877 Y93.702 E.01016
G1 X75.201 Y93.702 E.01016
G1 X75.396 Y93.799 E.00683
G1 X75.687 Y93.845 E.00924
G1 X76.5 Y94.112 E.02683
G1 X76.685 Y94.228 E.00685
G1 X77.172 Y94.456 E.01686
G1 X78.069 Y95.359 E.03991
G1 X78.402 Y96.058 E.02428
G1 X78.553 Y96.566 E.01662
G1 X78.683 Y96.882 E.01071
G1 X78.683 Y97.811 E.02913
G1 X78.583 Y97.999 E.00668
G1 X78.546 Y98.206 E.00659
G1 X78.348 Y98.728 E.0175
G1 X78.151 Y99.002 E.01058
G1 X78.005 Y99.301 E.01043
G1 X77.779 Y99.649 E.01301
G1 X77.636 Y99.916 E.0095
G1 X77.172 Y100.375 E.02046
G1 X76.881 Y100.495 E.00987
