; generated by PrusaSlicer 2.7.4 on 2024-10-19 at 16:46:43 UTC


;
;

;
;
; 

; external perimeters extrusion width = 0.40mm
; perimeters extrusion width = 0.40mm
; infill extrusion width = 0.45mm
; solid infill extrusion width = 0.45mm
; top infill extrusion width = 0.40mm
; first layer extrusion width = 0.42mm

M73 P0 R42
M201 X2500 Y2500 Z400 E5000 ; sets maximum accelerations, mm/sec^2
M203 X180 Y180 Z12 E80 ; sets maximum feedrates, mm / sec
M204 P2000 R1250 T2500 ; sets acceleration (P, T) and retract acceleration (R), mm/sec^2
M205 X8.00 Y8.00 Z2.00 E10.00 ; sets the jerk limits, mm/sec
M205 S0 T0 ; sets the minimum extruding and travel feed rate, mm/sec

; printing object binary_blue.stl id:0 copy 0
; stop printing object binary_blue.stl id:0 copy 0

;TYPE:Custom
M862.3 P "MINI" ; printer model check
G90 ; use absolute coordinates
M83 ; extruder relative mode
M104 S170 ; set extruder temp for bed leveling
M140 S60 ; set bed temp
M109 R170 ; wait for bed leveling temp
M190 S60 ; wait for bed temp
M204 T1250 ; set travel acceleration
G28 ; home all without mesh bed level
G29 ; mesh bed leveling 
M204 T2500 ; restore travel acceleration
M104 S215 ; set extruder temp
G92 E0
G1 Y-2 X179 F2400
G1 Z3 F720
M109 S215 ; wait for extruder temp

; intro line
G1 X170 F1000
G1 Z0.2 F720
G1 X110 E8 F900
G1 X40 E10 F700
G92 E0

M221 S95 ; set flow
G21 ; set units to millimeters
G90 ; use absolute coordinates
M83 ; use relative distances for extrusion
M900 K0.2 ; Filament gcode LA 1.5
; ; Filament gcode LA 1.0
M107
;LAYER_CHANGE
;Z:0.2
;HEIGHT:0.2
G1 E-3.2 F4200
G1 Z.4 F720
G1 X69.586 Y63.888 F9000
G1 Z.2 F720
G1 E3.2 F2400
M204 P600
;TYPE:Skirt/Brim
;WIDTH:0.42
G1 F1200
G1 X71.16 Y62.383 E.06828
G1 X91.33 Y49.084 E.75751
G1 X92.461 Y48.506 E.03982
G1 X93.363 Y48.19 E.02997
G1 X94.326 Y47.984 E.03088
G1 X128.931 Y45.267 E1.08835
G1 X130.355 Y45.259 E.04465
G1 X131.106 Y45.381 E.02386
G1 X132.412 Y45.929 E.04441
G1 X133.032 Y46.366 E.02378
G1 X133.668 Y46.988 E.02789
G1 X134.31 Y47.862 E.034
G1 X134.869 Y49.144 E.04385
G1 X134.991 Y49.896 E.02389
G1 X134.954 Y51.405 E.04733
G1 X124.48 Y110.386 E1.87824
G1 X124.228 Y111.104 E.02386
G1 X120.689 Y117.625 E.23263
G1 X119.753 Y118.972 E.05143
G1 X118.929 Y119.778 E.03614
G1 X117.64 Y120.681 E.04935
G1 X110.977 Y124.363 E.23869
G1 X109.827 Y124.659 E.03723
G1 X99.082 Y123.79 E.338
G1 X70.761 Y121.073 E.89206
G1 X69.687 Y120.696 E.03569
M73 P1 R42
G1 X54.443 Y110.722 E.57118
G1 X53.408 Y109.893 E.04158
G1 X52.775 Y109.248 E.02834
G1 X51.742 Y107.695 E.05848
G1 X51.529 Y107.227 E.01612
G1 X51.138 Y105.888 E.04374
G1 X51.031 Y104.321 E.04925
G1 X51.289 Y102.322 E.0632
G1 X51.494 Y101.637 E.02242
G1 X68.962 Y64.849 E1.27689
G1 X69.554 Y63.938 E.03407
M204 P1000
G1 E-2.24 F4200
;WIPE_START
G1 F7200
G1 X69.586 Y63.888 E-.0329
G1 X70.795 Y62.732 E-.9271
;WIPE_END
G1 Z.4 F720
; printing object binary_blue.stl id:0 copy 0
G1 X124.302 Y52.742 F9000
G1 Z.2 F720
G1 E3.2 F2400
M204 P600
;TYPE:External perimeter
;WIDTH:0.608164
G1 F1200
G1 X124.302 Y52.577 E.00776
G1 X124.426 Y52.284 E.01495
;WIDTH:0.570405
G1 X124.551 Y51.991 E.01397
;WIDTH:0.532646
G1 X124.626 Y51.897 E.0049
;WIDTH:0.533092
G1 X124.694 Y51.705 E.0083
;WIDTH:0.536612
G1 X124.974 Y51.28 E.02089
G1 X125.211 Y51.002 E.015
;WIDTH:0.52572
G1 X125.273 Y50.83 E.00734
;WIDTH:0.530844
G1 X127.056 Y49.051 E.10219
G1 X127.264 Y48.976 E.00897
;WIDTH:0.567159
G1 X127.459 Y48.815 E.01102
;WIDTH:0.607846
G1 X127.653 Y48.655 E.01181
G1 X127.885 Y48.531 E.01236
;WIDTH:0.570221
G1 X128.116 Y48.407 E.0115
;WIDTH:0.532596
G1 X128.21 Y48.332 E.0049
;WIDTH:0.5574
G1 X128.678 Y48.145 E.02156
;WIDTH:0.5826
G1 X128.744 Y48.114 E.00327
;WIDTH:0.6078
G1 X128.81 Y48.083 E.00342
;WIDTH:0.608164
G1 X128.961 Y48.083 E.0071
G1 X129.239 Y47.94 E.01469
;WIDTH:0.607132
G1 X130.235 Y47.943 E.04673
;WIDTH:0.6078
G1 X130.526 Y48.083 E.01517
;WIDTH:0.608166
G1 X130.677 Y48.083 E.0071
G1 X131.226 Y48.369 E.02909
;WIDTH:0.608062
G1 X131.324 Y48.426 E.00533
;WIDTH:0.566227
G1 X131.422 Y48.483 E.00493
;WIDTH:0.52586
G1 X131.771 Y48.839 E.02002
;WIDTH:0.529458
G1 X131.851 Y49.049 E.00909
;WIDTH:0.568765
G1 X131.938 Y49.18 E.00688
;WIDTH:0.608072
G1 X132.167 Y49.588 E.02199
;WIDTH:0.647928
G1 X132.187 Y49.875 E.01447
G1 X132.29 Y50.009 E.0085
G1 X132.31 Y50.726 E.03608
;WIDTH:0.64434
G1 X132.262 Y50.913 E.00965
;WIDTH:0.647954
G1 X132.187 Y51.01 E.00617
G1 X132.167 Y51.312 E.01523
;WIDTH:0.608168
G1 X132.024 Y51.598 E.01503
;WIDTH:0.6077
G1 X131.971 Y51.748 E.00747
;WIDTH:0.570174
G1 X131.919 Y51.897 E.00692
;WIDTH:0.532648
G1 X131.776 Y52.181 E.01295
;WIDTH:0.531516
G1 X131.557 Y52.422 E.01323
G1 X131.486 Y52.618 E.00847
;WIDTH:0.567292
G1 X131.326 Y52.813 E.011
;WIDTH:0.608038
G1 X131.166 Y53.008 E.01185
G1 X131.11 Y53.104 E.00522
;WIDTH:0.567213
G1 X131.054 Y53.201 E.00488
;WIDTH:0.535832
G1 X129.425 Y54.829 E.09439
G1 X129.203 Y54.918 E.0098
;WIDTH:0.533046
G1 X128.836 Y55.27 E.02072
;WIDTH:0.531396
G1 X128.641 Y55.338 E.00839
G1 X128.4 Y55.557 E.01323
;WIDTH:0.53266
G1 X128.21 Y55.625 E.00822
G1 X128.116 Y55.7 E.0049
;WIDTH:0.570107
G1 X127.955 Y55.752 E.00742
;WIDTH:0.6077
G1 X127.794 Y55.805 E.00796
M204 P1000
G1 X127.794 Y55.805 F9000
G1 X127.388 Y55.948
M204 P600
;WIDTH:0.647898
G1 F1200
G1 X127.086 Y55.968 E.01523
G1 X126.952 Y56.071 E.0085
G1 X126.514 Y56.091 E.02206
;WIDTH:0.639758
G1 X126.323 Y56.038 E.00984
;WIDTH:0.646176
G1 X126.234 Y55.967 E.00571
G1 X125.935 Y55.948 E.01503
;WIDTH:0.6078
G1 X125.786 Y55.896 E.00741
;WIDTH:0.570197
G1 X125.636 Y55.843 E.00697
;WIDTH:0.532594
G1 X125.542 Y55.768 E.0049
;WIDTH:0.535666
G1 X125.346 Y55.698 E.00853
G1 X125.258 Y55.637 E.00439
;WIDTH:0.499186
G1 X125.17 Y55.575 E.00408
;WIDTH:0.462705
G1 X125.082 Y55.514 E.00374
;WIDTH:0.463672
G1 X124.862 Y55.269 E.01152
;WIDTH:0.50112
G1 X124.641 Y55.024 E.01257
G1 X124.374 Y54.593 E.01932
;WIDTH:0.498728
G1 X124.357 Y54.508 E.00329
;WIDTH:0.532678
G1 X124.34 Y54.422 E.00357
G1 X124.256 Y54.305 E.00587
;WIDTH:0.562193
G1 X124.208 Y54.096 E.00926
;WIDTH:0.6077
G1 X124.159 Y53.886 E.01013
G1 X124.159 Y53.148 E.03466
M204 P1000
G1 E-2.24 F4200
;WIPE_START
G1 F7200
G1 X124.159 Y53.886 E-.40897
G1 X124.208 Y54.096 E-.1195
G1 X124.256 Y54.305 E-.11884
G1 X124.34 Y54.422 E-.07982
G1 X124.357 Y54.508 E-.04858
G1 X124.374 Y54.593 E-.04804
G1 X124.504 Y54.802 E-.13625
;WIPE_END
G1 Z.4 F720
G1 X76.638 Y72.967 F9000
G1 Z.2 F720
G1 E3.2 F2400
M204 P600
;TYPE:Perimeter
;WIDTH:0.419999
G1 F1200
G1 X76.251 Y72.565 E.0175
G1 X76.001 Y72.451 E.00862
G1 X75.885 Y72.345 E.00493
G1 X74.8 Y71.769 E.03852
G1 X73.804 Y71.431 E.03298
G1 X73.307 Y71.184 E.0174
G1 X73.131 Y71.027 E.00739
G1 X72.904 Y70.916 E.00792
G1 X72.442 Y70.458 E.0204
G1 X72.386 Y70.317 E.00476
G1 X72.178 Y70.057 E.01044
G1 X71.815 Y69.27 E.02717
G1 X71.712 Y68.951 E.01051
G1 X71.662 Y68.639 E.00991
G1 X71.537 Y68.336 E.01028
G1 X71.537 Y68.013 E.01013
G1 X71.593 Y67.923 E.00332
G1 X71.675 Y67.601 E.01042
G1 X71.846 Y67.129 E.01574
G1 X72.292 Y66.19 E.03259
G1 X73.064 Y65.418 E.03423
G1 X73.198 Y65.378 E.00438
G1 X73.45 Y65.165 E.01035
G1 X73.893 Y64.954 E.01539
G1 X74.407 Y64.803 E.0168
G1 X74.714 Y64.673 E.01045
G1 X75.792 Y64.673 E.0338
G1 X75.996 Y64.779 E.00721
G1 X76.387 Y64.849 E.01245
G1 X77.309 Y65.286 E.03199
G1 X77.85 Y65.794 E.02327
G1 X78.212 Y66.187 E.01675
G1 X78.243 Y66.301 E.0037
G1 X78.477 Y66.586 E.01156
G1 X78.691 Y67.08 E.01688
G1 X78.794 Y67.398 E.01048
G1 X78.84 Y67.69 E.00927
G1 X78.969 Y68.004 E.01064
G1 X78.969 Y68.632 E.01969
G1 X78.73 Y69.245 E.02063
G1 X78.683 Y69.617 E.01176
G1 X78.412 Y70.008 E.01492
G1 X78.191 Y70.478 E.01628
G1 X78.049 Y70.635 E.00664
G1 X77.933 Y70.869 E.00819
G1 X77.625 Y71.184 E.01381
G1 X77.356 Y71.52 E.0135
G1 X77.106 Y71.897 E.01418
G1 X76.836 Y72.454 E.01941
G1 X76.66 Y72.911 E.01535
M204 P1000
G1 X76.66 Y72.911 F9000
G1 X76.813 Y73.721
M204 P600
G1 F1200
G1 X76.033 Y72.873 E.03613
G1 X75.814 Y72.79 E.00734
G1 X75.633 Y72.626 E.00766
G1 X74.67 Y72.127 E.03401
G1 X74.391 Y72.053 E.00905
G1 X74.216 Y71.97 E.00607
G1 X73.962 Y71.91 E.00818
G1 X73.111 Y71.516 E.0294
G1 X72.904 Y71.328 E.00877
G1 X72.69 Y71.236 E.0073
G1 X72.135 Y70.685 E.02452
G1 X72.059 Y70.506 E.0061
G1 X71.843 Y70.248 E.01055
G1 X71.476 Y69.485 E.02655
G1 X71.436 Y69.289 E.00627
G1 X71.322 Y69.041 E.00856
G1 X71.293 Y68.713 E.01032
G1 X71.16 Y68.446 E.00935
G1 X71.16 Y67.934 E.01605
G1 X71.251 Y67.765 E.00602
G1 X71.303 Y67.527 E.00764
G1 X71.375 Y67.374 E.0053
G1 X71.446 Y67.098 E.00894
G1 X71.969 Y65.979 E.03873
G1 X72.842 Y65.107 E.03869
G1 X72.992 Y65.062 E.00491
G1 X73.254 Y64.833 E.01091
G1 X73.729 Y64.612 E.01643
G1 X73.894 Y64.577 E.00529
G1 X74.158 Y64.469 E.00894
G1 X74.343 Y64.431 E.00592
G1 X74.625 Y64.296 E.0098
G1 X75.851 Y64.296 E.03844
G1 X76.101 Y64.417 E.00871
G1 X76.423 Y64.439 E.01012
G1 X76.875 Y64.671 E.01593
G1 X77.521 Y64.966 E.02227
G1 X78.077 Y65.493 E.02402
G1 X78.531 Y65.974 E.02074
G1 X78.568 Y66.108 E.00436
G1 X78.809 Y66.39 E.01163
G1 X79.03 Y66.865 E.01643
G1 X79.07 Y67.061 E.00627
G1 X79.184 Y67.308 E.00853
G1 X79.205 Y67.579 E.00852
G1 X79.346 Y67.934 E.01198
G1 X79.346 Y68.701 E.02405
G1 X79.239 Y68.91 E.00736
G1 X79.203 Y69.109 E.00634
G1 X79.094 Y69.344 E.00812
G1 X79.06 Y69.702 E.01128
G1 X78.95 Y69.962 E.00885
G1 X78.802 Y70.124 E.00688
G1 X78.523 Y70.674 E.01934
G1 X78.349 Y70.865 E.0081
G1 X78.248 Y71.086 E.00762
G1 X77.746 Y71.605 E.02264
G1 X77.655 Y71.829 E.00758
G1 X77.491 Y72.009 E.00764
G1 X77.259 Y72.434 E.01518
G1 X77.017 Y72.942 E.01764
G1 X76.829 Y73.663 E.02336
M204 P1000
G1 X76.829 Y73.663 F9000
G1 X77.206 Y74.882
M204 P600
;TYPE:External perimeter
G1 F1200
G1 X76.786 Y74.418 E.01962
G1 X76.539 Y74.004 E.01512
G1 X75.815 Y73.181 E.03437
G1 X75.644 Y73.146 E.00547
G1 X75.383 Y72.908 E.01107
G1 X74.963 Y72.716 E.01448
G1 X74.794 Y72.614 E.00619
G1 X74.677 Y72.573 E.00389
G1 X74.495 Y72.461 E.0067
G1 X74.207 Y72.43 E.00908
G1 X74.046 Y72.307 E.00635
G1 X73.778 Y72.287 E.00843
G1 X73.65 Y72.185 E.00513
G1 X73.247 Y72.001 E.01389
G1 X73.078 Y71.899 E.00619
G1 X72.961 Y71.858 E.00389
G1 X72.666 Y71.621 E.01186
G1 X72.494 Y71.572 E.00561
G1 X71.782 Y70.865 E.03146
G1 X71.753 Y70.744 E.0039
G1 X71.521 Y70.455 E.01162
G1 X71.481 Y70.317 E.0045
G1 X71.381 Y70.183 E.00524
G1 X71.349 Y70.063 E.00389
G1 X71.238 Y69.897 E.00626
G1 X71.206 Y69.777 E.00389
G1 X71.069 Y69.579 E.00755
G1 X71.068 Y69.37 E.00655
G1 X70.926 Y69.15 E.00821
G1 X70.926 Y68.808 E.01072
G1 X70.783 Y68.578 E.00849
G1 X70.783 Y67.772 E.02527
G1 X70.909 Y67.606 E.00653
G1 X70.926 Y67.343 E.00826
G1 X71.045 Y67.19 E.00608
G1 X71.069 Y66.913 E.00872
G1 X71.171 Y66.786 E.00511
G1 X71.212 Y66.669 E.00389
G1 X71.457 Y66.214 E.0162
G1 X71.633 Y65.782 E.01463
G1 X72.607 Y64.809 E.04317
G1 X72.786 Y64.747 E.00594
G1 X73.045 Y64.514 E.01092
G1 X73.187 Y64.472 E.00464
G1 X73.316 Y64.374 E.00508
G1 X73.437 Y64.342 E.00392
G1 X73.635 Y64.205 E.00755
G1 X73.844 Y64.204 E.00655
G1 X74.063 Y64.062 E.00818
G1 X74.279 Y64.06 E.00677
G1 X74.492 Y63.919 E.00801
G1 X76.014 Y63.919 E.04772
G1 X76.206 Y64.055 E.00738
G1 X76.586 Y64.062 E.01192
G1 X76.713 Y64.164 E.00511
G1 X76.831 Y64.205 E.00392
G1 X77.285 Y64.45 E.01618
G1 X77.403 Y64.491 E.00392
G1 X77.571 Y64.593 E.00616
G1 X77.721 Y64.634 E.00488
G1 X78.252 Y65.153 E.02328
G1 X78.431 Y65.206 E.00585
G1 X78.487 Y65.387 E.00594
G1 X78.836 Y65.748 E.01574
G1 X78.892 Y65.915 E.00552
G1 X79.128 Y66.181 E.01115
G1 X79.17 Y66.323 E.00464
G1 X79.268 Y66.453 E.0051
G1 X79.3 Y66.573 E.00389
G1 X79.437 Y66.771 E.00755
G1 X79.439 Y66.98 E.00655
G1 X79.58 Y67.199 E.00817
G1 X79.581 Y67.544 E.01082
G1 X79.723 Y67.772 E.00842
G1 X79.723 Y67.934 E.00508
G1 X79.723 Y68.864 E.02916
G1 X79.592 Y69.043 E.00695
G1 X79.58 Y69.293 E.00785
G1 X79.46 Y69.449 E.00617
G1 X79.437 Y69.865 E.01306
G1 X79.335 Y69.992 E.00511
G1 X79.294 Y70.11 E.00392
G1 X79.081 Y70.378 E.01073
G1 X78.906 Y70.707 E.01168
G1 X78.865 Y70.825 E.00392
G1 X78.628 Y71.119 E.01184
G1 X78.551 Y71.315 E.0066
G1 X78.052 Y71.827 E.02242
G1 X78.007 Y72.002 E.00567
G1 X77.77 Y72.263 E.01105
G1 X77.578 Y72.684 E.01451
G1 X77.477 Y72.853 E.00617
G1 X77.436 Y72.971 E.00392
G1 X77.329 Y73.153 E.00662
G1 X77.307 Y73.473 E.01006
G1 X77.223 Y73.596 E.00467
G1 X77.194 Y73.741 E.00464
G1 X77.304 Y74.257 E.01654
G1 X77.233 Y74.374 E.00429
G1 X77.209 Y74.822 E.01407
M204 P1000
G1 E-2.24 F4200
;WIPE_START
G1 F7200
G1 X77.206 Y74.882 E-.03329
G1 X76.786 Y74.418 E-.34683
G1 X76.539 Y74.004 E-.26715
G1 X76.167 Y73.58 E-.31273
;WIPE_END
G1 Z.4 F720
G1 X78.401 Y66.829 F9000
G1 Z.2 F720
G1 E3.2 F2400
M204 P600
;TYPE:Solid infill
;WIDTH:0.421705
G1 F1200
G1 X77.127 Y65.582 E.05615
G1 X76.239 Y65.152 E.03108
G1 X76.181 Y65.144 E.00184
G1 X78.42 Y67.384 E.09975
G1 X78.488 Y67.538 E.0053
G1 X78.498 Y67.699 E.00508
G1 X78.543 Y67.906 E.00667
G1 X78.63 Y68.084 E.00624
G1 X78.63 Y68.129 E.00142
G1 X75.513 Y65.013 E.13882
G1 X74.978 Y65.013 E.01685
G1 X78.587 Y68.622 E.16075
G1 X78.458 Y69.029 E.01345
G1 X74.546 Y65.117 E.17425
G1 X74.43 Y65.138 E.00371
G1 X74.266 Y65.219 E.00576
G1 X74.142 Y65.249 E.00402
G1 X78.356 Y69.462 E.18768
G1 X78.317 Y69.594 E.00434
G1 X78.154 Y69.796 E.00818
G1 X73.758 Y65.4 E.19581
G1 X73.617 Y65.47 E.00496
G1 X73.439 Y65.617 E.00727
G1 X77.969 Y70.147 E.20178
G1 X77.897 Y70.298 E.00527
G1 X77.754 Y70.467 E.00697
G1 X73.124 Y65.838 E.20621
G1 X72.856 Y66.106 E.01194
G1 X77.54 Y70.789 E.20861
G1 X77.278 Y71.063 E.01194
G1 X72.589 Y66.373 E.20888
G1 X72.42 Y66.741 E.01275
G1 X77.051 Y71.371 E.20625
G1 X77.016 Y71.47 E.00331
G1 X76.837 Y71.693 E.00901
G1 X72.241 Y67.097 E.20472
G1 X72.146 Y67.284 E.00661
G1 X72.1 Y67.492 E.00671
G1 X76.655 Y72.047 E.20289
G1 X76.51 Y72.343 E.01038
G1 X76.451 Y72.29 E.0025
G1 X76.254 Y72.182 E.00708
G1 X71.965 Y67.893 E.19104
G1 X71.877 Y68.097 E.007
G1 X71.877 Y68.252 E.00488
G1 X71.953 Y68.416 E.00569
G1 X75.066 Y71.529 E.13866
G1 X74.897 Y71.44 E.00602
G1 X74.711 Y71.376 E.0062
G1 X74.573 Y71.354 E.0044
G1 X74.43 Y71.281 E.00506
G1 X74.233 Y71.232 E.00639
G1 X72.13 Y69.129 E.09367
G1 X72.147 Y69.21 E.00261
G1 X72.473 Y69.879 E.02344
G1 X72.64 Y70.081 E.00825
G1 X72.723 Y70.258 E.00616
G1 X73.589 Y71.123 E.03855
M204 P1000
G1 E-2.24 F4200
;WIPE_START
G1 F7200
G1 X72.723 Y70.258 E-.6783
G1 X72.64 Y70.081 E-.10834
G1 X72.473 Y69.879 E-.14524
G1 X72.451 Y69.833 E-.02812
;WIPE_END
G1 Z.4 F720
G1 X99.95 Y54.03 F9000
G1 Z.2 F720
G1 E3.2 F2400
M204 P600
;TYPE:Perimeter
;WIDTH:0.419999
G1 F1200
G1 X99.343 Y54.622 E.02658
G1 X98.631 Y56.022 E.04925
G1 X98.56 Y56.382 E.0115
G1 X98.449 Y56.708 E.0108
G1 X98.417 Y57.339 E.01981
G1 X98.325 Y57.506 E.00598
G1 X98.274 Y57.822 E.01004
G1 X98.301 Y58.935 E.03491
G1 X98.191 Y58.874 E.00394
G1 X97.843 Y58.808 E.01111
G1 X96.533 Y58.807 E.04107
G1 X95.52 Y58.825 E.03177
G1 X95.22 Y58.949 E.01018
G1 X94.897 Y58.949 E.01013
G1 X94.701 Y58.852 E.00686
G1 X94.41 Y58.806 E.00924
G1 X93.681 Y58.561 E.02411
G1 X93.217 Y58.336 E.01617
G1 X92.8 Y57.93 E.01825
G1 X92.557 Y57.771 E.00911
G1 X92.518 Y57.682 E.00305
G1 X92.178 Y57.303 E.01596
G1 X92.149 Y57.195 E.00351
G1 X91.838 Y56.736 E.01738
G1 X91.685 Y56.215 E.01703
G1 X91.557 Y55.908 E.01043
G1 X91.557 Y55.524 E.01204
G1 X91.522 Y55.267 E.00813
G1 X91.55 Y55.058 E.00661
G1 X91.557 Y54.558 E.01568
G1 X91.649 Y54.391 E.00598
G1 X91.694 Y54.158 E.00744
G1 X91.892 Y53.638 E.01745
G1 X92.072 Y53.386 E.00971
G1 X92.175 Y53.17 E.0075
G1 X92.544 Y52.751 E.01751
G1 X92.8 Y52.537 E.01046
G1 X93.217 Y52.13 E.01827
G1 X93.965 Y51.795 E.0257
G1 X94.282 Y51.693 E.01044
G1 X94.486 Y51.657 E.0065
G1 X94.987 Y51.517 E.01631
G1 X95.261 Y51.61 E.00907
G1 X95.564 Y51.66 E.00963
G1 X95.796 Y51.74 E.00769
G1 X96.136 Y51.803 E.01084
G1 X96.647 Y52.009 E.01727
G1 X96.81 Y52.156 E.00688
G1 X97.046 Y52.274 E.00827
G1 X97.381 Y52.593 E.0145
G1 X97.615 Y52.702 E.00809
G1 X98.071 Y53.145 E.01993
G1 X98.39 Y53.327 E.01152
G1 X99.349 Y53.802 E.03355
G1 X99.894 Y54.008 E.01827
M204 P1000
G1 X99.894 Y54.008 F9000
G1 X100.828 Y53.84
M204 P600
G1 F1200
G1 X100.361 Y54.158 E.01771
G1 X99.683 Y54.809 E.02947
