; generated by PrusaSlicer 2.7.4 on 2024-10-19 at 16:45:24 UTC


;
;

;
;
; 

; external perimeters extrusion width = 0.45mm
; perimeters extrusion width = 0.45mm
; infill extrusion width = 0.45mm
; solid infill extrusion width = 0.45mm
; top infill extrusion width = 0.40mm
; first layer extrusion width = 0.42mm

M73 P0 R80
M201 X2500 Y2500 Z400 E5000 ; sets maximum accelerations, mm/sec^2
M203 X180 Y180 Z12 E80 ; sets maximum feedrates, mm / sec
M204 P2000 R1250 T2500 ; sets acceleration (P, T) and retract acceleration (R), mm/sec^2
M205 X8.00 Y8.00 Z2.00 E10.00 ; sets the jerk limits, mm/sec
M205 S0 T0 ; sets the minimum extruding and travel feed rate, mm/sec

; printing object binary_white.stl id:0 copy 0
; stop printing object binary_white.stl id:0 copy 0

;TYPE:Custom
M862.3 P "MINI" ; printer model check
G90 ; use absolute coordinates
M83 ; extruder relative mode
M104 S170 ; set extruder temp for bed leveling
M140 S60 ; set bed temp
M109 R170 ; wait for bed leveling temp
M190 S60 ; wait for bed temp
M204 T1250 ; set travel acceleration
G28 ; home all without mesh bed level
G29 ; mesh bed leveling 
M204 T2500 ; restore travel acceleration
M104 S215 ; set extruder temp
G92 E0
G1 Y-2 X179 F2400
G1 Z3 F720
M109 S215 ; wait for extruder temp

; intro line
G1 X170 F1000
G1 Z0.2 F720
G1 X110 E8 F900
G1 X40 E10 F700
G92 E0

M221 S95 ; set flow
G21 ; set units to millimeters
G90 ; use absolute coordinates
M83 ; use relative distances for extrusion
M900 K0.2 ; Filament gcode LA 1.5
; ; Filament gcode LA 1.0
M107
;LAYER_CHANGE
;Z:0.2
;HEIGHT:0.2
G1 E-3.2 F4200
G1 Z.4 F720
G1 X16.984 Y16.984 F9000
G1 Z.2 F720
G1 E3.2 F2400
M204 P600
;TYPE:Skirt/Brim
;WIDTH:0.42
G1 F1200
G1 X17.041 Y16.926 E.00255
G1 X18.722 Y16.23 E.05705
G1 X161.243 Y16.23 E4.46865
G1 X162.923 Y16.927 E.05703
M73 P0 R79
G1 X163.038 Y17.041 E.00508
G1 X163.734 Y18.722 E.05705
G1 X163.734 Y161.243 E4.46865
G1 X163.038 Y162.923 E.05702
G1 X162.923 Y163.038 E.0051
G1 X161.243 Y163.734 E.05702
G1 X18.722 Y163.734 E4.46865
G1 X17.041 Y163.038 E.05705
G1 X16.927 Y162.923 E.00508
G1 X16.23 Y161.243 E.05703
G1 X16.23 Y18.722 E4.46865
G1 X16.926 Y17.041 E.05705
G1 X16.941 Y17.026 E.00067
M204 P1000
G1 E-2.24 F4200
;WIPE_START
G1 F7200
G1 X16.984 Y16.984 E-.03331
G1 X17.041 Y16.926 E-.04507
G1 X18.511 Y16.318 E-.88162
;WIPE_END
G1 Z.4 F720
; printing object binary_white.stl id:0 copy 0
G1 X160.57 Y160.57 F9000
G1 Z.2 F720
G1 E3.2 F2400
M204 P600
;TYPE:Perimeter
;WIDTH:0.419999
G1 F1200
G1 X19.394 Y160.57 E4.42647
G1 X19.394 Y19.394 E4.42647
M73 P1 R79
G1 X160.57 Y19.394 E4.42647
G1 X160.57 Y26.81 E.23252
G1 X160.57 Y160.51 E4.19206
M204 P1000
G1 X160.57 Y160.51 F9000
G1 X160.947 Y160.947
M204 P600
;TYPE:External perimeter
G1 F1200
G1 X19.017 Y160.947 E4.45011
G1 X19.017 Y19.017 E4.45011
G1 X160.947 Y19.017 E4.45011
M73 P1 R78
G1 X160.947 Y26.81 E.24434
M73 P2 R78
G1 X160.947 Y160.887 E4.20388
M204 P1000
G1 E-2.24 F4200
;WIPE_START
G1 F7200
G1 X160.947 Y160.947 E-.03325
G1 X159.275 Y160.947 E-.92675
;WIPE_END
G1 Z.4 F720
G1 X32.08 Y147.816 F9000
G1 Z.2 F720
G1 E3.2 F2400
M204 P600
;TYPE:Perimeter
G1 F1200
G1 X31.919 Y147.488 E.01146
G1 X31.87 Y147.258 E.00737
G1 X31.891 Y32.457 E3.5995
G1 X31.951 Y32.203 E.00818
G1 X32.1 Y32.018 E.00745
G1 X32.359 Y31.9 E.00892
G1 X32.457 Y31.891 E.00309
G1 X147.514 Y31.891 E3.60753
G1 X147.768 Y31.951 E.00818
G1 X147.953 Y32.1 E.00745
G1 X148.071 Y32.359 E.00892
G1 X148.08 Y32.457 E.00309
G1 X148.08 Y147.514 E3.60753
G1 X148.02 Y147.768 E.00818
G1 X147.871 Y147.953 E.00745
G1 X147.612 Y148.071 E.00892
G1 X147.514 Y148.08 E.00309
G1 X32.556 Y148.094 E3.60442
G1 X32.299 Y148.032 E.00829
G1 X32.109 Y147.876 E.00771
G1 X32.106 Y147.87 E.00021
M204 P1000
G1 X32.106 Y147.87 F9000
G1 X32.28 Y147.37
M204 P600
;TYPE:External perimeter
G1 F1200
G1 X32.263 Y147.335 E.00122
G1 X32.247 Y147.258 E.00247
G1 X32.269 Y32.457 E3.5995
G1 X32.338 Y32.311 E.00506
G1 X32.457 Y32.269 E.00396
G1 X147.514 Y32.269 E3.60753
G1 X147.661 Y32.338 E.00509
G1 X147.703 Y32.457 E.00396
G1 X147.703 Y147.514 E3.60753
G1 X147.633 Y147.661 E.0051
M73 P3 R77
G1 X147.514 Y147.703 E.00396
G1 X32.556 Y147.717 E3.60442
G1 X32.421 Y147.66 E.00459
G1 X32.307 Y147.424 E.00822
M204 P1000
G1 E-2.24 F4200
;WIPE_START
G1 F7200
G1 X32.28 Y147.37 E-.03346
G1 X32.263 Y147.335 E-.02156
G1 X32.247 Y147.258 E-.04358
G1 X32.247 Y145.704 E-.8614
;WIPE_END
G1 Z.4 F720
G1 X159.637 Y19.564 F9000
G1 Z.2 F720
G1 E3.2 F2400
M204 P600
;TYPE:Solid infill
;WIDTH:0.420241
G1 F1200
G1 X160.23 Y20.157 E.02631
G1 X160.23 Y20.691 E.01675
G1 X159.273 Y19.734 E.04246
G1 X158.74 Y19.734 E.01672
G1 X160.23 Y21.224 E.06611
G1 X160.23 Y21.758 E.01675
G1 X158.206 Y19.734 E.08981
G1 X157.673 Y19.734 E.01672
G1 X160.23 Y22.292 E.11348
G1 X160.23 Y22.825 E.01672
G1 X157.139 Y19.734 E.13715
G1 X156.605 Y19.734 E.01675
G1 X160.23 Y23.359 E.16084
G1 X160.23 Y23.892 E.01672
G1 X156.072 Y19.734 E.18449
G1 X155.538 Y19.734 E.01675
G1 X160.23 Y24.426 E.20818
G1 X160.23 Y24.96 E.01675
G1 X155.005 Y19.734 E.23186
G1 X154.471 Y19.734 E.01675
G1 X160.23 Y25.493 E.25553
G1 X160.23 Y26.027 E.01675
G1 X153.937 Y19.734 E.27922
G1 X153.404 Y19.734 E.01672
G1 X160.23 Y26.56 E.30287
G1 X160.23 Y27.094 E.01675
G1 X152.87 Y19.734 E.32656
G1 X152.336 Y19.734 E.01675
G1 X160.23 Y27.628 E.35026
G1 X160.23 Y28.161 E.01672
G1 X151.803 Y19.734 E.37391
G1 X151.269 Y19.734 E.01675
G1 X160.23 Y28.695 E.3976
G1 X160.23 Y29.229 E.01675
G1 X150.736 Y19.734 E.42127
G1 X150.202 Y19.734 E.01675
G1 X160.23 Y29.762 E.44494
G1 X160.23 Y30.296 E.01675
G1 X149.668 Y19.734 E.46864
G1 X149.135 Y19.734 E.01672
G1 X160.23 Y30.829 E.49229
G1 X160.23 Y31.363 E.01675
G1 X148.601 Y19.734 E.51598
G1 X148.068 Y19.734 E.01672
G1 X160.23 Y31.897 E.53965
G1 X160.23 Y32.43 E.01672
G1 X147.534 Y19.734 E.56332
G1 X147 Y19.734 E.01675
G1 X160.23 Y32.964 E.58702
G1 X160.23 Y33.497 E.01672
G1 X146.467 Y19.734 E.61067
G1 X145.933 Y19.734 E.01675
G1 X160.23 Y34.031 E.63436
G1 X160.23 Y34.565 E.01675
G1 X145.4 Y19.734 E.65803
G1 X144.866 Y19.734 E.01675
G1 X160.23 Y35.098 E.6817
G1 X160.23 Y35.632 E.01675
G1 X144.332 Y19.734 E.7054
G1 X143.799 Y19.734 E.01672
G1 X160.23 Y36.166 E.72907
G1 X160.23 Y36.699 E.01672
G1 X143.265 Y19.734 E.75274
G1 X142.731 Y19.734 E.01675
G1 X160.23 Y37.233 E.77643
G1 X160.23 Y37.766 E.01672
G1 X142.198 Y19.734 E.80008
G1 X141.664 Y19.734 E.01675
G1 X160.23 Y38.3 E.82377
G1 X160.23 Y38.834 E.01675
G1 X141.131 Y19.734 E.84745
G1 X140.597 Y19.734 E.01675
G1 X160.23 Y39.367 E.87112
G1 X160.23 Y39.901 E.01675
G1 X140.063 Y19.734 E.89481
G1 X139.53 Y19.734 E.01672
G1 X160.23 Y40.434 E.91846
G1 X160.23 Y40.968 E.01675
G1 X138.996 Y19.734 E.94215
G1 X138.463 Y19.734 E.01672
G1 X160.23 Y41.502 E.96583
G1 X160.23 Y42.035 E.01672
G1 X137.929 Y19.734 E.9895
G1 X137.395 Y19.734 E.01675
G1 X160.23 Y42.569 E1.01319
G1 X160.23 Y43.102 E.01672
G1 X136.862 Y19.734 E1.03684
G1 X136.328 Y19.734 E.01675
G1 X160.23 Y43.636 E1.06053
G1 X160.23 Y44.17 E.01675
M73 P4 R77
G1 X148.401 Y32.34 E.52488
G1 X148.367 Y32.149 E.00609
G1 X148.274 Y31.964 E.0065
G1 X148.154 Y31.816 E.00598
G1 X148.006 Y31.696 E.00598
G1 X147.821 Y31.604 E.00648
G1 X147.631 Y31.57 E.00606
G1 X135.794 Y19.734 E.52519
G1 X135.261 Y19.734 E.01672
G1 X147.079 Y31.552 E.52437
G1 X146.546 Y31.552 E.01672
G1 X134.727 Y19.734 E.52439
G1 X134.194 Y19.734 E.01672
G1 X146.012 Y31.552 E.52437
G1 X145.478 Y31.552 E.01675
G1 X133.66 Y19.734 E.52437
G1 X133.126 Y19.734 E.01675
G1 X144.945 Y31.552 E.52439
G1 X144.411 Y31.552 E.01675
G1 X132.593 Y19.734 E.52437
G1 X132.059 Y19.734 E.01675
G1 X143.878 Y31.552 E.52439
G1 X143.344 Y31.552 E.01675
G1 X131.526 Y19.734 E.52437
G1 X130.992 Y19.734 E.01675
G1 X142.81 Y31.552 E.52437
G1 X142.277 Y31.552 E.01672
M73 P4 R76
G1 X130.458 Y19.734 E.52439
G1 X129.925 Y19.734 E.01672
G1 X141.743 Y31.552 E.52437
G1 X141.209 Y31.552 E.01675
G1 X129.391 Y19.734 E.52437
G1 X128.858 Y19.734 E.01672
G1 X140.676 Y31.552 E.52437
G1 X140.142 Y31.552 E.01675
G1 X128.324 Y19.734 E.52437
G1 X127.79 Y19.734 E.01675
G1 X139.609 Y31.552 E.52439
G1 X139.075 Y31.552 E.01675
G1 X127.257 Y19.734 E.52437
G1 X126.723 Y19.734 E.01675
G1 X138.541 Y31.552 E.52437
G1 X138.008 Y31.552 E.01672
G1 X126.189 Y19.734 E.52439
G1 X125.656 Y19.734 E.01672
G1 X137.474 Y31.552 E.52437
G1 X136.941 Y31.552 E.01672
G1 X125.122 Y19.734 E.52439
G1 X124.589 Y19.734 E.01672
G1 X136.407 Y31.552 E.52437
G1 X135.873 Y31.552 E.01675
G1 X124.055 Y19.734 E.52437
G1 X123.521 Y19.734 E.01675
G1 X135.34 Y31.552 E.52439
G1 X134.806 Y31.552 E.01675
G1 X122.988 Y19.734 E.52437
G1 X122.454 Y19.734 E.01675
G1 X134.273 Y31.552 E.52439
G1 X133.739 Y31.552 E.01675
G1 X121.921 Y19.734 E.52437
G1 X121.387 Y19.734 E.01675
G1 X133.205 Y31.552 E.52437
G1 X132.672 Y31.552 E.01672
G1 X120.853 Y19.734 E.52439
G1 X120.32 Y19.734 E.01672
G1 X132.138 Y31.552 E.52437
G1 X131.604 Y31.552 E.01675
G1 X119.786 Y19.734 E.52437
G1 X119.253 Y19.734 E.01672
G1 X131.071 Y31.552 E.52437
G1 X130.537 Y31.552 E.01675
G1 X118.719 Y19.734 E.52437
G1 X118.185 Y19.734 E.01675
G1 X130.004 Y31.552 E.52439
G1 X129.47 Y31.552 E.01675
G1 X117.652 Y19.734 E.52437
G1 X117.118 Y19.734 E.01675
G1 X128.936 Y31.552 E.52437
G1 X128.403 Y31.552 E.01672
G1 X116.584 Y19.734 E.52439
G1 X116.051 Y19.734 E.01672
G1 X127.869 Y31.552 E.52437
G1 X127.336 Y31.552 E.01672
G1 X115.517 Y19.734 E.52439
G1 X114.984 Y19.734 E.01672
G1 X126.802 Y31.552 E.52437
G1 X126.268 Y31.552 E.01675
G1 X114.45 Y19.734 E.52437
G1 X113.916 Y19.734 E.01675
G1 X125.735 Y31.552 E.52439
G1 X125.201 Y31.552 E.01675
G1 X113.383 Y19.734 E.52437
G1 X112.849 Y19.734 E.01675
G1 X124.667 Y31.552 E.52437
G1 X124.134 Y31.552 E.01672
G1 X112.316 Y19.734 E.52437
G1 X111.782 Y19.734 E.01675
G1 X123.6 Y31.552 E.52437
G1 X123.067 Y31.552 E.01672
G1 X111.248 Y19.734 E.52439
G1 X110.715 Y19.734 E.01672
G1 X122.533 Y31.552 E.52437
G1 X121.999 Y31.552 E.01675
G1 X110.181 Y19.734 E.52437
G1 X109.647 Y19.734 E.01675
G1 X121.466 Y31.552 E.52439
G1 X120.932 Y31.552 E.01675
G1 X109.114 Y19.734 E.52437
G1 X108.58 Y19.734 E.01675
G1 X120.399 Y31.552 E.52439
G1 X119.865 Y31.552 E.01675
G1 X108.047 Y19.734 E.52437
G1 X107.513 Y19.734 E.01675
G1 X119.331 Y31.552 E.52437
G1 X118.798 Y31.552 E.01672
M73 P5 R76
G1 X106.979 Y19.734 E.52439
G1 X106.446 Y19.734 E.01672
G1 X118.264 Y31.552 E.52437
G1 X117.731 Y31.552 E.01672
G1 X105.912 Y19.734 E.52439
G1 X105.379 Y19.734 E.01672
G1 X117.197 Y31.552 E.52437
G1 X116.663 Y31.552 E.01675
G1 X104.845 Y19.734 E.52437
G1 X104.311 Y19.734 E.01675
G1 X116.13 Y31.552 E.52439
G1 X115.596 Y31.552 E.01675
G1 X103.778 Y19.734 E.52437
G1 X103.244 Y19.734 E.01675
G1 X115.062 Y31.552 E.52437
G1 X114.529 Y31.552 E.01672
G1 X102.711 Y19.734 E.52437
G1 X102.177 Y19.734 E.01675
G1 X113.995 Y31.552 E.52437
G1 X113.462 Y31.552 E.01672
G1 X101.643 Y19.734 E.52439
G1 X101.11 Y19.734 E.01672
G1 X112.928 Y31.552 E.52437
G1 X112.394 Y31.552 E.01675
G1 X100.576 Y19.734 E.52437
G1 X100.042 Y19.734 E.01675
G1 X111.861 Y31.552 E.52439
G1 X111.327 Y31.552 E.01675
G1 X99.509 Y19.734 E.52437
G1 X98.975 Y19.734 E.01675
G1 X110.794 Y31.552 E.52439
G1 X110.26 Y31.552 E.01675
G1 X98.442 Y19.734 E.52437
G1 X97.908 Y19.734 E.01675
G1 X109.726 Y31.552 E.52437
G1 X109.193 Y31.552 E.01672
G1 X97.374 Y19.734 E.52439
G1 X96.841 Y19.734 E.01672
G1 X108.659 Y31.552 E.52437
G1 X108.126 Y31.552 E.01672
G1 X96.307 Y19.734 E.52439
G1 X95.774 Y19.734 E.01672
G1 X107.592 Y31.552 E.52437
G1 X107.058 Y31.552 E.01675
G1 X95.24 Y19.734 E.52437
G1 X94.706 Y19.734 E.01675
G1 X106.525 Y31.552 E.52439
G1 X105.991 Y31.552 E.01675
G1 X94.173 Y19.734 E.52437
G1 X93.639 Y19.734 E.01675
M73 P5 R75
G1 X105.457 Y31.552 E.52437
G1 X104.924 Y31.552 E.01672
G1 X93.105 Y19.734 E.52439
G1 X92.572 Y19.734 E.01672
G1 X104.39 Y31.552 E.52437
G1 X103.857 Y31.552 E.01672
G1 X92.038 Y19.734 E.52439
G1 X91.505 Y19.734 E.01672
G1 X103.323 Y31.552 E.52437
G1 X102.789 Y31.552 E.01675
G1 X90.971 Y19.734 E.52437
G1 X90.437 Y19.734 E.01675
G1 X102.256 Y31.552 E.52439
G1 X101.722 Y31.552 E.01675
G1 X89.904 Y19.734 E.52437
G1 X89.37 Y19.734 E.01675
G1 X101.189 Y31.552 E.52439
G1 X100.655 Y31.552 E.01675
G1 X88.837 Y19.734 E.52437
G1 X88.303 Y19.734 E.01675
G1 X100.121 Y31.552 E.52437
G1 X99.588 Y31.552 E.01672
G1 X87.769 Y19.734 E.52439
G1 X87.236 Y19.734 E.01672
G1 X99.054 Y31.552 E.52437
G1 X98.52 Y31.552 E.01675
G1 X86.702 Y19.734 E.52437
G1 X86.169 Y19.734 E.01672
G1 X97.987 Y31.552 E.52437
G1 X97.453 Y31.552 E.01675
G1 X85.635 Y19.734 E.52437
G1 X85.101 Y19.734 E.01675
G1 X96.92 Y31.552 E.52439
G1 X96.386 Y31.552 E.01675
G1 X84.568 Y19.734 E.52437
G1 X84.034 Y19.734 E.01675
G1 X95.852 Y31.552 E.52437
G1 X95.319 Y31.552 E.01672
G1 X83.5 Y19.734 E.52439
G1 X82.967 Y19.734 E.01672
G1 X94.785 Y31.552 E.52437
G1 X94.252 Y31.552 E.01672
G1 X82.433 Y19.734 E.52439
G1 X81.9 Y19.734 E.01672
G1 X93.718 Y31.552 E.52437
G1 X93.184 Y31.552 E.01675
G1 X81.366 Y19.734 E.52437
G1 X80.832 Y19.734 E.01675
G1 X92.651 Y31.552 E.52439
G1 X92.117 Y31.552 E.01675
G1 X80.299 Y19.734 E.52437
G1 X79.765 Y19.734 E.01675
G1 X91.584 Y31.552 E.52439
G1 X91.05 Y31.552 E.01675
G1 X79.232 Y19.734 E.52437
G1 X78.698 Y19.734 E.01675
G1 X90.516 Y31.552 E.52437
G1 X89.983 Y31.552 E.01672
M73 P6 R75
G1 X78.164 Y19.734 E.52439
G1 X77.631 Y19.734 E.01672
G1 X89.449 Y31.552 E.52437
G1 X88.915 Y31.552 E.01675
G1 X77.097 Y19.734 E.52437
G1 X76.564 Y19.734 E.01672
G1 X88.382 Y31.552 E.52437
G1 X87.848 Y31.552 E.01675
G1 X76.03 Y19.734 E.52437
G1 X75.496 Y19.734 E.01675
G1 X87.315 Y31.552 E.52439
G1 X86.781 Y31.552 E.01675
G1 X74.963 Y19.734 E.52437
G1 X74.429 Y19.734 E.01675
G1 X86.247 Y31.552 E.52437
G1 X85.714 Y31.552 E.01672
G1 X73.895 Y19.734 E.52439
G1 X73.362 Y19.734 E.01672
G1 X85.18 Y31.552 E.52437
G1 X84.647 Y31.552 E.01672
G1 X72.828 Y19.734 E.52439
G1 X72.295 Y19.734 E.01672
G1 X84.113 Y31.552 E.52437
G1 X83.579 Y31.552 E.01675
G1 X71.761 Y19.734 E.52437
G1 X71.227 Y19.734 E.01675
G1 X83.046 Y31.552 E.52439
G1 X82.512 Y31.552 E.01675
G1 X70.694 Y19.734 E.52437
G1 X70.16 Y19.734 E.01675
G1 X81.978 Y31.552 E.52437
G1 X81.445 Y31.552 E.01672
G1 X69.627 Y19.734 E.52437
G1 X69.093 Y19.734 E.01675
G1 X80.911 Y31.552 E.52437
G1 X80.378 Y31.552 E.01672
G1 X68.559 Y19.734 E.52439
G1 X68.026 Y19.734 E.01672
G1 X79.844 Y31.552 E.52437
G1 X79.31 Y31.552 E.01675
G1 X67.492 Y19.734 E.52437
G1 X66.958 Y19.734 E.01675
G1 X78.777 Y31.552 E.52439
G1 X78.243 Y31.552 E.01675
G1 X66.425 Y19.734 E.52437
G1 X65.891 Y19.734 E.01675
G1 X77.71 Y31.552 E.52439
G1 X77.176 Y31.552 E.01675
G1 X65.358 Y19.734 E.52437
G1 X64.824 Y19.734 E.01675
G1 X76.642 Y31.552 E.52437
G1 X76.109 Y31.552 E.01672
G1 X64.29 Y19.734 E.52439
G1 X63.757 Y19.734 E.01672
G1 X75.575 Y31.552 E.52437
G1 X75.042 Y31.552 E.01672
G1 X63.223 Y19.734 E.52439
G1 X62.69 Y19.734 E.01672
G1 X74.508 Y31.552 E.52437
G1 X73.974 Y31.552 E.01675
G1 X62.156 Y19.734 E.52437
G1 X61.622 Y19.734 E.01675
G1 X73.441 Y31.552 E.52439
G1 X72.907 Y31.552 E.01675
G1 X61.089 Y19.734 E.52437
G1 X60.555 Y19.734 E.01675
G1 X72.373 Y31.552 E.52437
G1 X71.84 Y31.552 E.01672
G1 X60.022 Y19.734 E.52437
G1 X59.488 Y19.734 E.01675
G1 X71.306 Y31.552 E.52437
G1 X70.773 Y31.552 E.01672
G1 X58.954 Y19.734 E.52439
G1 X58.421 Y19.734 E.01672
G1 X70.239 Y31.552 E.52437
G1 X69.705 Y31.552 E.01675
G1 X57.887 Y19.734 E.52437
G1 X57.353 Y19.734 E.01675
M73 P6 R74
G1 X69.172 Y31.552 E.52439
G1 X68.638 Y31.552 E.01675
G1 X56.82 Y19.734 E.52437
G1 X56.286 Y19.734 E.01675
G1 X68.105 Y31.552 E.52439
G1 X67.571 Y31.552 E.01675
G1 X55.753 Y19.734 E.52437
G1 X55.219 Y19.734 E.01675
G1 X67.037 Y31.552 E.52437
G1 X66.504 Y31.552 E.01672
G1 X54.685 Y19.734 E.52439
G1 X54.152 Y19.734 E.01672
G1 X65.97 Y31.552 E.52437
G1 X65.437 Y31.552 E.01672
G1 X53.618 Y19.734 E.52439
G1 X53.085 Y19.734 E.01672
G1 X64.903 Y31.552 E.52437
G1 X64.369 Y31.552 E.01675
G1 X52.551 Y19.734 E.52437
G1 X52.017 Y19.734 E.01675
G1 X63.836 Y31.552 E.52439
G1 X63.302 Y31.552 E.01675
G1 X51.484 Y19.734 E.52437
G1 X50.95 Y19.734 E.01675
G1 X62.768 Y31.552 E.52437
G1 X62.235 Y31.552 E.01672
G1 X50.417 Y19.734 E.52437
