; generated by PrusaSlicer 2.7.4 on 2024-10-19 at 16:45:17 UTC


;
;

;
;
; 

; external perimeters extrusion width = 0.45mm
; perimeters extrusion width = 0.45mm
; infill extrusion width = 0.45mm
; solid infill extrusion width = 0.45mm
; top infill extrusion width = 0.40mm
; first layer extrusion width = 0.42mm

M73 P0 R7
M201 X2500 Y2500 Z400 E5000 ; sets maximum accelerations, mm/sec^2
M203 X180 Y180 Z12 E80 ; sets maximum feedrates, mm / sec
M204 P2000 R1250 T2500 ; sets acceleration (P, T) and retract acceleration (R), mm/sec^2
M205 X8.00 Y8.00 Z2.00 E10.00 ; sets the jerk limits, mm/sec
M205 S0 T0 ; sets the minimum extruding and travel feed rate, mm/sec

; printing object binary_red.stl id:0 copy 0
; stop printing object binary_red.stl id:0 copy 0

;TYPE:Custom
M862.3 P "MINI" ; printer model check
G90 ; use absolute coordinates
M83 ; extruder relative mode
M104 S170 ; set extruder temp for bed leveling
M140 S60 ; set bed temp
M109 R170 ; wait for bed leveling temp
M190 S60 ; wait for bed temp
M204 T1250 ; set travel acceleration
G28 ; home all without mesh bed level
G29 ; mesh bed leveling 
M204 T2500 ; restore travel acceleration
M104 S215 ; set extruder temp
G92 E0
G1 Y-2 X179 F2400
G1 Z3 F720
M73 P1 R6
M109 S215 ; wait for extruder temp

; intro line
G1 X170 F1000
G1 Z0.2 F720
G1 X110 E8 F900
G1 X40 E10 F700
M73 P2 R6
G92 E0

M221 S95 ; set flow
G21 ; set units to millimeters
G90 ; use absolute coordinates
M83 ; use relative distances for extrusion
M900 K0.2 ; Filament gcode LA 1.5
; ; Filament gcode LA 1.0
M107
;LAYER_CHANGE
;Z:0.2
;HEIGHT:0.2
G1 E-3.2 F4200
M73 P3 R6
G1 Z.4 F720
G1 X78.562 Y57.234 F9000
G1 Z.2 F720
G1 E3.2 F2400
M204 P600
;TYPE:Skirt/Brim
;WIDTH:0.42
G1 F1200
G1 X78.741 Y57.021 E.00872
G1 X80.503 Y56.173 E.06131
G1 X109.825 Y55.449 E.91965
G1 X111.104 Y55.736 E.0411
M73 P4 R6
G1 X117.794 Y59.377 E.23881
G1 X118.929 Y60.186 E.0437
G1 X119.738 Y60.972 E.03537
G1 X127.643 Y71.324 E.40839
G1 X128.223 Y72.27 E.03479
G1 X128.722 Y73.603 E.04463
G1 X128.842 Y74.349 E.02369
G1 X128.842 Y76.158 E.05672
G1 X128.72 Y76.909 E.02386
G1 X128.173 Y78.351 E.04836
G1 X127.34 Y79.636 E.04802
G1 X90.296 Y129.411 E1.94543
G1 X89.352 Y130.302 E.0407
M73 P5 R6
G1 X88.566 Y130.784 E.02891
G1 X86.634 Y131.58 E.06552
G1 X85.222 Y131.837 E.045
G1 X51.045 Y134.697 E1.07534
G1 X49.61 Y134.705 E.04499
G1 X48.858 Y134.583 E.02389
G1 X47.464 Y133.981 E.04761
G1 X46.844 Y133.525 E.02413
G1 X46.222 Y132.888 E.02792
G1 X45.649 Y132.094 E.0307
G1 X45.095 Y130.82 E.04356
G1 X44.973 Y130.069 E.02386
G1 X44.973 Y128.975 E.0343
G1 X45.095 Y128.223 E.02389
G1 X45.343 Y127.532 E.02302
G1 X78.233 Y57.748 E2.41887
G1 X78.53 Y57.285 E.01725
M73 P6 R6
M204 P1000
G1 E-2.24 F4200
;WIPE_START
G1 F7200
G1 X78.562 Y57.234 E-.03337
G1 X78.741 Y57.021 E-.15418
G1 X79.997 Y56.416 E-.77245
;WIPE_END
G1 Z.4 F720
; printing object binary_red.stl id:0 copy 0
G1 X52.576 Y124.016 F9000
G1 Z.2 F720
M73 P7 R6
G1 E3.2 F2400
M204 P600
;TYPE:External perimeter
;WIDTH:0.647984
G1 F1200
G1 X52.878 Y123.996 E.01523
G1 X53.011 Y123.894 E.00843
;WIDTH:0.647704
G1 X53.445 Y123.875 E.02185
;WIDTH:0.644338
G1 X53.631 Y123.921 E.00958
;WIDTH:0.648008
G1 X53.727 Y123.996 E.00613
G1 X54.029 Y124.016 E.01523
;WIDTH:0.6079
G1 X54.181 Y124.07 E.00758
;WIDTH:0.571776
G1 X54.332 Y124.123 E.00704
;WIDTH:0.535652
G1 X54.516 Y124.232 E.00876
;WIDTH:0.499801
G1 X54.699 Y124.34 E.00807
;WIDTH:0.46395
G1 X54.882 Y124.449 E.00746
;WIDTH:0.462732
G1 X55.102 Y124.695 E.01152
;WIDTH:0.497366
G1 X55.321 Y124.94 E.01242
G1 X55.591 Y125.371 E.01922
;WIDTH:0.49877
G1 X55.608 Y125.457 E.00332
;WIDTH:0.532664
G1 X55.625 Y125.542 E.00353
G1 X55.708 Y125.659 E.00584
;WIDTH:0.562156
G1 X55.756 Y125.868 E.00926
;WIDTH:0.6077
G1 X55.805 Y126.078 E.01013
G1 X55.805 Y126.816 E.03466
M204 P1000
G1 X55.805 Y126.816 F9000
G1 X55.662 Y127.222
M204 P600
;WIDTH:0.608078
G1 F1200
G1 X55.662 Y127.388 E.0078
G1 X55.538 Y127.681 E.01495
;WIDTH:0.57036
G1 X55.414 Y127.973 E.01391
;WIDTH:0.53268
G1 X55.339 Y128.067 E.0049
;WIDTH:0.53314
G1 X55.271 Y128.259 E.0083
;WIDTH:0.536528
G1 X54.99 Y128.684 E.02091
G1 X54.764 Y128.926 E.01359
;WIDTH:0.526282
G1 X54.692 Y129.133 E.00881
;WIDTH:0.535696
G1 X52.92 Y130.905 E.10268
G1 X52.698 Y130.995 E.00982
;WIDTH:0.569907
G1 X52.505 Y131.152 E.0109
;WIDTH:0.608006
G1 X52.312 Y131.309 E.01169
G1 X52.08 Y131.433 E.01236
;WIDTH:0.570346
G1 X51.848 Y131.558 E.01156
;WIDTH:0.532686
G1 X51.754 Y131.633 E.0049
;WIDTH:0.55745
G1 X51.286 Y131.82 E.02156
;WIDTH:0.582575
G1 X51.22 Y131.85 E.00325
;WIDTH:0.6077
G1 X51.154 Y131.881 E.00342
;WIDTH:0.608072
G1 X51.003 Y131.881 E.0071
G1 X50.726 Y132.024 E.01465
;WIDTH:0.6077
G1 X49.723 Y132.024 E.0471
G1 X49.438 Y131.881 E.01497
;WIDTH:0.608074
G1 X49.287 Y131.881 E.0071
G1 X48.81 Y131.634 E.02524
;WIDTH:0.579766
G1 X48.675 Y131.558 E.00692
;WIDTH:0.553725
G1 X48.541 Y131.482 E.00654
;WIDTH:0.527684
G1 X48.186 Y131.119 E.02047
;WIDTH:0.533104
G1 X48.121 Y130.927 E.00826
;WIDTH:0.57059
G1 X48.03 Y130.791 E.00718
;WIDTH:0.608076
G1 X47.797 Y130.376 E.02237
;WIDTH:0.647902
G1 X47.777 Y130.089 E.01447
G1 X47.674 Y129.955 E.0085
;WIDTH:0.647786
G1 X47.654 Y129.239 E.03603
;WIDTH:0.64426
G1 X47.702 Y129.051 E.0097
;WIDTH:0.647902
G1 X47.777 Y128.954 E.00617
G1 X47.797 Y128.652 E.01523
;WIDTH:0.608172
G1 X47.921 Y128.36 E.01491
;WIDTH:0.570392
G1 X48.046 Y128.067 E.01397
;WIDTH:0.532656
G1 X48.121 Y127.973 E.0049
G1 X48.188 Y127.783 E.0082
;WIDTH:0.531532
G1 X48.407 Y127.542 E.01323
G1 X48.478 Y127.347 E.00843
;WIDTH:0.56651
G1 X48.638 Y127.152 E.01098
;WIDTH:0.607674
G1 X48.854 Y126.86 E.01706
;WIDTH:0.566766
G1 X48.91 Y126.764 E.00484
;WIDTH:0.530986
G1 X50.551 Y125.127 E.09407
G1 X50.76 Y125.052 E.00901
;WIDTH:0.527874
G1 X51.127 Y124.696 E.02062
;WIDTH:0.531458
G1 X51.323 Y124.626 E.00845
G1 X51.564 Y124.407 E.01323
;WIDTH:0.532558
G1 X51.754 Y124.34 E.0082
G1 X51.848 Y124.264 E.00492
;WIDTH:0.570165
G1 X52.009 Y124.212 E.00742
;WIDTH:0.607698
G1 X52.17 Y124.159 E.00796
M204 P1000
G1 E-2.24 F4200
;WIPE_START
G1 F7200
G1 X52.009 Y124.212 E-.09393
G1 X51.848 Y124.264 E-.09376
G1 X51.754 Y124.34 E-.06699
G1 X51.564 Y124.407 E-.11165
G1 X51.323 Y124.626 E-.18046
G1 X51.127 Y124.696 E-.11534
G1 X50.76 Y125.052 E-.28334
G1 X50.735 Y125.061 E-.01453
;WIPE_END
G1 Z.4 F720
G1 X81.033 Y120.435 F9000
G1 Z.2 F720
G1 E3.2 F2400
M204 P600
;TYPE:Perimeter
;WIDTH:0.419999
G1 F1200
G1 X81.198 Y120.548 E.00627
G1 X81.663 Y120.612 E.01472
G1 X81.913 Y120.739 E.00879
G1 X82.122 Y120.78 E.00668
G1 X84.213 Y120.773 E.06556
G1 X84.492 Y120.638 E.00972
G1 X85.146 Y120.638 E.02051
G1 X85.387 Y120.756 E.00841
G1 X85.718 Y120.781 E.01041
G1 X85.859 Y120.858 E.00504
G1 X86.126 Y120.924 E.00862
G1 X86.963 Y121.309 E.02889
G1 X87.41 Y121.74 E.01947
G1 X87.658 Y121.877 E.00888
G1 X87.759 Y122.089 E.00736
G1 X88.112 Y122.459 E.01603
G1 X88.149 Y122.593 E.00436
G1 X88.389 Y122.875 E.01161
G1 X88.468 Y123.064 E.00642
G1 X88.503 Y123.231 E.00535
G1 X88.611 Y123.493 E.00889
G1 X88.65 Y123.683 E.00608
G1 X88.784 Y123.96 E.00965
G1 X88.785 Y124.476 E.01618
G1 X88.875 Y124.731 E.00848
G1 X88.787 Y124.966 E.00787
G1 X88.784 Y125.472 E.01587
G1 X88.672 Y125.696 E.00785
G1 X88.641 Y125.88 E.00585
G1 X88.559 Y126.054 E.00603
G1 X88.479 Y126.384 E.01065
G1 X88.389 Y126.588 E.00699
G1 X88.194 Y126.804 E.00912
G1 X88.108 Y127.01 E.007
G1 X87.823 Y127.31 E.01297
G1 X87.687 Y127.558 E.00887
G1 X87.27 Y127.823 E.01549
G1 X87.004 Y127.889 E.00859
G1 X86.073 Y128.365 E.03278
G1 X85.877 Y128.405 E.00627
G1 X85.606 Y128.538 E.00947
G1 X85.098 Y128.539 E.01593
G1 X84.835 Y128.629 E.00872
G1 X84.6 Y128.541 E.00787
G1 X84.093 Y128.538 E.0159
G1 X83.869 Y128.425 E.00787
G1 X83.686 Y128.395 E.00581
G1 X83.51 Y128.312 E.0061
G1 X83.181 Y128.233 E.01061
G1 X82.978 Y128.143 E.00696
G1 X82.755 Y127.943 E.00939
G1 X82.545 Y127.854 E.00715
G1 X82.358 Y127.684 E.00792
G1 X82.14 Y127.584 E.00752
G1 X81.499 Y126.957 E.02811
G1 X80.934 Y126.692 E.01957
G1 X80.489 Y126.444 E.01597
G1 X79.99 Y126.213 E.01724
G1 X79.235 Y126.053 E.0242
G1 X79.592 Y125.804 E.01365
G1 X80.183 Y125.248 E.02544
G1 X80.391 Y125.009 E.00993
G1 X80.728 Y124.263 E.02567
G1 X80.992 Y123.78 E.01726
G1 X81.027 Y123.418 E.0114
G1 X81.156 Y123.137 E.00969
G1 X81.17 Y122.56 E.0181
G1 X81.283 Y122.336 E.00787
G1 X81.313 Y122.146 E.00603
G1 X81.284 Y121.017 E.03541
G1 X81.161 Y120.788 E.00815
G1 X81.053 Y120.491 E.00991
M204 P1000
G1 X80.436 Y119.761 F9000
M204 P600
;TYPE:External perimeter
G1 F1200
G1 X80.66 Y119.775 E.00704
G1 X80.785 Y119.875 E.00502
G1 X81.033 Y119.959 E.00821
G1 X81.361 Y120.207 E.01289
G1 X81.866 Y120.248 E.01589
G1 X82.003 Y120.36 E.00555
G1 X82.122 Y120.403 E.00397
G1 X84.132 Y120.403 E.06302
G1 X84.359 Y120.261 E.0084
G1 X85.309 Y120.261 E.02979
G1 X85.482 Y120.39 E.00677
G1 X85.881 Y120.404 E.01252
G1 X86.037 Y120.525 E.00619
G1 X86.31 Y120.547 E.00859
G1 X86.437 Y120.649 E.00511
G1 X86.555 Y120.69 E.00392
G1 X87.009 Y120.935 E.01618
G1 X87.161 Y120.976 E.00494
G1 X87.671 Y121.468 E.02222
G1 X87.876 Y121.544 E.00686
G1 X87.94 Y121.612 E.00293
G1 X88.067 Y121.871 E.00904
G1 X88.417 Y122.232 E.01577
G1 X88.473 Y122.4 E.00555
G1 X88.71 Y122.666 E.01117
G1 X88.751 Y122.807 E.0046
G1 X88.875 Y122.969 E.0064
G1 X88.877 Y123.179 E.00658
G1 X89.018 Y123.398 E.00817
G1 X89.021 Y123.616 E.00684
G1 X89.161 Y123.827 E.00794
G1 X89.161 Y124.44 E.01922
G1 X89.304 Y124.731 E.01017
M73 P8 R6
G1 X89.202 Y124.904 E.0063
G1 X89.161 Y125.021 E.00389
G1 X89.161 Y125.635 E.01925
G1 X89.028 Y125.818 E.00709
G1 X89.018 Y126.064 E.00772
G1 X88.895 Y126.224 E.00633
G1 X88.875 Y126.493 E.00846
G1 X88.773 Y126.62 E.00511
G1 X88.732 Y126.737 E.00389
G1 X88.5 Y127.026 E.01162
G1 X88.446 Y127.202 E.00577
G1 X88.096 Y127.57 E.01592
G1 X88.021 Y127.773 E.00679
G1 X87.899 Y127.888 E.00526
G1 X87.797 Y127.918 E.00333
G1 X87.446 Y128.2 E.01412
G1 X87.232 Y128.204 E.00671
G1 X87.057 Y128.317 E.00653
G1 X86.937 Y128.349 E.00389
G1 X86.771 Y128.46 E.00626
G1 X86.651 Y128.492 E.00389
G1 X86.485 Y128.603 E.00626
G1 X86.365 Y128.635 E.00389
G1 X86.167 Y128.772 E.00755
G1 X85.958 Y128.774 E.00655
G1 X85.738 Y128.915 E.00819
G1 X85.127 Y128.915 E.01916
G1 X84.834 Y129.058 E.01022
G1 X84.662 Y128.956 E.00627
G1 X84.544 Y128.915 E.00392
G1 X83.931 Y128.915 E.01922
G1 X83.747 Y128.782 E.00712
G1 X83.501 Y128.772 E.00772
G1 X83.341 Y128.649 E.00633
G1 X83.073 Y128.629 E.00843
G1 X82.946 Y128.527 E.00511
G1 X82.828 Y128.486 E.00392
G1 X82.539 Y128.254 E.01162
G1 X82.365 Y128.2 E.00571
G1 X82.104 Y127.963 E.01105
G1 X81.91 Y127.886 E.00654
G1 X81.254 Y127.244 E.02878
G1 X81.071 Y127.199 E.00591
G1 X80.944 Y127.097 E.00511
G1 X80.826 Y127.056 E.00392
G1 X80.371 Y126.811 E.0162
G1 X80.177 Y126.744 E.00644
G1 X79.687 Y126.496 E.01722
G1 X79.446 Y126.507 E.00756
G1 X79.322 Y126.434 E.00451
G1 X78.877 Y126.427 E.01395
G1 X78.569 Y126.398 E.0097
G1 X78.421 Y126.282 E.0059
G1 X78.147 Y126.293 E.0086
G1 X78.395 Y126.097 E.00991
G1 X78.586 Y126.035 E.0063
G1 X79.288 Y125.563 E.02652
G1 X80.037 Y124.865 E.0321
G1 X80.078 Y124.686 E.00576
G1 X80.18 Y124.558 E.00513
G1 X80.364 Y124.154 E.01392
G1 X80.466 Y123.986 E.00616
G1 X80.507 Y123.868 E.00392
G1 X80.623 Y123.681 E.0069
G1 X80.65 Y123.255 E.01338
G1 X80.752 Y123.129 E.00508
G1 X80.793 Y123.013 E.00386
G1 X80.793 Y122.397 E.01931
G1 X80.895 Y122.27 E.00511
G1 X80.936 Y122.15 E.00398
G1 X80.92 Y121.115 E.03246
G1 X80.745 Y120.888 E.00899
G1 X80.594 Y120.306 E.01885
G1 X80.45 Y120.122 E.00733
G1 X80.439 Y119.821 E.00944
M204 P1000
G1 E-2.24 F4200
;WIPE_START
G1 F7200
G1 X80.436 Y119.761 E-.03329
G1 X80.66 Y119.775 E-.12438
G1 X80.785 Y119.875 E-.08871
G1 X81.033 Y119.959 E-.1451
G1 X81.361 Y120.207 E-.22788
G1 X81.866 Y120.248 E-.28077
G1 X81.95 Y120.316 E-.05987
;WIPE_END
G1 Z.4 F720
G1 X77.975 Y126.304 F9000
G1 Z.2 F720
G1 E3.2 F2400
M204 P600
;WIDTH:0.38292
G1 F1200
G1 X78.064 Y126.303 E.00252
M204 P1000
G1 E-2.24 F4200
;WIPE_START
G1 F7200
G1 X77.975 Y126.304 E-.04932
;WIPE_END
G1 E-.91068 F4200
G1 Z.4 F720
G1 X88.5 Y123.756 F9000
G1 Z.2 F720
G1 E3.2 F2400
M204 P600
;TYPE:Solid infill
;WIDTH:0.423662
G1 F1200
G1 X85.989 Y121.244 E.11245
G1 X85.843 Y121.22 E.00468
G1 X85.65 Y121.12 E.00688
G1 X85.468 Y121.117 E.00576
G1 X85.287 Y121.081 E.00584
G1 X88.446 Y124.24 E.14144
G1 X88.448 Y124.53 E.00918
G1 X88.497 Y124.731 E.00655
G1 X88.473 Y124.805 E.00246
G1 X84.645 Y120.978 E.17137
G1 X84.585 Y120.978 E.0019
G1 X84.386 Y121.081 E.00709
G1 X84.236 Y121.107 E.00482
G1 X88.446 Y125.317 E.18849
G1 X88.445 Y125.41 E.00294
G1 X88.349 Y125.585 E.00632
G1 X88.323 Y125.733 E.00476
G1 X83.71 Y121.12 E.20653
G1 X83.171 Y121.119 E.01706
G1 X88.181 Y126.128 E.22429
G1 X88.165 Y126.244 E.00371
G1 X88.1 Y126.351 E.00396
G1 X88.084 Y126.421 E.00227
G1 X88.017 Y126.503 E.00335
G1 X82.633 Y121.119 E.24105
G1 X82.091 Y121.116 E.01716
M73 P9 R6
G1 X87.808 Y126.833 E.25596
G1 X87.546 Y127.11 E.01207
G1 X81.643 Y121.206 E.26431
G1 X81.649 Y121.75 E.01722
G1 X87.283 Y127.385 E.25227
G1 X87.159 Y127.494 E.00523
G1 X86.916 Y127.556 E.00794
G1 X81.634 Y122.274 E.23649
G1 X81.609 Y122.438 E.00525
G1 X81.51 Y122.621 E.00659
G1 X81.51 Y122.688 E.00212
G1 X86.557 Y127.736 E.22599
G1 X86.204 Y127.921 E.01262
G1 X81.489 Y123.206 E.2111
G1 X81.438 Y123.365 E.00529
G1 X81.366 Y123.491 E.00459
G1 X81.362 Y123.617 E.00399
G1 X85.824 Y128.079 E.19977
G1 X85.687 Y128.103 E.0044
G1 X85.513 Y128.199 E.00629
G1 X85.406 Y128.2 E.00339
G1 X81.237 Y124.031 E.18666
G1 X81.129 Y124.274 E.00842
G1 X81.056 Y124.388 E.00429
G1 X84.897 Y128.229 E.17197
G1 X84.835 Y128.251 E.00208
G1 X84.634 Y128.202 E.00655
G1 X84.329 Y128.2 E.00966
G1 X80.878 Y124.748 E.15453
G1 X80.704 Y125.114 E.01283
G1 X83.555 Y127.964 E.12762
G1 X83.324 Y127.921 E.00744
G1 X83.214 Y127.854 E.00408
G1 X83.146 Y127.839 E.0022
G1 X82.935 Y127.653 E.0089
G1 X82.782 Y127.563 E.00562
G1 X82.71 Y127.547 E.00234
G1 X82.456 Y127.331 E.01056
G1 X82.353 Y127.301 E.0034
M73 P10 R6
G1 X80.484 Y125.431 E.0837
G1 X80.206 Y125.692 E.01207
G1 X81.063 Y126.549 E.03837
M204 P1000
G1 E-2.24 F4200
;WIPE_START
G1 F7200
G1 X80.206 Y125.692 E-.67164
G1 X80.484 Y125.431 E-.21131
G1 X80.582 Y125.529 E-.07705
;WIPE_END
G1 Z.4 F720
G1 X71.303 Y95.962 F9000
G1 Z.2 F720
G1 E3.2 F2400
M204 P600
;TYPE:Perimeter
;WIDTH:0.419999
G1 F1200
G1 X71.688 Y95.146 E.02829
G1 X72.723 Y94.128 E.04552
G1 X73.729 Y93.641 E.03504
G1 X73.925 Y93.601 E.00627
G1 X74.172 Y93.487 E.00853
G1 X74.503 Y93.457 E.01042
G1 X74.768 Y93.325 E.00928
G1 X75.279 Y93.325 E.01602
G1 X75.512 Y93.441 E.00816
G1 X75.851 Y93.468 E.01066
G1 X75.992 Y93.545 E.00504
G1 X76.259 Y93.611 E.00862
G1 X76.427 Y93.691 E.00583
G1 X76.688 Y93.754 E.00842
G1 X76.911 Y93.926 E.00883
G1 X77.383 Y94.134 E.01617
G1 X78.389 Y95.145 E.04472
G1 X78.744 Y95.894 E.02599
G1 X78.779 Y96.058 E.00526
G1 X78.887 Y96.323 E.00897
G1 X78.925 Y96.505 E.00583
G1 X79.06 Y96.82 E.01075
G1 X79.06 Y97.873 E.03302
G1 X78.943 Y98.111 E.00832
G1 X78.917 Y98.281 E.00539
G1 X78.838 Y98.448 E.00579
G1 X78.755 Y98.785 E.01088
G1 X78.665 Y98.989 E.00699
G1 X78.498 Y99.173 E.00779
G1 X78.234 Y99.706 E.01865
G1 X78.089 Y99.866 E.00677
G1 X77.954 Y100.131 E.00932
G1 X77.385 Y100.696 E.02514
G1 X77.04 Y100.837 E.01169
G1 X76.741 Y101.061 E.01171
G1 X76.575 Y101.093 E.0053
G1 X76.348 Y101.195 E.0078
G1 X76.166 Y101.232 E.00582
G1 X75.341 Y101.615 E.02852
G1 X74.963 Y101.972 E.0163
G1 X74.814 Y102.01 E.00482
G1 X74.685 Y102.106 E.00504
G1 X72.884 Y103.923 E.08021
G1 X72.793 Y104.147 E.00758
G1 X72.607 Y104.354 E.00873
G1 X72.126 Y105.295 E.03314
G1 X72.053 Y105.574 E.00904
G1 X71.978 Y105.734 E.00554
G1 X71.91 Y106.003 E.0087
G1 X71.516 Y106.853 E.02938
G1 X71.328 Y107.06 E.00877
G1 X71.236 Y107.274 E.0073
G1 X70.685 Y107.829 E.02452
G1 X70.505 Y107.905 E.00613
G1 X70.248 Y108.121 E.01053
G1 X69.485 Y108.488 E.02655
G1 X69.289 Y108.528 E.00627
G1 X69.041 Y108.642 E.00856
G1 X68.739 Y108.668 E.0095
G1 X68.477 Y108.781 E.00895
G1 X68.077 Y108.804 E.01256
G1 X67.933 Y108.726 E.00513
G1 X67.594 Y108.642 E.01095
G1 X67.349 Y108.532 E.00842
G1 X66.909 Y108.285 E.01582
