; generated by PrusaSlicer 2.7.4 on 2024-10-19 at 16:44:37 UTC


;
;

;
;
; 

; external perimeters extrusion width = 0.45mm
; perimeters extrusion width = 0.45mm
; infill extrusion width = 0.45mm
; solid infill extrusion width = 0.45mm
; top infill extrusion width = 0.40mm
; first layer extrusion width = 0.42mm

M73 P0 R6
M201 X2500 Y2500 Z400 E5000 ; sets maximum accelerations, mm/sec^2
M203 X180 Y180 Z12 E80 ; sets maximum feedrates, mm / sec
M204 P2000 R1250 T2500 ; sets acceleration (P, T) and retract acceleration (R), mm/sec^2
M205 X8.00 Y8.00 Z2.00 E10.00 ; sets the jerk limits, mm/sec
M205 S0 T0 ; sets the minimum extruding and travel feed rate, mm/sec

; printing object binary_green.stl id:0 copy 0
; stop printing object binary_green.stl id:0 copy 0

;TYPE:Custom
M862.3 P "MINI" ; printer model check
G90 ; use absolute coordinates
M83 ; extruder relative mode
M104 S170 ; set extruder temp for bed leveling
M140 S60 ; set bed temp
M109 R170 ; wait for bed leveling temp
M190 S60 ; wait for bed temp
M204 T1250 ; set travel acceleration
G28 ; home all without mesh bed level
G29 ; mesh bed leveling 
M204 T2500 ; restore travel acceleration
M104 S215 ; set extruder temp
G92 E0
G1 Y-2 X179 F2400
G1 Z3 F720
M73 P1 R6
M109 S215 ; wait for extruder temp

; intro line
G1 X170 F1000
G1 Z0.2 F720
G1 X110 E8 F900
G1 X40 E10 F700
M73 P2 R6
G92 E0

M221 S95 ; set flow
G21 ; set units to millimeters
G90 ; use absolute coordinates
M83 ; use relative distances for extrusion
M900 K0.2 ; Filament gcode LA 1.5
; ; Filament gcode LA 1.0
M107
;LAYER_CHANGE
;Z:0.2
;HEIGHT:0.2
G1 E-3.2 F4200
M73 P4 R6
G1 Z.4 F720
G1 X69.891 Y53.422 F9000
G1 Z.2 F720
G1 E3.2 F2400
M204 P600
;TYPE:Skirt/Brim
;WIDTH:0.42
G1 F1200
M73 P4 R5
G1 X70.878 Y52.518 E.04197
G1 X72.306 Y51.649 E.05241
G1 X73.933 Y51.138 E.05347
G1 X75.501 Y51.031 E.04928
G1 X76.909 Y51.244 E.04465
G1 X78.431 Y51.833 E.05117
G1 X128.345 Y78.574 E1.77546
G1 X129.147 Y79.232 E.03253
M73 P5 R5
G1 X130.484 Y80.881 E.06656
G1 X131.437 Y82.749 E.06575
G1 X131.67 Y83.539 E.02582
G1 X131.84 Y84.635 E.03478
G1 X134.7 Y128.964 E1.39279
G1 X134.705 Y130.355 E.04361
G1 X134.583 Y131.106 E.02386
G1 X134.311 Y131.846 E.02472
G1 X133.98 Y132.501 E.02301
G1 X133.525 Y133.12 E.02409
G1 X132.53 Y134.03 E.04228
G1 X131.249 Y134.726 E.04571
G1 X130.069 Y134.991 E.03792
G1 X128.975 Y134.991 E.0343
M73 P6 R5
G1 X128.223 Y134.869 E.02389
G1 X127.594 Y134.649 E.02089
G1 X52.662 Y101.902 E2.564
G1 X51.692 Y101.428 E.03385
M73 P7 R5
G1 X51.06 Y100.976 E.02436
G1 X49.48 Y99.084 E.07729
G1 X48.527 Y97.216 E.06575
G1 X48.295 Y96.425 E.02585
G1 X48.119 Y95.177 E.03952
G1 X48.152 Y94.407 E.02416
G1 X48.295 Y93.549 E.02727
G1 X49.307 Y88.338 E.16644
G1 X49.549 Y87.662 E.02251
G1 X59.166 Y69.858 E.63446
G1 X69.237 Y54.315 E.5807
G1 X69.856 Y53.471 E.03282
M204 P1000
G1 E-2.24 F4200
;WIPE_START
G1 F7200
G1 X69.891 Y53.422 E-.03337
G1 X70.878 Y52.518 E-.74171
G1 X71.163 Y52.344 E-.18492
;WIPE_END
G1 Z.4 F720
; printing object binary_green.stl id:0 copy 0
G1 X60.801 Y99.126 F9000
G1 Z.2 F720
M73 P8 R5
G1 E3.2 F2400
M204 P600
;TYPE:Perimeter
;WIDTH:0.632794
G1 F1200
G1 X60.699 Y99.113 E.00504
;WIDTH:0.583317
G1 X60.596 Y99.1 E.00466
;WIDTH:0.53384
G1 X60.494 Y99.087 E.0042
;WIDTH:0.484363
G1 X60.392 Y99.074 E.00377
;WIDTH:0.43812
G1 X59.99 Y98.939 E.01394
;WIDTH:0.419999
G1 X59.625 Y98.804 E.0122
G1 X59.068 Y98.794 E.01747
G1 X58.775 Y98.663 E.01006
G1 X57.497 Y98.652 E.04007
G1 X57.118 Y98.794 E.01269
G1 X56.596 Y98.798 E.01637
G1 X56.328 Y98.907 E.00907
G1 X56.02 Y98.981 E.00993
G1 X55.577 Y99.223 E.01583
G1 X54.778 Y99.223 E.02505
G1 X54.571 Y99.117 E.00729
G1 X54.371 Y99.08 E.00638
G1 X54.213 Y99.006 E.00547
G1 X53.942 Y98.937 E.00877
G1 X53.214 Y98.579 E.02544
G1 X53.094 Y98.307 E.00932
G1 X52.969 Y98.128 E.00685
G1 X52.097 Y97.259 E.0386
G1 X51.599 Y96.226 E.03596
G1 X51.559 Y96.03 E.00627
G1 X51.426 Y95.758 E.00949
G1 X51.426 Y95.249 E.01596
G1 X51.335 Y94.987 E.0087
G1 X51.424 Y94.753 E.00785
G1 X51.426 Y94.246 E.0159
G1 X51.539 Y94.022 E.00787
G1 X51.569 Y93.839 E.00581
G1 X51.649 Y93.67 E.00586
G1 X51.712 Y93.409 E.00842
G1 X51.908 Y93.152 E.01013
G1 X52.122 Y92.699 E.01571
G1 X52.141 Y92.387 E.0098
G1 X52.267 Y92.118 E.00931
G1 X52.284 Y91.672 E.01399
G1 X52.384 Y91.481 E.00676
G1 X52.426 Y91.215 E.00844
G1 X52.418 Y90.662 E.01734
G1 X52.368 Y90.097 E.01778
G1 X52.826 Y90.309 E.01582
G1 X52.95 Y90.322 E.00391
G1 X53.681 Y90.594 E.02446
G1 X54.258 Y90.608 E.0181
G1 X54.465 Y90.714 E.00729
G1 X54.666 Y90.751 E.00641
G1 X55.858 Y90.748 E.03737
G1 X56.208 Y90.608 E.01182
G1 X56.781 Y90.595 E.01797
G1 X56.999 Y90.495 E.00752
G1 X57.185 Y90.456 E.00596
G1 X57.438 Y90.342 E.0087
G1 X57.615 Y90.3 E.0057
G1 X58.221 Y89.942 E.02207
G1 X58.195 Y90.953 E.03171
G1 X58.325 Y91.242 E.00994
G1 X58.338 Y91.958 E.02245
G1 X58.449 Y92.19 E.00806
G1 X58.473 Y92.484 E.00925
G1 X58.581 Y92.748 E.00894
G1 X58.618 Y92.928 E.00576
G1 X59.01 Y93.749 E.02853
G1 X59.05 Y93.945 E.00627
G1 X59.164 Y94.192 E.00853
G1 X59.186 Y94.465 E.00859
G1 X59.326 Y94.818 E.01191
G1 X59.337 Y95.81 E.03111
G1 X59.45 Y96.051 E.00835
G1 X59.473 Y96.475 E.01331
G1 X59.582 Y96.752 E.00933
G1 X59.618 Y96.927 E.0056
G1 X59.725 Y97.181 E.00864
G1 X59.792 Y97.471 E.00933
G1 X59.912 Y97.665 E.00715
G1 X60.113 Y98.127 E.0158
G1 X60.279 Y98.331 E.00825
G1 X60.357 Y98.464 E.00483
;WIDTH:0.43812
G1 X60.501 Y98.709 E.00934
;WIDTH:0.486789
G1 X60.576 Y98.814 E.00476
;WIDTH:0.535457
G1 X60.651 Y98.918 E.00525
;WIDTH:0.584126
G1 X60.726 Y99.022 E.00577
;WIDTH:0.632794
G1 X60.766 Y99.078 E.00338
M204 P1000
G1 E-2.24 F4200
;WIPE_START
G1 F7200
G1 X60.801 Y99.126 E-.03292
G1 X60.699 Y99.113 E-.05698
G1 X60.596 Y99.1 E-.05753
G1 X60.494 Y99.087 E-.05698
G1 X60.392 Y99.074 E-.05698
G1 X59.99 Y98.939 E-.235
G1 X59.625 Y98.804 E-.21566
G1 X59.178 Y98.796 E-.24795
;WIPE_END
G1 Z.4 F720
G1 X62.6 Y99.778 F9000
G1 Z.2 F720
G1 E3.2 F2400
M204 P600
;TYPE:External perimeter
;WIDTH:0.46481
G1 F1200
G1 X62.863 Y99.845 E.00952
;WIDTH:0.423865
G1 X63.125 Y99.912 E.00857
;WIDTH:0.38292
G1 X63.337 Y99.921 E.006
M204 P1000
G1 X63.337 Y99.921 F9000
G1 X62.6 Y99.778
M204 P600
;WIDTH:0.46481
G1 F1200
G1 X61.955 Y99.8 E.02264
;WIDTH:0.419999
G1 X61.364 Y99.696 E.01882
G1 X60.631 Y99.612 E.02313
G1 X60.381 Y99.459 E.00919
G1 X60.193 Y99.458 E.00589
G1 X60.05 Y99.344 E.00573
G1 X59.764 Y99.314 E.00902
G1 X59.636 Y99.212 E.00513
G1 X59.519 Y99.171 E.00389
G1 X58.905 Y99.171 E.01925
G1 X58.746 Y99.049 E.00628
G1 X58.248 Y99.028 E.01563
G1 X57.491 Y99.031 E.02374
G1 X57.281 Y99.171 E.00791
G1 X56.652 Y99.172 E.01972
G1 X56.423 Y99.314 E.00845
G1 X56.207 Y99.317 E.00677
G1 X56.024 Y99.433 E.00679
G1 X55.907 Y99.463 E.00379
G1 X55.707 Y99.6 E.0076
G1 X54.616 Y99.6 E.03421
G1 X54.438 Y99.469 E.00693
G1 X54.186 Y99.457 E.00791
G1 X54.032 Y99.337 E.00612
G1 X53.758 Y99.314 E.00862
G1 X53.56 Y99.177 E.00755
G1 X52.908 Y98.853 E.02283
G1 X52.81 Y98.664 E.00668
G1 X52.708 Y98.4 E.00887
G1 X52.222 Y97.932 E.02115
G1 X51.764 Y97.423 E.02147
G1 X51.647 Y97.21 E.00762
G1 X51.615 Y97.09 E.00389
G1 X51.504 Y96.924 E.00626
G1 X51.472 Y96.804 E.00389
G1 X51.361 Y96.638 E.00626
G1 X51.329 Y96.517 E.00392
G1 X51.192 Y96.32 E.00752
G1 X51.191 Y96.111 E.00655
G1 X51.049 Y95.891 E.00821
G1 X51.049 Y95.278 E.01922
G1 X50.906 Y94.987 E.01017
G1 X51.008 Y94.814 E.0063
G1 X51.049 Y94.697 E.00389
G1 X51.049 Y94.083 E.01925
G1 X51.182 Y93.9 E.00709
G1 X51.192 Y93.654 E.00772
G1 X51.314 Y93.496 E.00626
G1 X51.335 Y93.233 E.00827
G1 X51.572 Y92.972 E.01105
G1 X51.621 Y92.845 E.00427
G1 X51.736 Y92.651 E.00707
G1 X51.764 Y92.224 E.01342
G1 X51.902 Y92.026 E.00757
G1 X51.907 Y91.509 E.01621
G1 X52.009 Y91.382 E.00511
G1 X52.049 Y91.22 E.00523
G1 X52.013 Y90.325 E.02808
G1 X51.869 Y89.24 E.03432
G1 X52.08 Y89.458 E.00951
G1 X52.197 Y89.514 E.00407
G1 X52.616 Y89.798 E.01587
G1 X52.908 Y89.941 E.01019
G1 X53.134 Y89.945 E.00709
G1 X53.28 Y90.061 E.00585
G1 X53.563 Y90.088 E.00891
G1 X53.69 Y90.19 E.00511
G1 X53.808 Y90.231 E.00392
G1 X54.421 Y90.231 E.01922
G1 X54.548 Y90.333 E.00511
G1 X54.666 Y90.374 E.00392
G1 X55.82 Y90.373 E.03618
G1 X56.046 Y90.231 E.00837
G1 X56.677 Y90.23 E.01978
G1 X56.904 Y90.088 E.0084
G1 X57.11 Y90.086 E.00646
G1 X57.338 Y89.937 E.00854
M73 P9 R5
G1 X57.508 Y89.933 E.00533
G1 X57.947 Y89.683 E.01584
G1 X58.268 Y89.298 E.01572
;WIDTH:0.463509
G1 X58.356 Y89.243 E.00363
;WIDTH:0.507018
G1 X58.443 Y89.189 E.00395
;WIDTH:0.550528
G1 X58.531 Y89.135 E.00436
;WIDTH:0.594037
G1 X58.618 Y89.08 E.00472
;WIDTH:0.637546
G1 X58.706 Y89.026 E.0051
G1 X58.705 Y89.116 E.00445
;WIDTH:0.594037
G1 X58.705 Y89.206 E.00412
;WIDTH:0.550528
G1 X58.704 Y89.296 E.0038
;WIDTH:0.507018
G1 X58.703 Y89.386 E.00347
;WIDTH:0.463509
G1 X58.703 Y89.476 E.00315
;WIDTH:0.419999
G1 X58.612 Y89.943 E.01492
G1 X58.564 Y90.874 E.02923
G1 X58.702 Y91.08 E.00777
G1 X58.703 Y91.859 E.02442
G1 X58.845 Y92.081 E.00826
G1 X58.846 Y92.426 E.01082
G1 X58.988 Y92.653 E.0084
G1 X58.99 Y92.868 E.00674
G1 X59.106 Y93.051 E.00679
G1 X59.137 Y93.171 E.00389
G1 X59.248 Y93.336 E.00624
G1 X59.28 Y93.457 E.00392
G1 X59.417 Y93.654 E.00752
G1 X59.419 Y93.864 E.00658
G1 X59.56 Y94.083 E.00817
G1 X59.561 Y94.429 E.01085
G1 X59.703 Y94.655 E.00837
G1 X59.704 Y95.715 E.03324
G1 X59.846 Y95.942 E.0084
G1 X59.846 Y96.424 E.01511
G1 X59.989 Y96.657 E.00857
G1 X59.991 Y96.87 E.00668
G1 X60.132 Y97.086 E.00809
G1 X60.134 Y97.295 E.00655
G1 X60.249 Y97.483 E.00691
G1 X60.281 Y97.604 E.00392
G1 X60.388 Y97.763 E.00601
G1 X60.423 Y97.894 E.00425
G1 X60.67 Y98.199 E.01231
G1 X60.716 Y98.349 E.00492
G1 X60.796 Y98.456 E.00419
G1 X61.208 Y98.845 E.01777
G1 X61.62 Y99.165 E.01636
G1 X62.059 Y99.44 E.01624
G1 X62.213 Y99.469 E.00491
;WIDTH:0.4462
G1 X62.464 Y99.716 E.01181
;WIDTH:0.46481
G1 X62.545 Y99.753 E.00312
M204 P1000
G1 E-2.24 F4200
;WIPE_START
G1 F7200
G1 X62.6 Y99.778 E-.03348
G1 X61.955 Y99.8 E-.35765
G1 X61.364 Y99.696 E-.33254
G1 X60.94 Y99.647 E-.23633
;WIPE_END
G1 Z.4 F720
G1 X58.041 Y91.024 F9000
G1 Z.2 F720
G1 E3.2 F2400
M204 P600
;TYPE:Solid infill
;WIDTH:0.424653
G1 F1200
G1 X57.655 Y90.637 E.01735
G1 X57.591 Y90.644 E.00204
G1 X57.385 Y90.755 E.00743
G1 X57.256 Y90.778 E.00416
G1 X57.988 Y91.51 E.03286
G1 X57.991 Y91.946 E.01384
G1 X58.026 Y92.088 E.00464
G1 X56.862 Y90.924 E.05225
G1 X56.667 Y90.948 E.00624
G1 X56.346 Y90.948 E.01019
G1 X58.249 Y92.851 E.08542
G1 X58.277 Y92.899 E.00176
G1 X58.292 Y93.03 E.00419
G1 X58.349 Y93.206 E.00587
G1 X58.453 Y93.376 E.00633
G1 X58.639 Y93.781 E.01415
G1 X55.929 Y91.07 E.12167
G1 X55.814 Y91.091 E.00371
G1 X55.409 Y91.09 E.01286
G1 X58.854 Y94.536 E.15466
G1 X58.877 Y94.66 E.004
G1 X58.987 Y94.875 E.00767
G1 X58.988 Y95.21 E.01063
G1 X54.868 Y91.09 E.18494
G1 X54.606 Y91.089 E.00832
G1 X54.343 Y91.033 E.00854
G1 X54.186 Y90.948 E.00567
G1 X58.99 Y95.751 E.21562
G1 X59.044 Y96.018 E.00865
G1 X59.13 Y96.172 E.0056
G1 X59.134 Y96.435 E.00835
G1 X53.627 Y90.928 E.2472
G1 X53.406 Y90.854 E.0074
G1 X53.318 Y90.801 E.00326
G1 X53.231 Y90.794 E.00277
G1 X52.899 Y90.658 E.01139
G1 X52.806 Y90.647 E.00297
G1 X59.343 Y97.184 E.29344
G1 X59.424 Y97.338 E.00552
M73 P10 R5
G1 X59.472 Y97.588 E.00808
G1 X59.754 Y98.135 E.01953
G1 X52.763 Y91.144 E.31382
G1 X52.745 Y91.462 E.01011
G1 X52.696 Y91.617 E.00516
G1 X59.544 Y98.465 E.3074
G1 X59.141 Y98.455 E.0128
G1 X59.035 Y98.392 E.00391
G1 X58.881 Y98.341 E.00515
G1 X52.619 Y92.079 E.28109
G1 X52.556 Y92.327 E.00812
G1 X52.48 Y92.48 E.00542
G1 X58.311 Y98.312 E.26177
G1 X57.772 Y98.312 E.01711
G1 X52.387 Y92.928 E.2417
G1 X52.217 Y93.297 E.0129
G1 X57.271 Y98.351 E.22687
G1 X57.057 Y98.455 E.00755
G1 X56.835 Y98.455 E.00705
G1 X52.016 Y93.636 E.21632
G1 X52.002 Y93.71 E.00239
G1 X51.902 Y93.9 E.00682
G1 X51.878 Y94.038 E.00445
G1 X56.357 Y98.517 E.20106
G1 X56.183 Y98.603 E.00616
G1 X55.949 Y98.648 E.00756
G1 X51.764 Y94.464 E.18784
G1 X51.762 Y94.787 E.01025
M73 P11 R5
G1 X51.725 Y94.965 E.00577
G1 X55.588 Y98.827 E.17338
G1 X55.482 Y98.884 E.00382
G1 X55.104 Y98.884 E.012
G1 X51.765 Y95.544 E.14991
G1 X51.765 Y95.666 E.00387
G1 X51.862 Y95.84 E.00632
G1 X51.901 Y96.069 E.00737
G1 X52.053 Y96.372 E.01076
G1 X54.425 Y98.744 E.10648
G1 X54.213 Y98.637 E.00754
G1 X54.006 Y98.605 E.00665
G1 X53.889 Y98.536 E.00431
G1 X53.766 Y98.492 E.00415
G1 X53.631 Y98.406 E.00508
G1 X53.497 Y98.356 E.00454
G1 X52.217 Y97.077 E.05744
M204 P1000
G1 E-2.24 F4200
;WIPE_START
G1 F7200
G1 X53.442 Y98.302 E-.96
;WIPE_END
G1 Z.4 F720
G1 X63.21 Y72.302 F9000
G1 Z.2 F720
G1 E3.2 F2400
M204 P600
;TYPE:Perimeter
;WIDTH:0.538367
G1 F1200
G1 X63.031 Y72.076 E.01188
G1 X62.968 Y71.937 E.00629
G1 X62.695 Y71.592 E.01812
G1 X63.739 Y71.587 E.04301
;WIDTH:0.529356
G1 X63.845 Y71.532 E.00483
;WIDTH:0.486181
G1 X63.952 Y71.476 E.00445
;WIDTH:0.443006
G1 X64.059 Y71.421 E.004
G1 X63.958 Y71.491 E.00409
;WIDTH:0.486181
G1 X63.858 Y71.562 E.00452
;WIDTH:0.529356
G1 X63.757 Y71.632 E.00497
;WIDTH:0.538367
G1 X63.323 Y72.067 E.02531
G1 X63.236 Y72.248 E.00827
M204 P1000
G1 E-2.24 F4200
;WIPE_START
G1 F7200
G1 X63.21 Y72.302 E-.03321
G1 X63.031 Y72.076 E-.15977
G1 X62.968 Y71.937 E-.08457
G1 X62.695 Y71.592 E-.2438
G1 X63.486 Y71.588 E-.43865
;WIPE_END
G1 Z.4 F720
G1 X64.672 Y71.097 F9000
G1 Z.2 F720
G1 E3.2 F2400
M204 P600
;TYPE:External perimeter
;WIDTH:0.741724
G1 F1200
G1 X64.781 Y71.012 E.00803
;WIDTH:0.705152
G1 X64.863 Y70.988 E.0047
;WIDTH:0.659119
G1 X64.945 Y70.963 E.00439
;WIDTH:0.613086
G1 X65.026 Y70.939 E.00401
;WIDTH:0.567053
G1 X65.108 Y70.915 E.00372
;WIDTH:0.52102
G1 X65.19 Y70.89 E.00341
;WIDTH:0.474987
G1 X65.271 Y70.866 E.00304
;WIDTH:0.428954
G1 X65.353 Y70.842 E.00274
;WIDTH:0.38292
G1 X65.522 Y70.821 E.00481
M204 P1000
G1 E-2.24 F4200
;WIPE_START
G1 F7200
G1 X65.353 Y70.842 E-.09437
G1 X65.271 Y70.866 E-.04735
G1 X65.19 Y70.89 E-.04682
G1 X65.108 Y70.915 E-.04751
G1 X65.026 Y70.939 E-.04735
G1 X64.945 Y70.963 E-.04682
G1 X64.863 Y70.988 E-.04751
G1 X64.781 Y71.012 E-.04735
G1 X64.672 Y71.097 E-.0766
;WIPE_END
G1 E-.45832 F4200
G1 Z.4 F720
G1 X63.17 Y73.326 F9000
G1 Z.2 F720
G1 E3.2 F2400
M204 P600
;WIDTH:0.4647
G1 F1200
G1 X63.162 Y73.183 E.00502
;WIDTH:0.44849
G1 X63.044 Y72.988 E.00769
;WIDTH:0.419999
G1 X62.887 Y72.685 E.0107
G1 X62.859 Y72.58 E.00341
G1 X62.613 Y72.264 E.01256
G1 X62.52 Y72.033 E.00781
G1 X61.637 Y71.155 E.03904
G1 X63.739 Y71.155 E.06591
G1 X63.847 Y71.121 E.00355
G1 X63.983 Y71.012 E.00546
G1 X64.111 Y71.012 E.00401
;WIDTH:0.46596
G1 X64.191 Y71.024 E.00285
;WIDTH:0.511921
G1 X64.271 Y71.036 E.00315
;WIDTH:0.557882
G1 X64.351 Y71.048 E.00346
;WIDTH:0.603842
G1 X64.431 Y71.061 E.00378
;WIDTH:0.649803
G1 X64.511 Y71.073 E.00408
;WIDTH:0.695764
G1 X64.592 Y71.085 E.00445
;WIDTH:0.741724
G1 X64.672 Y71.097 E.0047
G1 X64.651 Y71.147 E.00315
;WIDTH:0.700409
G1 X64.63 Y71.197 E.00296
;WIDTH:0.659093
G1 X64.61 Y71.247 E.00276
;WIDTH:0.617777
G1 X64.589 Y71.297 E.00259
;WIDTH:0.576461
G1 X64.569 Y71.347 E.00239
;WIDTH:0.535145
G1 X64.502 Y71.441 E.00472
;WIDTH:0.496763
G1 X64.435 Y71.536 E.00439
;WIDTH:0.458381
G1 X64.368 Y71.631 E.00402
;WIDTH:0.419999
G1 X63.642 Y72.373 E.03255
G1 X63.424 Y72.862 E.01679
;WIDTH:0.4647
G1 X63.199 Y73.273 E.01643
M204 P1000
G1 X63.199 Y73.273 F9000
G1 X63.17 Y73.818
M204 P600
;WIDTH:0.42381
G1 F1200
G1 X63.17 Y73.572 E.00779
;WIDTH:0.4647
G1 X63.17 Y73.326 E.00863
M204 P1000
G1 E-2.24 F4200
;WIPE_START
G1 F7200
G1 X63.17 Y73.572 E-.13632
G1 X63.17 Y73.818 E-.13632
;WIPE_END
G1 E-.68736 F4200
G1 Z.4 F720
G1 X71.816 Y63.269 F9000
G1 Z.2 F720
G1 E3.2 F2400
M204 P600
;TYPE:Perimeter
;WIDTH:0.419999
G1 F1200
G1 X71.868 Y62.657 E.01926
G1 X71.872 Y61.311 E.0422
G1 X71.851 Y60.08 E.0386
M73 P12 R5
G1 X71.608 Y59.603 E.01678
G1 X71.583 Y59.301 E.0095
G1 X71.476 Y59.046 E.00867
G1 X71.44 Y58.867 E.00572
G1 X71.303 Y58.578 E.01003
G1 X71.303 Y57.638 E.02947
G1 X71.416 Y57.413 E.00789
G1 X71.446 Y57.231 E.00578
G1 X71.524 Y57.066 E.00572
G1 X71.589 Y56.802 E.00852
G1 X71.984 Y55.955 E.0293
G1 X72.127 Y55.801 E.00659
G1 X72.264 Y55.543 E.00916
G1 X72.542 Y55.256 E.01253
G1 X72.63 Y55.237 E.00282
G1 X72.964 Y54.971 E.01339
