; generated by PrusaSlicer 2.7.4 on 2024-10-19 at 16:09:39 UTC


;
;

;
;
; 

; external perimeters extrusion width = 0.45mm
; perimeters extrusion width = 0.45mm
; infill extrusion width = 0.45mm
; solid infill extrusion width = 0.45mm
; top infill extrusion width = 0.40mm
; first layer extrusion width = 0.42mm

M73 P0 R2
M201 X2500 Y2500 Z400 E5000 ; sets maximum accelerations, mm/sec^2
M203 X180 Y180 Z12 E80 ; sets maximum feedrates, mm / sec
M204 P2000 R1250 T2500 ; sets acceleration (P, T) and retract acceleration (R), mm/sec^2
M205 X8.00 Y8.00 Z2.00 E10.00 ; sets the jerk limits, mm/sec
M205 S0 T0 ; sets the minimum extruding and travel feed rate, mm/sec

; printing object binary_cyan.stl id:0 copy 0
; stop printing object binary_cyan.stl id:0 copy 0

;TYPE:Custom
M862.3 P "MINI" ; printer model check
G90 ; use absolute coordinates
M83 ; extruder relative mode
M104 S170 ; set extruder temp for bed leveling
M140 S60 ; set bed temp
M109 R170 ; wait for bed leveling temp
M190 S60 ; wait for bed temp
M204 T1250 ; set travel acceleration
G28 ; home all without mesh bed level
G29 ; mesh bed leveling 
M204 T2500 ; restore travel acceleration
M104 S215 ; set extruder temp
G92 E0
G1 Y-2 X179 F2400
G1 Z3 F720
M73 P3 R2
M109 S215 ; wait for extruder temp

; intro line
G1 X170 F1000
G1 Z0.2 F720
G1 X110 E8 F900
G1 X40 E10 F700
M73 P6 R2
G92 E0

M221 S95 ; set flow
G21 ; set units to millimeters
G90 ; use absolute coordinates
M83 ; use relative distances for extrusion
M900 K0.2 ; Filament gcode LA 1.5
; ; Filament gcode LA 1.0
M107
;LAYER_CHANGE
;Z:0.2
;HEIGHT:0.2
G1 E-3.2 F4200
M73 P10 R2
G1 Z.4 F720
G1 X73.572 Y78.385 F9000
G1 Z.2 F720
M73 P11 R2
G1 E3.2 F2400
M204 P600
;TYPE:Skirt/Brim
;WIDTH:0.42
G1 F1200
G1 X74.667 Y77.367 E.04688
G1 X77.283 Y75.627 E.09851
G1 X78.984 Y75.169 E.05523
G1 X102.544 Y76.269 E.73951
G1 X103.287 Y76.407 E.02369
M73 P12 R2
G1 X103.883 Y76.634 E.02
G1 X105.201 Y77.345 E.04695
G1 X105.656 Y77.713 E.01835
G1 X106.586 Y78.716 E.04289
G1 X107.109 Y79.625 E.03288
G1 X107.413 Y80.453 E.02766
G1 X107.554 Y81.324 E.02767
G1 X107.554 Y82.256 E.02922
G1 X107.392 Y83.245 E.03142
G1 X106.685 Y84.761 E.05245
G1 X94.825 Y102.393 E.66627
G1 X94.176 Y103.071 E.02943
M73 P13 R2
G1 X91.19 Y105.211 E.11519
G1 X80.03 Y110.471 E.38683
G1 X78.808 Y110.734 E.03919
G1 X77.494 Y110.401 E.0425
G1 X73.846 Y108.421 E.13014
G1 X72.934 Y107.793 E.03472
M73 P14 R2
G1 X72.193 Y107.06 E.03268
G1 X71.569 Y106.152 E.03454
G1 X67.178 Y98.083 E.28803
G1 X66.919 Y97.424 E.0222
G1 X66.617 Y96.278 E.03716
G1 X66.526 Y95.524 E.02381
G1 X66.728 Y94.489 E.03306
G1 X72.63 Y79.963 E.49161
G1 X73.077 Y79.061 E.03156
M73 P15 R2
G1 X73.537 Y78.433 E.02441
M204 P1000
G1 X73.838 Y78.653 F9000
M204 P600
G1 F1200
G1 X73.839 Y78.651 E.00007
G1 X74.876 Y77.681 E.04452
G1 X77.492 Y75.941 E.09851
G1 X78.967 Y75.546 E.04788
G1 X102.527 Y76.646 E.73951
G1 X103.168 Y76.765 E.02044
M73 P16 R2
G1 X103.715 Y76.972 E.01834
G1 X104.996 Y77.662 E.04562
G1 X105.389 Y77.979 E.01583
G1 X106.273 Y78.926 E.04062
G1 X106.771 Y79.792 E.03132
G1 X107.055 Y80.572 E.02603
G1 X107.177 Y81.324 E.02389
G1 X107.177 Y82.256 E.02922
G1 X107.026 Y83.153 E.02852
G1 X106.372 Y84.551 E.04839
G1 X94.512 Y102.183 E.66627
G1 X93.952 Y102.768 E.02539
M73 P17 R2
G1 X91.029 Y104.87 E.11289
G1 X79.869 Y110.13 E.38683
G1 X78.808 Y110.357 E.03402
G1 X77.674 Y110.069 E.03668
G1 X74.026 Y108.089 E.13014
M73 P18 R2
G1 X73.162 Y107.493 E.03291
G1 X72.496 Y106.834 E.02938
G1 X71.899 Y105.97 E.03293
G1 X67.51 Y97.905 E.28789
G1 X66.982 Y96.182 E.0565
M73 P18 R1
G1 X66.903 Y95.524 E.02078
G1 X67.077 Y94.63 E.02856
G1 X72.979 Y80.106 E.49155
G1 X73.411 Y79.235 E.03048
M73 P19 R1
G1 X73.802 Y78.702 E.02073
M204 P1000
G1 E-2.24 F4200
;WIPE_START
G1 F7200
G1 X73.838 Y78.653 E-.03369
G1 X73.839 Y78.651 E-.00124
G1 X74.876 Y77.681 E-.78689
G1 X75.084 Y77.543 E-.13818
;WIPE_END
G1 Z.4 F720
; printing object binary_cyan.stl id:0 copy 0
G1 X99.61 Y82.509 F9000
G1 Z.2 F720
G1 E3.2 F2400
M204 P600
;TYPE:Perimeter
;WIDTH:0.419999
G1 F1200
G1 X99.861 Y82.241 E.01151
G1 X100.082 Y81.957 E.01128
G1 X100.336 Y81.482 E.01689
G1 X100.5 Y80.991 E.01623
G1 X100.776 Y80.544 E.01647
G1 X100.98 Y80.302 E.00992
G1 X101.384 Y80.073 E.01456
G1 X101.862 Y79.887 E.01608
G1 X102.15 Y79.808 E.00936
G1 X102.421 Y79.905 E.00902
G1 X102.872 Y80.129 E.01579
G1 X103.315 Y80.381 E.01598
G1 X103.603 Y80.669 E.01277
G1 X103.83 Y81.07 E.01445
G1 X104.013 Y81.575 E.01684
G1 X104.013 Y82.005 E.01348
G1 X103.962 Y82.098 E.00333
G1 X103.933 Y82.312 E.00677
G1 X103.701 Y82.775 E.01624
G1 X103.389 Y83.132 E.01487
G1 X102.909 Y83.48 E.01859
G1 X102.241 Y83.693 E.02198
G1 X101.98 Y83.693 E.00818
G1 X101.705 Y83.588 E.00923
G1 X101.462 Y83.533 E.00781
M73 P20 R1
G1 X100.997 Y83.274 E.01669
G1 X100.58 Y82.966 E.01625
G1 X100.118 Y82.661 E.01736
G1 X99.667 Y82.526 E.01476
M204 P1000
G1 X99.667 Y82.526 F9000
G1 X98.697 Y82.752
M204 P600
;TYPE:External perimeter
G1 F1200
G1 X98.932 Y82.495 E.01092
G1 X99.394 Y82.184 E.01746
G1 X99.609 Y81.961 E.00971
G1 X99.86 Y81.581 E.01428
G1 X99.988 Y81.302 E.00962
G1 X100.229 Y80.669 E.02124
G1 X100.421 Y80.396 E.01046
G1 X100.466 Y80.285 E.00376
G1 X100.742 Y80.007 E.01228
G1 X101.26 Y79.709 E.01874
G1 X101.708 Y79.51 E.01537
G1 X101.862 Y79.51 E.00483
G1 X102.028 Y79.43 E.00578
G1 X102.15 Y79.43 E.00383
G1 X102.671 Y79.589 E.01708
G1 X103.151 Y79.829 E.01683
G1 X103.423 Y80.021 E.01044
G1 X103.533 Y80.065 E.00371
G1 X103.939 Y80.504 E.01875
G1 X104.076 Y80.687 E.00717
G1 X104.23 Y81.05 E.01236
G1 X104.39 Y81.53 E.01586
G1 X104.39 Y82.05 E.0163
G1 X104.31 Y82.37 E.01034
G1 X104.231 Y82.591 E.00736
G1 X103.998 Y83.049 E.01611
G1 X103.453 Y83.595 E.02419
G1 X103.121 Y83.791 E.01209
G1 X102.672 Y83.99 E.0154
G1 X102.521 Y83.99 E.00473
G1 X102.353 Y84.07 E.00583
G1 X101.93 Y84.07 E.01326
G1 X101.543 Y83.928 E.01293
G1 X101.308 Y83.91 E.00739
G1 X101.057 Y83.738 E.00954
G1 X100.91 Y83.67 E.00508
G1 X100.636 Y83.479 E.01047
G1 X100.525 Y83.434 E.00376
G1 X100.246 Y83.168 E.01209
G1 X100.113 Y83.116 E.00448
G1 X99.977 Y83.017 E.00527
G1 X99.579 Y82.89 E.0131
G1 X98.879 Y82.83 E.02203
G1 X98.752 Y82.776 E.00433
M204 P1000
G1 E-2.24 F4200
;WIPE_START
G1 F7200
G1 X98.697 Y82.752 E-.03325
G1 X98.932 Y82.495 E-.19299
G1 X99.394 Y82.184 E-.30863
G1 X99.609 Y81.961 E-.17166
G1 X99.86 Y81.581 E-.25237
G1 X99.861 Y81.579 E-.0011
;WIPE_END
G1 Z.4 F720
G1 X103.732 Y81.303 F9000
G1 Z.2 F720
G1 E3.2 F2400
M204 P600
;TYPE:Solid infill
;WIDTH:0.455675
G1 F1200
G1 X103.08 Y80.651 E.03165
G1 X102.916 Y80.526 E.00708
G1 X102.367 Y80.251 E.02107
G1 X102.136 Y80.174 E.00836
G1 X102.044 Y80.198 E.00326
G1 X103.674 Y81.828 E.07912
G1 X103.674 Y81.931 E.00354
M73 P21 R1
G1 X103.622 Y82.046 E.00433
G1 X103.599 Y82.216 E.00589
G1 X103.56 Y82.297 E.00309
G1 X101.603 Y80.341 E.09496
G1 X101.382 Y80.452 E.00849
G1 X101.235 Y80.557 E.0062
G1 X103.357 Y82.679 E.103
G1 X103.066 Y82.971 E.01415
G1 X100.959 Y80.864 E.10227
G1 X100.81 Y81.135 E.01061
G1 X100.768 Y81.257 E.00443
G1 X102.707 Y83.196 E.09411
G1 X102.465 Y83.279 E.00878
G1 X102.244 Y83.317 E.0077
G1 X100.617 Y81.69 E.07897
G1 X100.41 Y82.067 E.01476
G1 X101.776 Y83.432 E.06628
M204 P1000
G1 E-2.24 F4200
;WIPE_START
G1 F7200
G1 X100.551 Y82.207 E-.96
;WIPE_END
G1 Z.4 F720
G1 X91.375 Y96.042 F9000
G1 Z.2 F720
G1 E3.2 F2400
M73 P22 R1
M204 P600
;TYPE:Perimeter
;WIDTH:0.419999
G1 F1200
G1 X91.056 Y96.26 E.01211
G1 X90.779 Y96.659 E.01523
G1 X90.547 Y97.158 E.01725
G1 X90.413 Y97.715 E.01796
G1 X90.413 Y98.982 E.03973
G1 X90.623 Y99.749 E.02493
G1 X90.918 Y100.218 E.01737
G1 X91.208 Y100.502 E.01273
G1 X90.986 Y100.567 E.00725
G1 X90.533 Y100.783 E.01574
G1 X90.156 Y101.175 E.01705
G1 X89.982 Y101.483 E.01109
G1 X89.904 Y101.299 E.00627
G1 X89.588 Y100.889 E.01623
G1 X88.963 Y100.416 E.02458
G1 X88.498 Y100.224 E.01577
G1 X88.025 Y100.093 E.01539
G1 X86.397 Y100.094 E.05104
G1 X86.166 Y100.173 E.00765
G1 X85.734 Y100.173 E.01355
G1 X85.023 Y99.89 E.02399
G1 X84.577 Y99.591 E.01684
G1 X84.501 Y99.453 E.00494
G1 X84.302 Y99.238 E.00919
G1 X84.047 Y98.565 E.02257
G1 X84.047 Y97.895 E.02101
G1 X84.34 Y97.231 E.02276
G1 X84.685 Y96.834 E.01649
G1 X84.816 Y96.623 E.00779
G1 X85.045 Y96.154 E.01636
G1 X85.236 Y95.656 E.01672
G1 X85.375 Y95.169 E.01588
G1 X85.407 Y94.69 E.01505
G1 X85.484 Y94.484 E.0069
G1 X85.465 Y93.323 E.03641
G1 X85.327 Y92.965 E.01203
G1 X85.327 Y92.535 E.01348
G1 X85.378 Y92.442 E.00333
G1 X85.407 Y92.228 E.00677
G1 X85.824 Y91.46 E.0274
G1 X86.458 Y91.015 E.02429
G1 X86.93 Y90.847 E.01571
G1 X87.53 Y90.847 E.01881
G1 X87.985 Y91.002 E.01507
G1 X88.436 Y91.261 E.01631
G1 X88.723 Y91.548 E.01273
G1 X88.95 Y91.95 E.01448
G1 X89.133 Y92.449 E.01666
G1 X89.133 Y93.542 E.03427
G1 X89.254 Y93.994 E.01467
M73 P23 R1
G1 X89.446 Y94.468 E.01603
G1 X89.864 Y95.09 E.0235
G1 X90.429 Y95.64 E.02472
G1 X90.837 Y95.881 E.01486
G1 X91.318 Y96.025 E.01574
M204 P1000
G1 X91.318 Y96.025 F9000
G1 X92.397 Y95.751
M204 P600
;TYPE:External perimeter
;WIDTH:0.38292
G1 F1200
G1 X92.79 Y95.686 E.01126
M204 P1000
G1 X92.79 Y95.686 F9000
G1 X92.397 Y95.751
M204 P600
;WIDTH:0.419999
G1 F1200
G1 X91.948 Y96.044 E.01681
G1 X91.752 Y96.244 E.00878
G1 X91.331 Y96.523 E.01584
G1 X91.056 Y96.927 E.01532
G1 X90.87 Y97.398 E.01588
G1 X90.79 Y97.717 E.01031
G1 X90.79 Y98.912 E.03747
G1 X90.96 Y99.539 E.02037
G1 X91.173 Y99.924 E.0138
G1 X91.337 Y100.126 E.00816
G1 X91.717 Y100.392 E.01454
G1 X91.737 Y100.459 E.00219
G1 X91.989 Y100.671 E.01033
G1 X91.617 Y100.834 E.01273
G1 X91.359 Y100.849 E.0081
G1 X91.193 Y100.919 E.00565
G1 X91.083 Y100.933 E.00348
G1 X90.869 Y101.06 E.0078
G1 X90.749 Y101.093 E.0039
G1 X90.411 Y101.466 E.01578
G1 X90.242 Y101.868 E.01367
G1 X90.077 Y102.062 E.00799
;WIDTH:0.417916
G1 X89.99 Y102.348 E.00932
;WIDTH:0.410245
G1 X89.857 Y102.075 E.00928
;WIDTH:0.419999
G1 X89.57 Y101.476 E.02083
G1 X89.244 Y101.084 E.01599
G1 X88.798 Y100.761 E.01727
G1 X88.502 Y100.63 E.01015
G1 X88.023 Y100.47 E.01583
G1 X86.438 Y100.47 E.0497
G1 X86.272 Y100.55 E.00578
G1 X85.69 Y100.55 E.01825
G1 X85.21 Y100.39 E.01586
G1 X84.757 Y100.176 E.01571
G1 X84.304 Y99.853 E.01744
G1 X83.909 Y99.311 E.02103
G1 X83.75 Y98.838 E.01565
G1 X83.67 Y98.672 E.00578
G1 X83.67 Y98.358 E.00985
G1 X83.629 Y98.24 E.00392
G1 X83.667 Y98.137 E.00344
G1 X83.67 Y97.85 E.009
G1 X83.829 Y97.389 E.01529
G1 X84.062 Y96.932 E.01608
G1 X84.339 Y96.649 E.01242
G1 X84.529 Y96.349 E.01113
G1 X84.749 Y95.899 E.01571
G1 X84.912 Y95.415 E.01601
G1 X84.95 Y95.21 E.00654
G1 X85.008 Y95.07 E.00475
G1 X85.03 Y94.65 E.01319
G1 X85.11 Y94.423 E.00755
G1 X85.11 Y93.542 E.02762
G1 X85.03 Y93.238 E.00986
G1 X84.95 Y93.072 E.00578
G1 X84.95 Y92.49 E.01825
G1 X85.11 Y91.878 E.01983
M73 P24 R1
G1 X85.233 Y91.742 E.00575
G1 X85.482 Y91.302 E.01585
G1 X85.728 Y91.026 E.01159
G1 X85.794 Y91.01 E.00213
G1 X85.961 Y90.867 E.00689
G1 X86.03 Y90.852 E.00221
G1 X86.204 Y90.705 E.00714
G1 X86.828 Y90.47 E.02091
G1 X87.57 Y90.47 E.02326
G1 X88.271 Y90.709 E.02322
G1 X88.544 Y90.901 E.01046
G1 X88.653 Y90.945 E.00369
G1 X89.016 Y91.308 E.0161
G1 X89.231 Y91.659 E.01291
G1 X89.51 Y92.348 E.02331
G1 X89.51 Y93.478 E.03543
G1 X89.67 Y94.01 E.01742
G1 X89.799 Y94.316 E.01041
G1 X90.127 Y94.819 E.01883
G1 X90.692 Y95.37 E.02474
G1 X90.825 Y95.423 E.00449
G1 X90.967 Y95.52 E.00539
G1 X91.416 Y95.673 E.01487
G1 X91.881 Y95.71 E.01463
G1 X92.02 Y95.768 E.00472
G1 X92.337 Y95.754 E.00995
M204 P1000
G1 E-2.24 F4200
;WIPE_START
G1 F7200
G1 X92.397 Y95.751 E-.03329
G1 X91.948 Y96.044 E-.29711
G1 X91.752 Y96.244 E-.15518
G1 X91.331 Y96.523 E-.27989
G1 X91.134 Y96.813 E-.19453
;WIPE_END
G1 Z.4 F720
G1 X88.842 Y92.147 F9000
G1 Z.2 F720
G1 E3.2 F2400
M204 P600
;TYPE:Solid infill
;WIDTH:0.420773
G1 F1200
G1 X88.241 Y91.547 E.02668
G1 X88.175 Y91.52 E.00224
G1 X88.037 Y91.407 E.0056
G1 X87.869 Y91.326 E.00586
G1 X87.534 Y91.227 E.01098
G1 X87.455 Y91.186 E.0028
G1 X87.346 Y91.186 E.00342
G1 X88.794 Y92.634 E.06434
G1 X88.794 Y93.168 E.01678
G1 X86.87 Y91.244 E.08549
G1 X86.565 Y91.339 E.01004
G1 X86.487 Y91.395 E.00302
G1 X88.827 Y93.735 E.10397
G1 X88.848 Y93.848 E.00361
M73 P25 R1
G1 X89.027 Y94.38 E.01764
G1 X89.11 Y94.553 E.00603
G1 X86.174 Y91.617 E.13045
G1 X86.099 Y91.67 E.00289
G1 X85.947 Y91.924 E.0093
G1 X90.501 Y96.478 E.20235
G1 X90.31 Y96.821 E.01233
G1 X85.759 Y92.271 E.20219
G1 X85.711 Y92.52 E.00797
G1 X85.666 Y92.611 E.00319
G1 X85.666 Y92.713 E.0032
G1 X90.173 Y97.219 E.20024
G1 X90.158 Y97.344 E.00396
G1 X90.092 Y97.529 E.00617
M73 P26 R1
G1 X90.079 Y97.659 E.0041
G1 X85.817 Y93.397 E.18937
G1 X85.826 Y93.941 E.01709
G1 X90.074 Y98.188 E.18873
G1 X90.074 Y98.723 E.01681
G1 X85.822 Y94.471 E.18893
G1 X85.796 Y94.663 E.00609
G1 X85.745 Y94.766 E.00361
G1 X85.739 Y94.923 E.00494
G1 X90.152 Y99.336 E.19608
G1 X90.198 Y99.57 E.00749
G1 X90.309 Y99.878 E.01029
G1 X90.37 Y100.002 E.00434
G1 X90.546 Y100.264 E.00992
G1 X85.659 Y95.376 E.21716
G1 X85.631 Y95.557 E.00575
M73 P27 R1
G1 X85.54 Y95.793 E.00795
G1 X90.289 Y100.541 E.21099
G1 X90.029 Y100.816 E.01189
G1 X85.406 Y96.193 E.20541
G1 X85.231 Y96.552 E.01255
G1 X88.58 Y99.901 E.1488
G1 X88.352 Y99.814 E.00767
G1 X88.041 Y99.754 E.00995
G1 X87.898 Y99.754 E.00449
G1 X85.048 Y96.903 E.12666
G1 X84.979 Y97.016 E.00416
M73 P28 R1
G1 X84.805 Y97.195 E.00784
G1 X87.364 Y99.754 E.1137
G1 X86.829 Y99.754 E.01681
G1 X84.584 Y97.508 E.09977
G1 X84.448 Y97.786 E.00972
G1 X84.426 Y97.884 E.00316
G1 X86.31 Y99.769 E.08373
G1 X86.206 Y99.782 E.00329
G1 X86.091 Y99.833 E.00395
G1 X85.841 Y99.833 E.00785
G1 X84.217 Y98.21 E.07214
M204 P1000
G1 E-2.24 F4200
;WIPE_START
G1 F7200
G1 X85.442 Y99.435 E-.96
;WIPE_END
G1 Z.4 F720
G1 X75.396 Y83.561 F9000
G1 Z.2 F720
G1 E3.2 F2400
M204 P600
;TYPE:Perimeter
;WIDTH:0.419999
G1 F1200
G1 X75.667 Y82.995 E.01968
G1 X75.807 Y82.502 E.01607
G1 X75.807 Y81.891 E.01916
G1 X75.864 Y81.783 E.00383
G1 X75.887 Y81.622 E.0051
G1 X75.99 Y81.23 E.01271
G1 X76.208 Y80.757 E.01633
M73 P29 R1
G1 X76.588 Y80.377 E.01685
G1 X76.837 Y80.226 E.00913
G1 X77.295 Y79.996 E.01607
G1 X77.788 Y79.775 E.01694
G1 X78.35 Y79.393 E.02131
G1 X78.488 Y79.186 E.0078
G1 X78.504 Y79.315 E.00408
G1 X78.677 Y79.762 E.01503
G1 X78.826 Y80.036 E.00978
G1 X79.457 Y80.678 E.02822
G1 X79.73 Y80.86 E.01029
G1 X80.137 Y81.08 E.01451
G1 X81.083 Y81.471 E.03209
G1 X81.497 Y81.755 E.01574
G1 X82.02 Y82.253 E.02264
G1 X81.297 Y82.18 E.02278
G1 X80.858 Y82.253 E.01395
G1 X80.481 Y82.345 E.01217
G1 X79.995 Y82.569 E.01678
G1 X79.549 Y82.812 E.01592
G1 X79.343 Y82.967 E.00808
G1 X78.998 Y83.277 E.01454
G1 X78.546 Y83.494 E.01572
G1 X78.065 Y83.655 E.0159
G1 X77.87 Y83.693 E.00623
G1 X77.137 Y83.533 E.02352
G1 X75.456 Y83.56 E.05271
M204 P1000
G1 E-2.24 F4200
;WIPE_START
G1 F7200
G1 X75.396 Y83.561 E-.03325
G1 X75.667 Y82.995 E-.34776
G1 X75.807 Y82.502 E-.28401
G1 X75.807 Y81.97 E-.29498
;WIPE_END
G1 Z.4 F720
G1 X73.938 Y84.882 F9000
G1 Z.2 F720
G1 E3.2 F2400
M204 P600
;TYPE:External perimeter
;WIDTH:0.562518
G1 F1200
G1 X73.953 Y84.805 E.00339
;WIDTH:0.518988
G1 X73.968 Y84.728 E.00311
;WIDTH:0.475458
G1 X73.983 Y84.65 E.00286
;WIDTH:0.431928
G1 X73.998 Y84.573 E.00254
;WIDTH:0.413639
G1 X74.059 Y84.465 E.00382
;WIDTH:0.438879
G1 X74.119 Y84.357 E.00407
G1 X74.372 Y84.115 E.01153
;WIDTH:0.475075
G1 X74.793 Y83.758 E.01984
G1 X74.965 Y83.51 E.01085
;WIDTH:0.447537
G1 X75.138 Y83.262 E.01017
;WIDTH:0.419999
G1 X75.267 Y82.982 E.00967
G1 X75.43 Y82.502 E.01589
G1 X75.43 Y81.85 E.02044
G1 X75.502 Y81.675 E.00593
G1 X75.51 Y81.45 E.00706
G1 X75.664 Y81.029 E.01406
G1 X75.881 Y80.551 E.01646
G1 X76.367 Y80.065 E.02155
G1 X76.7 Y79.869 E.01212
G1 X77.179 Y79.628 E.01681
M73 P30 R1
G1 X77.569 Y79.468 E.01322
G1 X78.037 Y79.169 E.01741
G1 X78.328 Y78.746 E.0161
G1 X78.714 Y78.392 E.01642
G1 X78.74 Y78.425 E.00132
G1 X78.75 Y78.592 E.00525
G1 X78.835 Y78.764 E.00602
G1 X78.868 Y79.206 E.0139
G1 X79.095 Y79.771 E.01909
G1 X79.726 Y80.414 E.02825
G1 X79.861 Y80.472 E.00461
G1 X79.984 Y80.581 E.00515
G1 X80.366 Y80.776 E.01345
G1 X81.121 Y81.069 E.02539
G1 X81.561 Y81.322 E.01591
G1 X81.762 Y81.487 E.00815
;WIDTH:0.42249
