; generated by PrusaSlicer 2.7.4 on 2024-10-19 at 16:13:03 UTC


;
;

;
;
; 

; external perimeters extrusion width = 0.40mm
; perimeters extrusion width = 0.40mm
; infill extrusion width = 0.45mm
; solid infill extrusion width = 0.45mm
; top infill extrusion width = 0.40mm
; first layer extrusion width = 0.42mm

M73 P0 R71
M201 X2500 Y2500 Z400 E5000 ; sets maximum accelerations, mm/sec^2
M203 X180 Y180 Z12 E80 ; sets maximum feedrates, mm / sec
M204 P2000 R1250 T2500 ; sets acceleration (P, T) and retract acceleration (R), mm/sec^2
M205 X8.00 Y8.00 Z2.00 E10.00 ; sets the jerk limits, mm/sec
M205 S0 T0 ; sets the minimum extruding and travel feed rate, mm/sec

; printing object binary_black.stl id:0 copy 0
; stop printing object binary_black.stl id:0 copy 0

;TYPE:Custom
M862.3 P "MINI" ; printer model check
G90 ; use absolute coordinates
M83 ; extruder relative mode
M104 S170 ; set extruder temp for bed leveling
M140 S60 ; set bed temp
M109 R170 ; wait for bed leveling temp
M190 S60 ; wait for bed temp
M204 T1250 ; set travel acceleration
G28 ; home all without mesh bed level
G29 ; mesh bed leveling 
M204 T2500 ; restore travel acceleration
M104 S215 ; set extruder temp
G92 E0
G1 Y-2 X179 F2400
G1 Z3 F720
M109 S215 ; wait for extruder temp

; intro line
G1 X170 F1000
G1 Z0.2 F720
G1 X110 E8 F900
G1 X40 E10 F700
G92 E0

M221 S95 ; set flow
G21 ; set units to millimeters
G90 ; use absolute coordinates
M83 ; use relative distances for extrusion
M900 K0.2 ; Filament gcode LA 1.5
; ; Filament gcode LA 1.0
M107
;LAYER_CHANGE
;Z:0.2
;HEIGHT:0.2
G1 E-3.2 F4200
G1 Z.4 F720
G1 X56.379 Y56.443 F9000
G1 Z.2 F720
G1 E3.2 F2400
M204 P600
;TYPE:Skirt/Brim
;WIDTH:0.42
G1 F1200
G1 X58.124 Y55.683 E.05968
G1 X121.856 Y55.683 E1.99827
G1 X123.535 Y56.378 E.05698
G1 X124.297 Y58.124 E.05973
G1 X124.297 Y121.856 E1.99827
G1 X123.601 Y123.537 E.05705
G1 X121.856 Y124.297 E.05968
G1 X58.124 Y124.297 E1.99827
G1 X56.442 Y123.599 E.0571
G1 X55.683 Y121.856 E.05961
G1 X55.683 Y58.124 E1.99827
G1 X56.356 Y56.499 E.05515
M204 P1000
G1 E-2.24 F4200
;WIPE_START
G1 F7200
G1 X56.379 Y56.443 E-.03355
G1 X57.912 Y55.775 E-.92645
;WIPE_END
G1 Z.4 F720
; printing object binary_black.stl id:0 copy 0
G1 X66.11 Y116.85 F9000
G1 Z.2 F720
G1 E3.2 F2400
M204 P600
;TYPE:External perimeter
;WIDTH:0.38292
G1 F1200
G1 X66.09 Y116.467 E.01084
;WIDTH:0.417142
G1 X66.077 Y116.411 E.00179
;WIDTH:0.451364
G1 X66.064 Y116.355 E.00195
;WIDTH:0.486848
G1 X66.126 Y116.277 E.00368
G1 X66.388 Y116.314 E.00977
;WIDTH:0.460653
G1 X66.65 Y116.351 E.00919
M204 P1000
G1 X66.65 Y116.351 F9000
G1 X66.116 Y115.893
M204 P600
;WIDTH:0.459424
G1 F1200
G1 X66.121 Y116.085 E.00665
;WIDTH:0.486848
G1 X66.126 Y116.277 E.00709
M204 P1000
G1 E-2.24 F4200
;WIPE_START
G1 F7200
G1 X66.121 Y116.085 E-.10644
G1 X66.116 Y115.893 E-.10644
;WIPE_END
G1 E-.74712 F4200
G1 Z.4 F720
G1 X64.504 Y114.987 F9000
G1 Z.2 F720
G1 E3.2 F2400
M204 P600
;WIDTH:0.422484
G1 F1200
G1 X64.443 Y114.961 E.00209
G1 X64.241 Y114.79 E.00835
;WIDTH:0.423463
G1 X64.63 Y114.401 E.01741
G1 X64.791 Y114.562 E.0072
G1 X64.828 Y114.652 E.00308
G1 X64.766 Y114.804 E.00519
G1 X64.553 Y114.953 E.00823
M204 P1000
G1 E-2.24 F4200
;WIPE_START
G1 F7200
G1 X64.504 Y114.987 E-.03305
G1 X64.443 Y114.961 E-.03675
G1 X64.241 Y114.79 E-.14667
G1 X64.63 Y114.401 E-.30486
G1 X64.791 Y114.562 E-.12618
G1 X64.828 Y114.652 E-.05393
G1 X64.766 Y114.804 E-.09097
G1 X64.553 Y114.953 E-.14405
;WIPE_END
G1 E-.02354 F4200
G1 Z.4 F720
G1 X69.719 Y110.35 F9000
G1 Z.2 F720
G1 E3.2 F2400
M204 P600
;TYPE:Perimeter
;WIDTH:0.419999
G1 F1200
G1 X69.583 Y110.781 E.01417
G1 X69.279 Y111.239 E.01724
G1 X68.68 Y111.836 E.02652
G1 X68.197 Y112.172 E.01845
G1 X67.788 Y112.341 E.01388
G1 X67.57 Y112.285 E.00706
G1 X67.487 Y112.203 E.00366
G1 X67.558 Y111.884 E.01025
G1 X67.755 Y111.528 E.01276
G1 X68.074 Y111.132 E.01594
G1 X68.636 Y110.603 E.0242
G1 X69.05 Y110.3 E.01609
G1 X69.427 Y110.127 E.01301
G1 X69.631 Y110.182 E.00662
G1 X69.691 Y110.297 E.00407
M204 P1000
G1 X69.691 Y110.297 F9000
G1 X70.075 Y110.18
M204 P600
;TYPE:External perimeter
G1 F1200
G1 X70.15 Y110.35 E.00583
G1 X69.948 Y110.885 E.01793
G1 X69.662 Y111.319 E.0163
G1 X69.608 Y111.443 E.00424
G1 X68.946 Y112.103 E.02931
G1 X68.241 Y112.591 E.02688
G1 X67.745 Y112.756 E.01639
G1 X67.272 Y112.58 E.01582
G1 X67.11 Y112.293 E.01033
G1 X67.11 Y112.01 E.00887
G1 X67.19 Y111.708 E.0098
G1 X67.367 Y111.452 E.00976
G1 X67.426 Y111.326 E.00436
G1 X67.604 Y111.142 E.00803
G1 X67.669 Y111.003 E.00481
G1 X68.427 Y110.28 E.03284
G1 X69.015 Y109.872 E.02244
G1 X69.308 Y109.75 E.00995
G1 X69.57 Y109.75 E.00821
G1 X69.905 Y109.879 E.01126
G1 X70.027 Y110.071 E.00713
G1 X70.051 Y110.125 E.00185
M204 P1000
G1 E-2.24 F4200
;WIPE_START
G1 F7200
G1 X70.075 Y110.18 E-.03325
G1 X70.15 Y110.35 E-.10297
G1 X69.948 Y110.885 E-.31691
G1 X69.662 Y111.319 E-.28803
G1 X69.608 Y111.443 E-.07495
G1 X69.424 Y111.626 E-.14389
;WIPE_END
G1 Z.4 F720
G1 X67.953 Y111.904 F9000
G1 Z.2 F720
G1 E3.2 F2400
M204 P600
;TYPE:Perimeter
;WIDTH:0.435534
G1 F1200
G1 X68.055 Y111.807 E.0046
;WIDTH:0.481365
G1 X68.157 Y111.709 E.00516
;WIDTH:0.527197
G1 X68.258 Y111.612 E.00564
;WIDTH:0.573028
G1 X68.36 Y111.514 E.00623
;WIDTH:0.594052
G1 X68.924 Y110.936 E.03701
;WIDTH:0.55397
G1 X69.004 Y110.855 E.00484
;WIDTH:0.513888
G1 X69.085 Y110.774 E.00449
;WIDTH:0.473805
G1 X69.165 Y110.693 E.00408
;WIDTH:0.433723
G1 X69.245 Y110.611 E.00372
;WIDTH:0.39364
G1 X69.264 Y110.593 E.00076
M204 P1000
G1 E-2.24 F4200
;WIPE_START
G1 F7200
G1 X69.245 Y110.611 E-.0145
G1 X69.165 Y110.693 E-.06349
G1 X69.085 Y110.774 E-.06309
G1 X69.004 Y110.855 E-.06348
G1 X68.924 Y110.936 E-.06309
G1 X68.36 Y111.514 E-.44753
G1 X68.258 Y111.612 E-.07839
G1 X68.157 Y111.709 E-.0776
G1 X68.055 Y111.807 E-.07839
G1 X68.041 Y111.82 E-.01044
;WIPE_END
G1 Z.4 F720
G1 X80.231 Y107.831 F9000
G1 Z.2 F720
G1 E3.2 F2400
M204 P600
;WIDTH:0.419999
G1 F1200
G1 X80.184 Y107.722 E.00372
G1 X80.268 Y107.433 E.00944
G1 X80.459 Y106.959 E.01602
G1 X80.816 Y106.602 E.01583
G1 X81.16 Y106.407 E.0124
G1 X81.658 Y106.274 E.01616
G1 X81.762 Y106.274 E.00326
G1 X82.26 Y106.407 E.01616
G1 X82.553 Y106.589 E.01081
G1 X82.863 Y106.916 E.01413
G1 X83.186 Y107.115 E.0119
G1 X83.237 Y107.185 E.00272
G1 X83.321 Y107.71 E.01667
G1 X83.249 Y108.12 E.01305
G1 X83.049 Y108.608 E.01654
G1 X82.775 Y108.888 E.01228
G1 X82.422 Y109.092 E.01278
G1 X81.929 Y109.236 E.0161
G1 X81.571 Y109.236 E.01122
G1 X81.353 Y109.152 E.00733
G1 X80.898 Y108.904 E.01625
G1 X80.542 Y108.548 E.01579
G1 X80.255 Y107.886 E.02262
M204 P1000
G1 X80.255 Y107.886 F9000
G1 X79.807 Y107.946
M204 P600
G1 F1200
G1 X79.807 Y107.579 E.01151
G1 X80.141 Y106.744 E.0282
G1 X80.591 Y106.294 E.01995
G1 X80.911 Y106.1 E.01173
G1 X81.58 Y105.887 E.02201
G1 X81.84 Y105.887 E.00815
G1 X82.385 Y106.042 E.01777
G1 X82.85 Y106.314 E.01689
G1 X83.11 Y106.63 E.01283
G1 X83.514 Y106.854 E.01448
G1 X83.575 Y106.978 E.00433
G1 X83.71 Y107.71 E.02334
G1 X83.693 Y108.005 E.00926
G1 X83.583 Y108.365 E.0118
G1 X83.371 Y108.827 E.01594
G1 X82.995 Y109.201 E.01663
G1 X82.669 Y109.4 E.01198
G1 X82.008 Y109.613 E.02177
G1 X81.492 Y109.613 E.01618
G1 X80.831 Y109.32 E.02267
G1 X80.52 Y109.074 E.01243
G1 X80.18 Y108.669 E.01658
G1 X80.005 Y108.208 E.01546
G1 X79.843 Y107.993 E.00844
M204 P1000
G1 X79.843 Y107.993 F9000
G1 X79.43 Y108.098
M204 P600
;TYPE:External perimeter
G1 F1200
G1 X79.43 Y107.53 E.01781
G1 X79.549 Y107.179 E.01162
G1 X79.59 Y106.988 E.00613
G1 X79.822 Y106.529 E.01613
G1 X80.348 Y106.004 E.0233
G1 X80.7 Y105.789 E.01293
G1 X81.148 Y105.59 E.01537
G1 X81.302 Y105.59 E.00483
G1 X81.468 Y105.51 E.00578
G1 X81.89 Y105.51 E.01323
G1 X82.047 Y105.576 E.00534
G1 X82.21 Y105.59 E.00513
G1 X82.671 Y105.749 E.01529
G1 X82.944 Y105.941 E.01046
G1 X83.054 Y105.986 E.00373
G1 X83.271 Y106.193 E.0094
G1 X83.345 Y106.321 E.00464
G1 X83.758 Y106.55 E.01481
G1 X83.99 Y106.966 E.01493
G1 X83.99 Y107.14 E.00546
G1 X84.031 Y107.26 E.00398
G1 X84.1 Y107.71 E.01427
G1 X84.07 Y108.05 E.0107
G1 X83.99 Y108.37 E.01034
G1 X83.699 Y109.033 E.0227
G1 X83.214 Y109.515 E.02144
G1 X82.88 Y109.711 E.01214
G1 X82.432 Y109.91 E.01537
G1 X82.281 Y109.91 E.00473
G1 X82.113 Y109.99 E.00583
G1 X81.45 Y109.99 E.02079
G1 X81.05 Y109.843 E.01336
G1 X80.602 Y109.619 E.0157
G1 X80.201 Y109.318 E.01572
G1 X79.903 Y108.971 E.01434
G1 X79.709 Y108.561 E.01422
G1 X79.666 Y108.384 E.00571
G1 X79.468 Y108.144 E.00976
M204 P1000
G1 E-2.24 F4200
;WIPE_START
G1 F7200
G1 X79.43 Y108.098 E-.03306
G1 X79.43 Y107.53 E-.31477
G1 X79.549 Y107.179 E-.20539
G1 X79.59 Y106.988 E-.10826
G1 X79.822 Y106.529 E-.28501
G1 X79.839 Y106.512 E-.01351
;WIPE_END
G1 Z.4 F720
G1 X82.077 Y106.528 F9000
G1 Z.2 F720
G1 E3.2 F2400
M204 P600
;TYPE:Solid infill
;WIDTH:0.472714
G1 F1200
G1 X82.919 Y107.369 E.04253
G1 X82.977 Y107.568 E.00741
G1 X82.977 Y107.858 E.01036
G1 X82.94 Y107.999 E.00521
G1 X81.582 Y106.64 E.06866
G1 X81.231 Y106.747 E.01311
G1 X81.138 Y106.804 E.0039
G1 X82.759 Y108.425 E.08193
G1 X82.57 Y108.613 E.00953
G1 X82.429 Y108.702 E.00596
G1 X80.812 Y107.086 E.0817
G1 X80.743 Y107.155 E.00349
G1 X80.605 Y107.487 E.01285
G1 X81.974 Y108.856 E.06919
G1 X81.858 Y108.896 E.00439
G1 X81.639 Y108.896 E.00783
G1 X81.22 Y108.71 E.01638
G1 X80.5 Y107.989 E.03641
M204 P1000
G1 E-2.24 F4200
;WIPE_START
G1 F7200
G1 X81.22 Y108.71 E-.56466
G1 X81.639 Y108.896 E-.25405
G1 X81.858 Y108.896 E-.12136
G1 X81.892 Y108.884 E-.01993
;WIPE_END
G1 Z.4 F720
G1 X75.47 Y95.984 F9000
G1 Z.2 F720
G1 E3.2 F2400
M204 P600
;TYPE:External perimeter
;WIDTH:0.589696
G1 F1200
G1 X75.56 Y95.946 E.00444
;WIDTH:0.548341
G1 X75.65 Y95.907 E.00412
;WIDTH:0.506986
G1 X75.74 Y95.869 E.00377
;WIDTH:0.465631
G1 X75.83 Y95.83 E.00345
;WIDTH:0.424276
G1 X75.921 Y95.791 E.00314
;WIDTH:0.38292
G1 X75.97 Y95.791 E.00139
M204 P1000
G1 X75.97 Y95.791 F9000
G1 X75.47 Y95.984
M204 P600
;WIDTH:0.589696
G1 F1200
G1 X75.329 Y96.198 E.01165
;WIDTH:0.559572
G1 X75.07 Y96.576 E.01969
;WIDTH:0.553362
G1 X74.966 Y96.804 E.01064
G1 X74.963 Y96.746 E.00247
G1 X74.91 Y96.656 E.00443
G1 X74.438 Y96.017 E.03372
G1 X74.706 Y96.017 E.01137
;WIDTH:0.572709
G1 X75.312 Y96.026 E.0267
;WIDTH:0.589696
G1 X75.412 Y96 E.0047
M204 P1000
G1 X75.412 Y96 F9000
G1 X74.982 Y96.908
M204 P600
;WIDTH:0.485404
G1 F1200
G1 X74.99 Y97.013 E.00387
G1 X74.982 Y96.908 E.00387
M204 P1000
G1 X74.982 Y96.908 F9000
G1 X74.99 Y97.25
M204 P600
;WIDTH:0.38292
G1 F1200
G1 X74.99 Y97.148 E.00288
M204 P1000
G1 E-2.24 F4200
;WIPE_START
G1 F7200
G1 X74.99 Y97.25 E-.05653
;WIPE_END
G1 E-.90347 F4200
G1 Z.4 F720
G1 X72.097 Y80.184 F9000
G1 Z.2 F720
G1 E3.2 F2400
M204 P600
;TYPE:Perimeter
;WIDTH:0.419999
G1 F1200
G1 X72.227 Y80.184 E.00408
G1 X72.512 Y80.252 E.00919
G1 X73.008 Y80.452 E.01677
G1 X73.373 Y80.81 E.01603
G1 X73.573 Y81.159 E.01261
G1 X73.716 Y81.675 E.01679
G1 X73.573 Y82.261 E.01891
G1 X73.391 Y82.553 E.01079
G1 X73.053 Y82.876 E.01466
G1 X72.819 Y83.258 E.01405
G1 X72.344 Y84.246 E.03437
G1 X72.183 Y84.809 E.01836
G1 X72.036 Y85.558 E.02393
G1 X72.036 Y86.822 E.03963
G1 X72.102 Y87.15 E.01049
G1 X72.04 Y87.413 E.00847
G1 X71.869 Y87.833 E.01422
G1 X71.59 Y88.169 E.01369
G1 X71.315 Y88.377 E.01081
G1 X70.799 Y88.596 E.01758
G1 X70.422 Y88.596 E.01182
G1 X69.892 Y88.455 E.0172
G1 X69.573 Y88.221 E.0124
G1 X69.348 Y87.826 E.01425
G1 X69.144 Y87.359 E.01598
G1 X69.144 Y86.982 E.01182
G1 X69.285 Y86.452 E.0172
G1 X69.547 Y86.071 E.0145
G1 X69.835 Y85.738 E.0138
G1 X70.145 Y85.201 E.01944
G1 X70.368 Y84.749 E.0158
G1 X70.722 Y83.744 E.03341
G1 X70.744 Y83.33 E.013
G1 X70.806 Y83.168 E.00544
G1 X70.824 Y82.687 E.01509
G1 X70.817 Y82.164 E.0164
G1 X70.744 Y81.934 E.00757
G1 X70.744 Y81.486 E.01405
G1 X70.859 Y81.19 E.00996
G1 X71.032 Y80.875 E.01127
G1 X71.354 Y80.542 E.01452
G1 X71.784 Y80.37 E.01452
G1 X72.046 Y80.215 E.00954
M204 P1000
G1 X72.046 Y80.215 F9000
G1 X71.942 Y79.834
M204 P600
G1 F1200
G1 X72.403 Y79.807 E.01448
G1 X73.227 Y80.129 E.02774
G1 X73.684 Y80.588 E.02031
G1 X73.88 Y80.911 E.01185
G1 X74.093 Y81.58 E.02201
G1 X74.093 Y81.84 E.00815
G1 X73.938 Y82.385 E.01777
G1 X73.667 Y82.85 E.01688
G1 X73.395 Y83.07 E.01097
G1 X73.151 Y83.44 E.0139
G1 X72.626 Y84.599 E.03989
G1 X72.413 Y85.558 E.0308
G1 X72.413 Y86.806 E.03913
G1 X72.493 Y87.15 E.01107
G1 X72.352 Y87.651 E.01632
G1 X72.159 Y88.116 E.01579
G1 X71.773 Y88.513 E.01736
G1 X71.362 Y88.805 E.01581
G1 X70.885 Y88.973 E.01586
G1 X70.215 Y88.973 E.02101
G1 X69.777 Y88.818 E.01457
G1 X69.61 Y88.72 E.00607
G1 X69.211 Y88.416 E.01573
G1 X68.98 Y87.95 E.01631
G1 X68.767 Y87.445 E.01718
G1 X68.767 Y86.775 E.02101
G1 X68.917 Y86.368 E.0136
G1 X69.011 Y86.18 E.00659
G1 X69.255 Y85.791 E.0144
G1 X69.565 Y85.474 E.0139
G1 X69.736 Y85.177 E.01075
G1 X69.966 Y84.713 E.01624
G1 X70.164 Y84.237 E.01616
G1 X70.333 Y83.735 E.01661
G1 X70.367 Y83.252 E.01518
G1 X70.423 Y83.145 E.00379
G1 X70.447 Y82.982 E.00517
G1 X70.443 Y82.21 E.02421
G1 X70.367 Y82.01 E.00671
G1 X70.367 Y81.41 E.01881
G1 X70.557 Y80.88 E.01765
G1 X70.84 Y80.464 E.01578
G1 X70.906 Y80.435 E.00226
G1 X71.142 Y80.222 E.00997
G1 X71.611 Y80.029 E.0159
G1 X71.89 Y79.864 E.01016
M204 P1000
G1 X71.89 Y79.864 F9000
G1 X71.868 Y79.43
M204 P600
;TYPE:External perimeter
G1 F1200
G1 X72.45 Y79.43 E.01825
G1 X72.931 Y79.59 E.01589
G1 X73.433 Y79.801 E.01707
G1 X73.995 Y80.366 E.02499
G1 X74.191 Y80.7 E.01214
G1 X74.39 Y81.21 E.01716
G1 X74.47 Y81.53 E.01034
G1 X74.47 Y81.89 E.01129
G1 X74.404 Y82.047 E.00534
G1 X74.39 Y82.21 E.00513
G1 X74.231 Y82.671 E.01529
G1 X74.039 Y82.944 E.01046
G1 X73.994 Y83.054 E.00373
G1 X73.787 Y83.27 E.00938
G1 X73.659 Y83.345 E.00465
G1 X73.501 Y83.61 E.00967
G1 X73.196 Y84.231 E.02169
G1 X72.988 Y84.725 E.01681
G1 X72.95 Y84.93 E.00654
G1 X72.892 Y85.069 E.00472
G1 X72.87 Y85.33 E.00821
G1 X72.79 Y85.558 E.00758
G1 X72.79 Y86.822 E.03963
G1 X72.87 Y86.988 E.00578
G1 X72.87 Y87.25 E.00821
G1 X72.811 Y87.392 E.00482
G1 X72.79 Y87.57 E.00562
G1 X72.71 Y87.872 E.0098
G1 X72.478 Y88.329 E.01607
G1 X72.118 Y88.739 E.01711
G1 X71.856 Y88.954 E.01063
G1 X71.778 Y88.974 E.00252
G1 X71.616 Y89.115 E.00673
G1 X71.158 Y89.27 E.01516
G1 X70.992 Y89.35 E.00578
G1 X70.681 Y89.35 E.00975
G1 X70.551 Y89.393 E.00429
G1 X70.506 Y89.37 E.00158
G1 X70.17 Y89.35 E.01055
G1 X69.819 Y89.231 E.01162
G1 X69.628 Y89.19 E.00613
G1 X68.955 Y88.714 E.02585
G1 X68.833 Y88.549 E.00643
G1 X68.39 Y87.552 E.03421
G1 X68.39 Y87.238 E.00985
G1 X68.349 Y87.121 E.00389
G1 X68.387 Y87.017 E.00347
G1 X68.39 Y86.73 E.009
G1 X68.509 Y86.379 E.01162
G1 X68.55 Y86.188 E.00613
G1 X68.732 Y85.927 E.00998
G1 X68.788 Y85.801 E.00432
G1 X68.901 Y85.676 E.00528
G1 X68.944 Y85.57 E.00359
G1 X69.296 Y85.21 E.01579
G1 X69.75 Y84.262 E.03296
G1 X69.972 Y83.622 E.02124
G1 X69.99 Y83.21 E.01293
G1 X70.07 Y82.982 E.00758
G1 X70.07 Y82.278 E.02207
G1 X69.99 Y82.112 E.00578
G1 X69.99 Y81.37 E.02326
G1 X70.192 Y80.775 E.0197
G1 X70.477 Y80.348 E.0161
G1 X70.532 Y80.218 E.00443
G1 X70.93 Y79.902 E.01593
G1 X71.34 Y79.709 E.01421
G1 X71.47 Y79.67 E.00426
G1 X71.817 Y79.461 E.0127
M204 P1000
G1 X71.817 Y79.461 F9000
G1 X72.517 Y80.436
M204 P600
;TYPE:Solid infill
;WIDTH:0.424391
G1 F1200
G1 X73.1 Y81.018 E.02613
G1 X73.252 Y81.276 E.0095
G1 X73.369 Y81.712 E.01432
G1 X73.347 Y81.805 E.00303
G1 X72.12 Y80.578 E.05504
G1 X72.02 Y80.641 E.00375
G1 X71.738 Y80.735 E.00943
G1 X73.216 Y82.213 E.0663
G1 X73.076 Y82.423 E.00801
G1 X72.962 Y82.5 E.00436
G1 X71.409 Y80.946 E.06969
G1 X71.368 Y80.982 E.00173
G1 X71.186 Y81.262 E.01059
G1 X72.699 Y82.776 E.06789
G1 X72.511 Y83.127 E.01263
G1 X71.084 Y81.7 E.06401
G1 X71.084 Y81.867 E.0053
G1 X71.13 Y81.982 E.00393
G1 X71.164 Y82.319 E.01074
G1 X72.335 Y83.49 E.05253
G1 X72.158 Y83.853 E.01281
G1 X71.164 Y82.859 E.04459
G1 X71.139 Y83.239 E.01208
G1 X71.104 Y83.338 E.00333
G1 X71.993 Y84.227 E.03988
G1 X71.869 Y84.643 E.01377
G1 X71.051 Y83.825 E.03669
G1 X70.92 Y84.234 E.01362
G1 X71.782 Y85.095 E.03865
G1 X71.705 Y85.406 E.01016
G1 X71.704 Y85.557 E.00479
G1 X70.784 Y84.636 E.04129
G1 X70.62 Y85.012 E.01301
G1 X71.701 Y86.093 E.04849
G1 X71.698 Y86.63 E.01703
