; generated by PrusaSlicer 2.7.4 on 2024-10-19 at 16:10:16 UTC


;
;

;
;
; 

; external perimeters extrusion width = 0.45mm
; perimeters extrusion width = 0.45mm
; infill extrusion width = 0.45mm
; solid infill extrusion width = 0.45mm
; top infill extrusion width = 0.40mm
; first layer extrusion width = 0.42mm

M73 P0 R2
M201 X2500 Y2500 Z400 E5000 ; sets maximum accelerations, mm/sec^2
M203 X180 Y180 Z12 E80 ; sets maximum feedrates, mm / sec
M204 P2000 R1250 T2500 ; sets acceleration (P, T) and retract acceleration (R), mm/sec^2
M205 X8.00 Y8.00 Z2.00 E10.00 ; sets the jerk limits, mm/sec
M205 S0 T0 ; sets the minimum extruding and travel feed rate, mm/sec

; printing object binary_red.stl id:0 copy 0
; stop printing object binary_red.stl id:0 copy 0

;TYPE:Custom
M862.3 P "MINI" ; printer model check
G90 ; use absolute coordinates
M83 ; extruder relative mode
M104 S170 ; set extruder temp for bed leveling
M140 S60 ; set bed temp
M109 R170 ; wait for bed leveling temp
M190 S60 ; wait for bed temp
M204 T1250 ; set travel acceleration
G28 ; home all without mesh bed level
G29 ; mesh bed leveling 
M204 T2500 ; restore travel acceleration
M104 S215 ; set extruder temp
G92 E0
G1 Y-2 X179 F2400
G1 Z3 F720
M73 P3 R2
M109 S215 ; wait for extruder temp

; intro line
G1 X170 F1000
G1 Z0.2 F720
M73 P4 R2
G1 X110 E8 F900
G1 X40 E10 F700
M73 P7 R1
G92 E0

M221 S95 ; set flow
G21 ; set units to millimeters
G90 ; use absolute coordinates
M83 ; use relative distances for extrusion
M900 K0.2 ; Filament gcode LA 1.5
; ; Filament gcode LA 1.0
M107
;LAYER_CHANGE
;Z:0.2
;HEIGHT:0.2
G1 E-3.2 F4200
M73 P12 R1
G1 Z.4 F720
G1 X82.903 Y70.872 F9000
G1 Z.2 F720
G1 E3.2 F2400
M73 P13 R1
M204 P600
;TYPE:Skirt/Brim
;WIDTH:0.42
G1 F1200
G1 X84.666 Y70.024 E.06134
G1 X101.124 Y69.623 E.51618
G1 X102.306 Y69.911 E.03815
G1 X106.123 Y71.992 E.13631
G1 X106.818 Y72.487 E.02675
M73 P14 R1
G1 X107.469 Y73.125 E.02858
G1 X111.893 Y78.918 E.22854
G1 X112.284 Y79.546 E.0232
G1 X112.657 Y80.498 E.03206
G1 X112.777 Y81.244 E.02369
G1 X112.777 Y82.256 E.03173
G1 X112.655 Y83.007 E.02386
G1 X112.297 Y83.941 E.03136
G1 X111.732 Y84.824 E.03287
G1 X91.004 Y112.675 E1.08855
G1 X90.528 Y113.172 E.02158
M73 P16 R1
G1 X89.621 Y113.774 E.03413
G1 X88.449 Y114.255 E.03972
G1 X87.414 Y114.449 E.03302
G1 X68.096 Y116.057 E.6078
G1 X67.404 Y116.057 E.0217
G1 X66.651 Y115.935 E.02392
M73 P17 R1
G1 X65.728 Y115.537 E.03152
G1 X65.108 Y115.082 E.02411
G1 X64.312 Y114.123 E.03908
G1 X63.885 Y113.167 E.03283
G1 X63.763 Y112.416 E.02386
G1 X63.763 Y111.804 E.01919
G1 X63.885 Y111.053 E.02386
G1 X64.07 Y110.55 E.0168
G1 X82.47 Y71.511 E1.35319
G1 X82.799 Y70.996 E.01916
M73 P19 R1
G1 X82.865 Y70.918 E.0032
M204 P1000
G1 E-2.24 F4200
;WIPE_START
G1 F7200
G1 X82.903 Y70.872 E-.03306
G1 X84.41 Y70.147 E-.92694
;WIPE_END
G1 Z.4 F720
; printing object binary_red.stl id:0 copy 0
G1 X69.552 Y108.952 F9000
G1 Z.2 F720
G1 E3.2 F2400
M204 P600
;TYPE:External perimeter
;WIDTH:0.38292
G1 F1200
G1 X70.169 Y109.145 E.01828
G1 X70.552 Y109.474 E.01427
G1 X70.698 Y109.696 E.00751
G1 X70.87 Y110.184 E.01463
G1 X70.87 Y110.596 E.01165
G1 X70.79 Y110.916 E.00933
G1 X70.571 Y111.404 E.01512
G1 X70.288 Y111.776 E.01321
G1 X70.253 Y111.887 E.00329
G1 X69.256 Y112.884 E.03986
G1 X68.827 Y113.157 E.01438
G1 X68.355 Y113.386 E.01483
G1 X68.188 Y113.43 E.00488
G1 X68.032 Y113.51 E.00496
G1 X67.464 Y113.51 E.01606
G1 X67.228 Y113.43 E.00704
G1 X66.914 Y113.276 E.00989
G1 X66.608 Y113.005 E.01156
G1 X66.434 Y112.675 E.01055
G1 X66.335 Y112.371 E.00904
G1 X66.31 Y111.948 E.01198
G1 X66.366 Y111.81 E.00421
G1 X66.39 Y111.624 E.0053
G1 X66.609 Y111.137 E.0151
G1 X66.731 Y111.003 E.00512
G1 X67.01 Y110.57 E.01456
G1 X67.934 Y109.649 E.03688
M73 P20 R1
G1 X68.044 Y109.612 E.00328
G1 X68.256 Y109.408 E.00832
G1 X68.656 Y109.169 E.01317
G1 X69.152 Y109.03 E.01456
G1 X69.289 Y108.974 E.00418
G1 X69.492 Y108.957 E.00576
M204 P1000
G1 E-2.24 F4200
;WIPE_START
G1 F7200
G1 X69.552 Y108.952 E-.03337
G1 X70.169 Y109.145 E-.35826
G1 X70.552 Y109.474 E-.2798
G1 X70.698 Y109.696 E-.14725
G1 X70.783 Y109.936 E-.14132
;WIPE_END
G1 Z.4 F720
G1 X85.328 Y107.396 F9000
G1 Z.2 F720
G1 E3.2 F2400
M204 P600
;TYPE:Perimeter
;WIDTH:0.419999
G1 F1200
G1 X85.498 Y107.463 E.00573
G1 X86.215 Y107.544 E.02262
G1 X86.783 Y107.564 E.01782
G1 X87.021 Y107.487 E.00784
G1 X87.532 Y107.58 E.01629
G1 X87.997 Y107.77 E.01575
G1 X88.42 Y108.089 E.01661
G1 X88.72 Y108.49 E.0157
G1 X88.899 Y108.875 E.01331
G1 X88.994 Y109.43 E.01765
G1 X88.973 Y109.765 E.01052
G1 X88.823 Y110.172 E.0136
G1 X88.631 Y110.528 E.01268
G1 X88.321 Y110.825 E.01346
G1 X87.445 Y111.213 E.03004
G1 X86.775 Y111.213 E.02101
G1 X86.368 Y111.063 E.0136
G1 X86.18 Y110.969 E.00659
G1 X85.783 Y110.719 E.01471
G1 X85.448 Y110.398 E.01455
G1 X84.972 Y110.18 E.01642
G1 X84.479 Y110.053 E.01596
G1 X84.757 Y109.872 E.0104
G1 X84.977 Y109.56 E.01197
G1 X85.244 Y109.111 E.01638
G1 X85.391 Y108.609 E.0164
G1 X85.385 Y108.214 E.01239
G1 X85.418 Y108.138 E.0026
M73 P21 R1
G1 X85.425 Y107.892 E.00772
G1 X85.34 Y107.454 E.01399
M204 P1000
G1 X85.34 Y107.454 F9000
G1 X84.75 Y106.756
M204 P600
;TYPE:External perimeter
G1 F1200
G1 X84.791 Y106.789 E.00165
G1 X84.982 Y106.83 E.00613
G1 X85.294 Y106.934 E.01031
G1 X85.559 Y107.091 E.00966
G1 X86.231 Y107.167 E.0212
G1 X86.755 Y107.188 E.01644
G1 X86.906 Y107.109 E.00534
G1 X87.25 Y107.11 E.01079
G1 X87.4 Y107.173 E.0051
G1 X87.57 Y107.19 E.00536
G1 X87.872 Y107.27 E.0098
G1 X88.331 Y107.503 E.01614
G1 X88.714 Y107.838 E.01595
G1 X88.955 Y108.127 E.0118
G1 X88.977 Y108.207 E.0026
G1 X89.115 Y108.364 E.00655
G1 X89.27 Y108.822 E.01516
G1 X89.35 Y108.988 E.00578
G1 X89.35 Y109.301 E.00981
G1 X89.4 Y109.43 E.00434
G1 X89.353 Y109.523 E.00327
G1 X89.35 Y109.81 E.009
G1 X89.231 Y110.161 E.01162
G1 X89.19 Y110.352 E.00613
G1 X89.008 Y110.613 E.00998
G1 X88.954 Y110.736 E.00421
G1 X88.548 Y111.147 E.01811
G1 X87.552 Y111.59 E.03418
G1 X87.241 Y111.59 E.00975
G1 X87.111 Y111.633 E.00429
G1 X87.066 Y111.61 E.00158
G1 X86.73 Y111.59 E.01055
G1 X86.379 Y111.471 E.01162
G1 X86.188 Y111.43 E.00613
G1 X85.926 Y111.248 E.01
G1 X85.801 Y111.193 E.00428
G1 X85.676 Y111.079 E.0053
G1 X85.567 Y111.035 E.00369
G1 X85.207 Y110.688 E.01568
G1 X84.985 Y110.583 E.0077
G1 X84.474 Y110.432 E.01671
G1 X84.111 Y110.424 E.01138
G1 X83.637 Y110.254 E.01579
G1 X84.017 Y109.891 E.01648
G1 X84.47 Y109.618 E.01658
G1 X84.659 Y109.358 E.01008
G1 X84.918 Y108.923 E.01587
G1 X84.947 Y108.724 E.00631
G1 X85.004 Y108.585 E.00471
G1 X85.028 Y108.101 E.01519
G1 X85.054 Y107.964 E.00437
G1 X84.948 Y107.413 E.01759
G1 X84.835 Y107.267 E.00579
G1 X84.83 Y107.005 E.00822
G1 X84.768 Y106.813 E.00633
M204 P1000
G1 E-2.24 F4200
;WIPE_START
G1 F7200
G1 X84.75 Y106.756 E-.03313
G1 X84.791 Y106.789 E-.02917
G1 X84.982 Y106.83 E-.10826
G1 X85.294 Y106.934 E-.18225
G1 X85.559 Y107.091 E-.17069
G1 X86.231 Y107.167 E-.37477
G1 X86.342 Y107.171 E-.06173
;WIPE_END
G1 Z.4 F720
G1 X88.721 Y108.925 F9000
G1 Z.2 F720
G1 E3.2 F2400
M73 P22 R1
M204 P600
;TYPE:Solid infill
;WIDTH:0.451148
G1 F1200
G1 X87.883 Y108.087 E.04023
G1 X87.629 Y107.966 E.00955
G1 X87.427 Y107.902 E.00719
G1 X87.259 Y107.88 E.00575
G1 X87.118 Y107.826 E.00513
G1 X87.057 Y107.839 E.00212
G1 X88.634 Y109.415 E.07568
G1 X88.634 Y109.684 E.00913
G1 X88.551 Y109.91 E.00817
G1 X86.539 Y107.897 E.09661
G1 X85.936 Y107.872 E.02049
G1 X88.362 Y110.298 E.11646
G1 X88.211 Y110.489 E.00826
G1 X88.054 Y110.567 E.00595
G1 X85.73 Y108.243 E.11156
G1 X85.725 Y108.675 E.01466
G1 X85.689 Y108.78 E.00377
G1 X87.668 Y110.759 E.095
G1 X87.369 Y110.875 E.01089
G1 X87.217 Y110.885 E.00517
G1 X85.562 Y109.23 E.07945
G1 X85.354 Y109.599 E.01438
M73 P23 R1
G1 X86.78 Y111.025 E.06845
M204 P1000
G1 E-2.24 F4200
;WIPE_START
G1 F7200
G1 X85.555 Y109.8 E-.96
;WIPE_END
G1 Z.4 F720
G1 X77.847 Y100.168 F9000
G1 Z.2 F720
G1 E3.2 F2400
M204 P600
;TYPE:Perimeter
;WIDTH:0.419999
G1 F1200
G1 X77.831 Y100.173 E.00053
G1 X77.259 Y99.925 E.01955
G1 X76.662 Y99.598 E.02134
G1 X76.375 Y99.313 E.01268
G1 X76.15 Y98.91 E.01447
G1 X75.967 Y98.41 E.01669
G1 X75.967 Y97.81 E.01881
G1 X76.157 Y97.28 E.01765
G1 X76.468 Y96.818 E.01746
G1 X76.585 Y96.756 E.00415
G1 X76.822 Y96.542 E.01001
G1 X77.743 Y96.217 E.03062
G1 X78.19 Y95.953 E.01628
G1 X78.606 Y95.641 E.0163
G1 X79.004 Y95.236 E.0178
G1 X79.399 Y94.74 E.01988
G1 X79.647 Y94.231 E.01775
G1 X79.884 Y93.52 E.0235
G1 X80.061 Y93.064 E.01534
G1 X80.542 Y92.583 E.02133
G1 X80.844 Y92.432 E.01059
G1 X81.587 Y92.207 E.02434
G1 X82.225 Y92.361 E.02058
G1 X82.749 Y92.611 E.0182
G1 X83.199 Y93.063 E.02
M73 P24 R1
G1 X83.35 Y93.39 E.01129
G1 X83.533 Y93.895 E.01684
G1 X83.533 Y94.325 E.01348
G1 X83.383 Y94.733 E.01363
G1 X83.156 Y95.155 E.01502
G1 X82.864 Y95.573 E.01599
G1 X82.45 Y95.84 E.01545
G1 X82.113 Y95.958 E.0112
G1 X81.656 Y96.171 E.01581
G1 X81.215 Y96.499 E.01723
G1 X80.178 Y97.541 E.04609
G1 X80 Y97.81 E.01011
G1 X79.646 Y98.488 E.02398
G1 X79.48 Y98.989 E.01655
G1 X79.205 Y99.435 E.01643
G1 X78.996 Y99.682 E.01014
G1 X78.599 Y99.906 E.01429
G1 X78.121 Y100.093 E.01609
G1 X77.905 Y100.152 E.00702
M204 P1000
G1 X77.905 Y100.152 F9000
G1 X77.953 Y100.55
M204 P600
;TYPE:External perimeter
G1 F1200
G1 X77.831 Y100.55 E.00383
G1 X77.309 Y100.391 E.01711
G1 X76.829 Y100.151 E.01683
G1 X76.557 Y99.959 E.01044
G1 X76.445 Y99.914 E.00378
G1 X76.082 Y99.554 E.01603
G1 X75.869 Y99.201 E.01293
G1 X75.59 Y98.512 E.02331
G1 X75.59 Y97.77 E.02326
G1 X75.709 Y97.419 E.01162
G1 X75.75 Y97.228 E.00613
G1 X76.207 Y96.544 E.02579
G1 X76.343 Y96.458 E.00505
G1 X76.61 Y96.222 E.01117
G1 X76.859 Y96.109 E.00857
G1 X77.51 Y95.906 E.02138
G1 X77.724 Y95.745 E.0084
G1 X77.936 Y95.661 E.00715
G1 X78.2 Y95.432 E.01096
G1 X78.338 Y95.374 E.00469
G1 X78.736 Y94.971 E.01776
G1 X78.789 Y94.844 E.00431
G1 X78.998 Y94.629 E.0094
G1 X79.256 Y94.173 E.01643
G1 X79.494 Y93.538 E.02126
G1 X79.51 Y93.308 E.00723
G1 X79.743 Y92.849 E.01614
G1 X80.319 Y92.273 E.02554
G1 X81.148 Y91.91 E.02838
G1 X81.302 Y91.91 E.00483
G1 X81.468 Y91.83 E.00578
G1 X81.73 Y91.83 E.00821
G1 X81.872 Y91.889 E.00482
G1 X82.05 Y91.91 E.00562
G1 X82.401 Y92.029 E.01162
G1 X82.581 Y92.07 E.00579
M73 P25 R1
G1 X82.704 Y92.181 E.00519
G1 X82.954 Y92.282 E.00845
G1 X83.517 Y92.848 E.02503
G1 X83.75 Y93.37 E.01792
G1 X83.91 Y93.85 E.01586
G1 X83.91 Y94.37 E.0163
G1 X83.791 Y94.72 E.01159
G1 X83.75 Y94.912 E.00616
G1 X83.547 Y95.198 E.011
G1 X83.299 Y95.641 E.01592
G1 X82.972 Y95.997 E.01516
G1 X82.79 Y96.074 E.0062
G1 X82.628 Y96.187 E.00619
G1 X81.878 Y96.481 E.02526
G1 X81.62 Y96.709 E.0108
G1 X81.482 Y96.765 E.00467
G1 X80.445 Y97.808 E.04612
G1 X80.388 Y97.941 E.00454
G1 X80.279 Y98.064 E.00515
G1 X79.99 Y98.678 E.02128
G1 X79.751 Y99.311 E.02121
G1 X79.559 Y99.584 E.01046
G1 X79.514 Y99.695 E.00376
G1 X79.233 Y99.978 E.0125
G1 X78.72 Y100.271 E.01852
G1 X78.272 Y100.47 E.01537
G1 X78.121 Y100.47 E.00473
G1 X78.007 Y100.524 E.00396
M204 P1000
G1 E-2.24 F4200
;WIPE_START
G1 F7200
G1 X77.953 Y100.55 E-.03321
G1 X77.831 Y100.55 E-.06761
G1 X77.309 Y100.391 E-.3024
G1 X76.829 Y100.151 E-.2974
G1 X76.557 Y99.959 E-.1845
G1 X76.445 Y99.914 E-.06689
G1 X76.435 Y99.904 E-.00799
;WIPE_END
G1 Z.4 F720
G1 X82.178 Y92.528 F9000
G1 Z.2 F720
G1 E3.2 F2400
M204 P600
;TYPE:Solid infill
;WIDTH:0.43181
G1 F1200
G1 X82.92 Y93.27 E.03393
G1 X83.054 Y93.55 E.01004
G1 X83.194 Y93.975 E.01447
G1 X83.194 Y94.094 E.00385
G1 X81.677 Y92.577 E.06937
G1 X81.63 Y92.559 E.00163
G1 X81.217 Y92.668 E.01381
G1 X83.089 Y94.539 E.08558
M73 P26 R1
G1 X83.042 Y94.69 E.00511
G1 X82.897 Y94.897 E.00817
G1 X80.822 Y92.822 E.09489
G1 X80.743 Y92.862 E.00286
G1 X80.527 Y93.078 E.00988
G1 X82.7 Y95.25 E.09935
G1 X82.567 Y95.389 E.00622
G1 X82.377 Y95.477 E.00677
G1 X80.286 Y93.386 E.09562
G1 X80.221 Y93.524 E.00493
G1 X80.194 Y93.708 E.00601
G1 X80.153 Y93.803 E.00335
G1 X81.992 Y95.642 E.0841
G1 X81.615 Y95.815 E.01341
G1 X80.021 Y94.221 E.07289
G1 X79.848 Y94.598 E.01341
G1 X81.29 Y96.04 E.06594
G1 X81.224 Y96.097 E.00282
G1 X81.067 Y96.177 E.0057
G1 X80.972 Y96.272 E.00434
G1 X79.657 Y94.957 E.06014
G1 X79.399 Y95.249 E.0126
M73 P27 R1
G1 X80.696 Y96.546 E.05931
G1 X80.421 Y96.821 E.01258
G1 X79.16 Y95.56 E.05767
G1 X78.884 Y95.834 E.01258
G1 X80.145 Y97.095 E.05767
G1 X79.879 Y97.379 E.01258
G1 X78.569 Y96.068 E.05993
G1 X78.378 Y96.238 E.00827
G1 X78.249 Y96.299 E.00461
G1 X79.658 Y97.708 E.06443
G1 X79.47 Y98.07 E.01319
G1 X77.91 Y96.51 E.07134
G1 X77.835 Y96.55 E.00275
G1 X77.505 Y96.654 E.01119
G1 X79.305 Y98.455 E.08234
G1 X79.212 Y98.753 E.01009
G1 X79.16 Y98.86 E.00385
G1 X77.093 Y96.792 E.09455
G1 X77.013 Y96.829 E.00285
G1 X76.779 Y97.028 E.00993
G1 X78.951 Y99.201 E.09935
G1 X78.905 Y99.292 E.0033
M73 P28 R1
G1 X78.791 Y99.406 E.00521
G1 X78.679 Y99.479 E.00432
G1 X76.545 Y97.344 E.09761
G1 X76.458 Y97.451 E.00446
G1 X76.373 Y97.722 E.00918
G1 X78.319 Y99.669 E.08901
G1 X77.894 Y99.794 E.01433
G1 X76.307 Y98.206 E.0726
G1 X76.307 Y98.336 E.0042
G1 X76.347 Y98.414 E.00283
G1 X76.445 Y98.748 E.01126
G1 X76.536 Y98.927 E.00649
G1 X76.65 Y99.099 E.00667
G1 X77.326 Y99.776 E.03094
M204 P1000
G1 E-2.24 F4200
;WIPE_START
G1 F7200
G1 X76.65 Y99.099 E-.53018
G1 X76.536 Y98.927 E-.11435
G1 X76.445 Y98.748 E-.11128
G1 X76.347 Y98.414 E-.19289
G1 X76.338 Y98.396 E-.0113
;WIPE_END
G1 Z.4 F720
G1 X85.789 Y73.43 F9000
G1 Z.2 F720
G1 E3.2 F2400
M204 P600
;TYPE:External perimeter
;WIDTH:0.38292
G1 F1200
G1 X86.048 Y73.43 E.00732
M204 P1000
G1 E-2.24 F4200
M73 P29 R1
;WIPE_START
G1 F7200
G1 X85.789 Y73.43 E-.14353
;WIPE_END
G1 E-.81647 F4200
G1 Z.4 F720
G1 X84.618 Y74.419 F9000
G1 Z.2 F720
G1 E3.2 F2400
M204 P600
;WIDTH:0.407243
G1 F1200
G1 X84.563 Y74.49 E.00272
;WIDTH:0.419999
G1 X84.59 Y74.262 E.0072
G1 X84.59 Y73.655 E.01903
G1 X84.789 Y73.029 E.0206
G1 X84.83 Y72.756 E.00866
G1 X85.085 Y73.013 E.01135
G1 X85.503 Y73.339 E.01662
;WIDTH:0.417079
G1 X85.789 Y73.43 E.00934
;WIDTH:0.393932
G1 X85.688 Y73.453 E.00302
;WIDTH:0.419999
G1 X85.252 Y73.683 E.01546
G1 X84.646 Y74.285 E.02678
G1 X84.63 Y74.36 E.0024
M204 P1000
G1 X84.63 Y74.36 F9000
G1 X85.035 Y73.398
M204 P600
;TYPE:Perimeter
;WIDTH:0.355894
G1 F1200
G1 X84.976 Y73.432 E.00177
G1 X85.035 Y73.466 E.00177
G1 X85.055 Y73.432 E.00103
M204 P1000
G1 E-2.24 F4200
;WIPE_START
G1 F7200
G1 X85.035 Y73.466 E-.02186
G1 X84.976 Y73.432 E-.03774
G1 X85.035 Y73.398 E-.03774
;WIPE_END
G1 E-.86266 F4200
G1 Z.4 F720
G1 X84.47 Y74.864 F9000
G1 Z.2 F720
G1 E3.2 F2400
M204 P600
;TYPE:External perimeter
;WIDTH:0.38292
G1 F1200
G1 X84.51 Y74.668 E.00566
M204 P1000
G1 E-2.24 F4200
;WIPE_START
G1 F7200
G1 X84.47 Y74.864 E-.11086
;WIPE_END
G1 E-.84914 F4200
G1 Z.4 F720
G1 X100.338 Y75.01 F9000
G1 Z.2 F720
M73 P30 R1
G1 E3.2 F2400
M204 P600
;TYPE:Perimeter
;WIDTH:0.419999
G1 F1200
G1 X100.668 Y74.825 E.01186
G1 X101.348 Y74.231 E.02831
G1 X101.511 Y73.871 E.01239
G1 X101.63 Y73.364 E.01633
G1 X101.975 Y73.716 E.01545
G1 X102.285 Y73.944 E.01207
G1 X102.748 Y74.179 E.01628
G1 X103.209 Y74.379 E.01576
G1 X104.24 Y74.651 E.03343
G1 X104.679 Y74.863 E.01529
G1 X104.985 Y75.164 E.01346
G1 X105.283 Y75.574 E.01589
G1 X105.374 Y75.819 E.00819
G1 X105.534 Y76.541 E.02319
G1 X105.618 Y76.8 E.00854
G1 X105.82 Y77.287 E.01653
G1 X106.047 Y77.742 E.01594
G1 X106.499 Y78.445 E.0262
G1 X107.621 Y79.562 E.04964
G1 X107.802 Y79.667 E.00656
G1 X108.033 Y79.892 E.01011
G1 X108.287 Y80.031 E.00908
G1 X108.759 Y80.223 E.01598
G1 X109.184 Y80.645 E.01878
G1 X109.393 Y80.992 E.0127
G1 X109.613 Y81.492 E.01713
G1 X109.613 Y82.008 E.01618
G1 X109.423 Y82.54 E.01771
G1 X109.119 Y82.997 E.01721
G1 X108.678 Y83.358 E.01787
G1 X108.081 Y83.613 E.02035
G1 X107.573 Y83.613 E.01593
G1 X106.805 Y83.301 E.02599
G1 X106.448 Y82.989 E.01487
G1 X106.1 Y82.509 E.01859
G1 X105.887 Y81.851 E.02169
G1 X105.882 Y81.321 E.01662
G1 X105.807 Y81.125 E.00658
M73 P31 R1
G1 X105.805 Y80.865 E.00815
G1 X105.637 Y80.327 E.01767
G1 X105.242 Y79.623 E.02531
G1 X105.101 Y79.429 E.00752
G1 X104.821 Y79.118 E.01312
G1 X104.302 Y78.69 E.02109
G1 X103.827 Y78.41 E.01729
G1 X103.595 Y78.339 E.00761
G1 X103.292 Y78.18 E.01073
