; generated by PrusaSlicer 2.7.4 on 2024-10-19 at 16:09:25 UTC


;
;

;
;
; 

; external perimeters extrusion width = 0.45mm
; perimeters extrusion width = 0.45mm
; infill extrusion width = 0.45mm
; solid infill extrusion width = 0.45mm
; top infill extrusion width = 0.40mm
; first layer extrusion width = 0.42mm

M73 P0 R2
M201 X2500 Y2500 Z400 E5000 ; sets maximum accelerations, mm/sec^2
M203 X180 Y180 Z12 E80 ; sets maximum feedrates, mm / sec
M204 P2000 R1250 T2500 ; sets acceleration (P, T) and retract acceleration (R), mm/sec^2
M205 X8.00 Y8.00 Z2.00 E10.00 ; sets the jerk limits, mm/sec
M205 S0 T0 ; sets the minimum extruding and travel feed rate, mm/sec

; printing object binary_blue.stl id:0 copy 0
; stop printing object binary_blue.stl id:0 copy 0

;TYPE:Custom
M862.3 P "MINI" ; printer model check
G90 ; use absolute coordinates
M83 ; extruder relative mode
M104 S170 ; set extruder temp for bed leveling
M140 S60 ; set bed temp
M109 R170 ; wait for bed leveling temp
M190 S60 ; wait for bed temp
M204 T1250 ; set travel acceleration
G28 ; home all without mesh bed level
G29 ; mesh bed leveling 
M204 T2500 ; restore travel acceleration
M104 S215 ; set extruder temp
G92 E0
G1 Y-2 X179 F2400
G1 Z3 F720
M73 P3 R2
M109 S215 ; wait for extruder temp

; intro line
G1 X170 F1000
G1 Z0.2 F720
M73 P4 R2
G1 X110 E8 F900
G1 X40 E10 F700
M73 P7 R2
G92 E0

M221 S95 ; set flow
G21 ; set units to millimeters
G90 ; use absolute coordinates
M83 ; use relative distances for extrusion
M900 K0.2 ; Filament gcode LA 1.5
; ; Filament gcode LA 1.0
M107
;LAYER_CHANGE
;Z:0.2
;HEIGHT:0.2
G1 E-3.2 F4200
M73 P11 R1
G1 Z.4 F720
M73 P12 R1
G1 X77.839 Y74.651 F9000
G1 Z.2 F720
G1 E3.2 F2400
M204 P600
;TYPE:Skirt/Brim
;WIDTH:0.42
G1 F1200
G1 X78.511 Y73.979 E.0298
G1 X90.168 Y66.236 E.43878
G1 X90.915 Y65.847 E.02641
M73 P13 R1
G1 X91.628 Y65.594 E.02372
G1 X92.338 Y65.45 E.02271
G1 X111.698 Y63.93 E.60889
G1 X112.576 Y63.923 E.02753
M73 P14 R1
G1 X113.328 Y64.045 E.02389
G1 X114.186 Y64.404 E.02916
G1 X114.805 Y64.84 E.02374
G1 X115.662 Y65.848 E.04148
G1 X116.095 Y66.812 E.03313
G1 X116.217 Y67.564 E.02389
G1 X116.18 Y68.592 E.03225
G1 X110.32 Y101.588 E1.05076
G1 X110.069 Y102.306 E.02385
M73 P15 R1
G1 X108.089 Y105.954 E.13014
G1 X107.484 Y106.834 E.03348
G1 X106.818 Y107.493 E.02938
G1 X105.97 Y108.081 E.03235
G1 X102.242 Y110.141 E.13355
G1 X101.092 Y110.437 E.03723
M73 P16 R1
G1 X94.981 Y109.946 E.19222
G1 X79.137 Y108.426 E.49906
G1 X78.062 Y108.049 E.03572
G1 X69.534 Y102.469 E.31954
M73 P17 R1
G1 X68.812 Y101.892 E.02898
G1 X68.336 Y101.395 E.02158
G1 X67.696 Y100.434 E.0362
G1 X67.483 Y99.966 E.01612
G1 X67.219 Y99.008 E.03116
G1 X67.159 Y97.892 E.03504
G1 X67.306 Y96.746 E.03623
G1 X67.512 Y96.061 E.02243
G1 X77.053 Y75.942 E.69816
G1 X77.412 Y75.234 E.02489
M73 P18 R1
G1 X77.804 Y74.699 E.0208
M204 P1000
G1 E-2.24 F4200
;WIPE_START
G1 F7200
G1 X77.839 Y74.651 E-.03292
G1 X78.511 Y73.979 E-.52665
G1 X79.113 Y73.579 E-.40043
;WIPE_END
G1 Z.4 F720
; printing object binary_blue.stl id:0 copy 0
G1 X113.364 Y66.964 F9000
G1 Z.2 F720
G1 E3.2 F2400
M204 P600
;TYPE:External perimeter
;WIDTH:0.38292
G1 F1200
M73 P19 R1
G1 X113.546 Y67.305 E.01093
G1 X113.59 Y67.472 E.00488
G1 X113.659 Y67.628 E.00482
G1 X113.67 Y68.032 E.01143
G1 X113.615 Y68.169 E.00417
G1 X113.59 Y68.356 E.00533
G1 X113.371 Y68.843 E.0151
G1 X113.249 Y68.978 E.00514
G1 X112.971 Y69.41 E.01452
G1 X112.056 Y70.324 E.03656
G1 X111.994 Y70.351 E.00191
G1 X111.725 Y70.572 E.00984
G1 X111.324 Y70.811 E.0132
G1 X110.828 Y70.95 E.01456
G1 X110.691 Y71.005 E.00417
G1 X110.424 Y71.03 E.00758
G1 X109.936 Y70.891 E.01435
G1 X109.629 Y70.71 E.01008
G1 X109.256 Y70.267 E.01637
G1 X109.137 Y69.873 E.01164
G1 X109.11 Y69.384 E.01385
G1 X109.19 Y69.064 E.00933
G1 X109.409 Y68.576 E.01512
G1 X109.686 Y68.21 E.01298
G1 X109.733 Y68.087 E.00372
G1 X110.733 Y67.089 E.03994
G1 X111.153 Y66.823 E.01405
G1 X111.625 Y66.594 E.01483
G1 X111.792 Y66.55 E.00488
G1 X111.948 Y66.47 E.00496
G1 X112.512 Y66.473 E.01595
G1 X112.752 Y66.55 E.00713
G1 X113.064 Y66.71 E.00991
G1 X113.318 Y66.926 E.00943
M204 P1000
G1 E-2.24 F4200
;WIPE_START
G1 F7200
G1 X113.364 Y66.964 E-.03306
G1 X113.546 Y67.305 E-.2142
G1 X113.59 Y67.472 E-.0957
G1 X113.659 Y67.628 E-.09453
G1 X113.67 Y68.032 E-.22397
G1 X113.615 Y68.169 E-.08181
G1 X113.59 Y68.356 E-.10455
G1 X113.507 Y68.54 E-.11218
;WIPE_END
G1 Z.4 F720
G1 X82.508 Y80.371 F9000
G1 Z.2 F720
G1 E3.2 F2400
M204 P600
;TYPE:Perimeter
;WIDTH:0.419999
G1 F1200
M73 P20 R1
G1 X81.957 Y79.897 E.02279
G1 X81.482 Y79.644 E.01687
G1 X80.991 Y79.48 E.01623
G1 X80.545 Y79.205 E.01643
G1 X80.298 Y78.996 E.01014
G1 X80.02 Y78.508 E.01761
G1 X79.807 Y77.833 E.02219
G1 X79.824 Y77.722 E.00352
G1 X79.99 Y77.23 E.01628
G1 X80.208 Y76.757 E.01633
G1 X80.588 Y76.377 E.01685
G1 X80.99 Y76.15 E.01448
G1 X81.492 Y75.967 E.01675
G1 X82.008 Y75.967 E.01618
G1 X82.111 Y76.022 E.00366
G1 X82.312 Y76.047 E.00635
G1 X82.775 Y76.279 E.01624
G1 X83.132 Y76.591 E.01487
G1 X83.48 Y77.071 E.01859
G1 X83.693 Y77.74 E.02201
G1 X83.693 Y78 E.00815
G1 X83.588 Y78.275 E.00923
G1 X83.533 Y78.518 E.00781
G1 X83.274 Y78.983 E.01669
G1 X82.966 Y79.4 E.01625
G1 X82.661 Y79.862 E.01736
G1 X82.525 Y80.314 E.0148
M204 P1000
G1 X82.525 Y80.314 F9000
G1 X82.752 Y81.285
M204 P600
;TYPE:External perimeter
G1 F1200
G1 X82.494 Y81.048 E.01098
G1 X82.183 Y80.584 E.01751
G1 X81.96 Y80.37 E.00969
G1 X81.581 Y80.12 E.01424
G1 X81.302 Y79.992 E.00962
G1 X80.669 Y79.751 E.02124
G1 X80.396 Y79.559 E.01046
G1 X80.285 Y79.514 E.00376
G1 X80.002 Y79.233 E.0125
G1 X79.709 Y78.72 E.01852
G1 X79.51 Y78.272 E.01537
G1 X79.51 Y78.118 E.00483
G1 X79.43 Y77.952 E.00578
G1 X79.43 Y77.69 E.00821
G1 X79.664 Y77.029 E.02199
G1 X79.881 Y76.551 E.01646
G1 X80.367 Y76.065 E.02155
G1 X80.749 Y75.829 E.01408
G1 X81.222 Y75.67 E.01565
G1 X81.388 Y75.59 E.00578
G1 X82.05 Y75.59 E.02076
G1 X82.37 Y75.67 E.01034
G1 X82.591 Y75.749 E.00736
G1 X83.049 Y75.982 E.01611
G1 X83.595 Y76.527 E.02419
G1 X83.791 Y76.859 E.01209
G1 X83.99 Y77.37 E.01719
G1 X84.07 Y77.69 E.01034
M73 P21 R1
G1 X84.07 Y78.05 E.01129
G1 X83.928 Y78.437 E.01293
G1 X83.91 Y78.672 E.00739
G1 X83.738 Y78.923 E.00954
G1 X83.67 Y79.07 E.00508
G1 X83.479 Y79.344 E.01047
G1 X83.434 Y79.455 E.00376
G1 X83.168 Y79.734 E.01209
G1 X83.116 Y79.867 E.00448
G1 X83.017 Y80.003 E.00527
G1 X82.89 Y80.401 E.0131
G1 X82.83 Y81.101 E.02203
G1 X82.775 Y81.23 E.0044
M204 P1000
G1 E-2.24 F4200
;WIPE_START
G1 F7200
G1 X82.752 Y81.285 E-.03304
G1 X82.494 Y81.048 E-.19414
G1 X82.183 Y80.584 E-.30955
G1 X81.96 Y80.37 E-.17128
G1 X81.581 Y80.12 E-.25161
G1 X81.58 Y80.12 E-.00038
;WIPE_END
G1 Z.4 F720
G1 X83.388 Y77.319 F9000
G1 Z.2 F720
G1 E3.2 F2400
M204 P600
;TYPE:Solid infill
;WIDTH:0.421693
G1 F1200
G1 X82.643 Y76.587 E.03289
G1 X82.216 Y76.381 E.01493
G1 X82.041 Y76.356 E.00557
G1 X81.935 Y76.307 E.00368
G1 X81.84 Y76.307 E.00299
G1 X83.354 Y77.82 E.06741
G1 X83.354 Y77.926 E.00334
G1 X83.238 Y78.241 E.01057
G1 X81.377 Y76.379 E.08291
G1 X81.151 Y76.446 E.00742
G1 X80.987 Y76.525 E.00573
G1 X83.077 Y78.615 E.09309
G1 X82.971 Y78.84 E.00783
G1 X82.881 Y78.955 E.0046
G1 X80.686 Y76.759 E.09779
G1 X80.496 Y76.949 E.00846
M73 P22 R1
G1 X80.446 Y77.055 E.00369
G1 X82.646 Y79.256 E.09801
G1 X82.545 Y79.368 E.00475
G1 X82.439 Y79.585 E.00761
G1 X80.276 Y77.421 E.09636
G1 X80.158 Y77.787 E.01211
G1 X80.188 Y77.869 E.00275
G1 X81.676 Y79.356 E.06625
G1 X81.135 Y79.17 E.01802
G1 X80.904 Y79.054 E.00814
G1 X80.768 Y78.942 E.00555
G1 X80.689 Y78.905 E.00275
G1 X80.15 Y78.366 E.02401
M204 P1000
G1 E-2.24 F4200
;WIPE_START
G1 F7200
G1 X80.689 Y78.905 E-.42242
G1 X80.768 Y78.942 E-.04834
G1 X80.904 Y79.054 E-.09763
G1 X81.135 Y79.17 E-.14325
G1 X81.558 Y79.316 E-.24836
;WIPE_END
G1 Z.4 F720
G1 X95.526 Y69.901 F9000
G1 Z.2 F720
G1 E3.2 F2400
M204 P600
;TYPE:Perimeter
;WIDTH:0.419999
G1 F1200
G1 X95.169 Y70.157 E.01377
G1 X95.063 Y70.317 E.00602
G1 X94.768 Y70.822 E.01834
G1 X94.606 Y71.307 E.01603
G1 X94.595 Y71.766 E.0144
G1 X94.562 Y71.842 E.0026
G1 X94.555 Y72.088 E.00772
G1 X94.652 Y72.584 E.01585
G1 X94.479 Y72.516 E.00583
M73 P23 R1
G1 X93.998 Y72.445 E.01524
G1 X93.18 Y72.414 E.02567
G1 X92.831 Y72.493 E.01122
G1 X92.329 Y72.352 E.01635
G1 X91.864 Y72.159 E.01579
G1 X91.467 Y71.773 E.01736
G1 X91.175 Y71.362 E.01581
G1 X91.007 Y70.885 E.01586
G1 X91.007 Y70.215 E.02101
G1 X91.189 Y69.71 E.01683
G1 X91.498 Y69.297 E.01617
G1 X91.864 Y68.941 E.01601
G1 X92.502 Y68.687 E.02153
G1 X92.79 Y68.608 E.00936
G1 X93.191 Y68.728 E.01312
G1 X93.431 Y68.767 E.00762
G1 X93.73 Y68.94 E.01083
G1 X94.54 Y69.568 E.03214
G1 X95.041 Y69.775 E.017
G1 X95.468 Y69.886 E.01383
M204 P1000
G1 X95.468 Y69.886 F9000
G1 X96.443 Y69.736
M204 P600
;TYPE:External perimeter
;WIDTH:0.419609
G1 F1200
G1 X96.308 Y69.748 E.00425
;WIDTH:0.419999
G1 X95.953 Y70.078 E.0152
G1 X95.501 Y70.362 E.01674
G1 X95.383 Y70.516 E.00608
G1 X95.062 Y71.058 E.01975
G1 X95.033 Y71.256 E.00627
G1 X94.976 Y71.395 E.00471
G1 X94.951 Y71.879 E.0152
G1 X94.926 Y72.016 E.00437
G1 X95.032 Y72.567 E.01759
G1 X95.145 Y72.713 E.00579
G1 X95.15 Y72.975 E.00822
G1 X95.23 Y73.224 E.0082
G1 X95.189 Y73.191 E.00165
G1 X94.998 Y73.15 E.00613
G1 X94.602 Y73.024 E.01303
G1 X94.498 Y72.919 E.00463
G1 X93.984 Y72.821 E.01641
G1 X93.166 Y72.791 E.02567
G1 X92.993 Y72.87 E.00596
G1 X92.73 Y72.87 E.00825
G1 X92.588 Y72.811 E.00482
G1 X92.41 Y72.79 E.00562
G1 X92.108 Y72.71 E.0098
G1 X91.651 Y72.478 E.01607
G1 X91.241 Y72.118 E.01711
G1 X91.026 Y71.856 E.01063
G1 X91.006 Y71.778 E.00252
G1 X90.865 Y71.616 E.00673
G1 X90.71 Y71.158 E.01516
G1 X90.63 Y70.992 E.00578
G1 X90.63 Y70.678 E.00985
G1 X90.589 Y70.561 E.00389
G1 X90.627 Y70.457 E.00347
G1 X90.63 Y70.17 E.009
G1 X90.749 Y69.819 E.01162
G1 X90.79 Y69.628 E.00613
G1 X91.281 Y68.945 E.02637
G1 X91.651 Y68.622 E.0154
G1 X92.348 Y68.31 E.02394
G1 X92.502 Y68.31 E.00483
G1 X92.668 Y68.23 E.00578
G1 X92.85 Y68.23 E.00571
M73 P24 R1
G1 X92.981 Y68.283 E.00443
G1 X93.17 Y68.31 E.00599
G1 X93.31 Y68.368 E.00475
G1 X93.49 Y68.39 E.00569
G1 X93.711 Y68.469 E.00736
G1 X93.984 Y68.661 E.01046
G1 X94.093 Y68.705 E.00369
G1 X94.291 Y68.897 E.00865
G1 X94.417 Y68.948 E.00426
G1 X94.692 Y69.214 E.012
G1 X95.132 Y69.409 E.01509
G1 X95.614 Y69.545 E.0157
G1 X95.863 Y69.514 E.00787
G1 X96.31 Y69.667 E.01481
;WIDTH:0.419609
G1 X96.665 Y69.648 E.01114
;WIDTH:0.406559
G1 X96.498 Y69.714 E.00543
M204 P1000
G1 E-2.24 F4200
;WIPE_START
G1 F7200
G1 X96.443 Y69.736 E-.03283
G1 X96.308 Y69.748 E-.07511
G1 X95.953 Y70.078 E-.2686
G1 X95.501 Y70.362 E-.29582
G1 X95.383 Y70.516 E-.10751
G1 X95.217 Y70.796 E-.18013
;WIPE_END
G1 Z.4 F720
G1 X93.208 Y68.907 F9000
G1 Z.2 F720
G1 E3.2 F2400
M204 P600
;TYPE:Solid infill
;WIDTH:0.459361
G1 F1200
G1 X94.646 Y70.345 E.07042
G1 X94.436 Y70.724 E.015
G1 X92.714 Y69.001 E.08435
G1 X92.552 Y69.022 E.00566
G1 X92.255 Y69.132 E.01097
G1 X94.298 Y71.174 E.10002
G1 X94.263 Y71.268 E.00347
G1 X94.24 Y71.526 E.00897
G1 X94.252 Y71.718 E.00666
G1 X91.907 Y69.373 E.11484
G1 X91.767 Y69.485 E.00621
G1 X91.622 Y69.677 E.00833
G1 X94.057 Y72.111 E.11922
M73 P25 R1
G1 X93.441 Y72.084 E.02135
G1 X91.42 Y70.064 E.09894
G1 X91.378 Y70.239 E.00623
G1 X91.345 Y70.299 E.00237
G1 X91.336 Y70.568 E.00932
G1 X92.887 Y72.12 E.07598
G1 X92.831 Y72.141 E.00207
G1 X92.722 Y72.1 E.00403
G1 X92.553 Y72.078 E.0059
G1 X92.351 Y72.015 E.00733
G1 X92.058 Y71.874 E.01126
G1 X91.253 Y71.075 E.03927
M204 P1000
G1 E-2.24 F4200
;WIPE_START
G1 F7200
G1 X92.058 Y71.874 E-.62854
G1 X92.351 Y72.015 E-.18019
G1 X92.553 Y72.078 E-.11726
G1 X92.614 Y72.086 E-.03401
;WIPE_END
G1 Z.4 F720
G1 X100.827 Y85.118 F9000
G1 Z.2 F720
G1 E3.2 F2400
M204 P600
;TYPE:Perimeter
;WIDTH:0.419999
G1 F1200
G1 X100.694 Y85.25 E.00588
G1 X100.366 Y85.714 E.01782
G1 X99.919 Y86.917 E.04024
G1 X99.441 Y87.397 E.02124
G1 X99.137 Y87.547 E.01063
G1 X98.395 Y87.773 E.02432
G1 X98.022 Y87.693 E.01196
G1 X97.53 Y87.52 E.01635
M73 P26 R1
G1 X97.235 Y87.37 E.01038
G1 X96.781 Y86.916 E.02013
G1 X96.63 Y86.59 E.01126
G1 X96.447 Y86.088 E.01675
G1 X96.447 Y85.572 E.01618
G1 X96.781 Y84.744 E.02799
G1 X97.235 Y84.29 E.02013
G1 X97.697 Y84.076 E.01596
G1 X98.23 Y83.888 E.01772
G1 X98.341 Y83.939 E.00383
G1 X98.865 Y84.042 E.01674
G1 X99.474 Y84.377 E.02179
G1 X99.672 Y84.569 E.00865
G1 X99.987 Y84.779 E.01187
G1 X100.461 Y84.995 E.01633
G1 X100.77 Y85.099 E.01022
M204 P1000
G1 X100.77 Y85.099 F9000
G1 X101.745 Y84.827
M204 P600
;TYPE:External perimeter
G1 F1200
G1 X101.411 Y85.136 E.01427
G1 X101.002 Y85.468 E.01652
G1 X100.674 Y85.932 E.01782
G1 X100.488 Y86.438 E.0169
G1 X100.47 Y86.672 E.00736
G1 X100.237 Y87.131 E.01614
G1 X99.665 Y87.707 E.02545
G1 X98.832 Y88.07 E.02849
G1 X98.681 Y88.07 E.00473
G1 X98.513 Y88.15 E.00583
G1 X98.25 Y88.15 E.00825
G1 X98.108 Y88.091 E.00482
G1 X97.93 Y88.07 E.00562
G1 X97.579 Y87.951 E.01162
G1 X97.398 Y87.91 E.00582
G1 X97.276 Y87.799 E.00517
G1 X97.03 Y87.698 E.00834
G1 X96.462 Y87.131 E.02516
G1 X96.309 Y86.831 E.01056
G1 X96.15 Y86.358 E.01565
G1 X96.07 Y86.192 E.00578
G1 X96.07 Y85.53 E.02076
G1 X96.189 Y85.179 E.01162
G1 X96.23 Y84.988 E.00613
G1 X96.462 Y84.529 E.01613
G1 X97.03 Y83.962 E.02516
G1 X97.211 Y83.9 E.006
G1 X97.352 Y83.793 E.00555
G1 X97.942 Y83.59 E.01956
G1 X98.108 Y83.51 E.00578
G1 X98.29 Y83.51 E.00571
G1 X98.421 Y83.563 E.00443
G1 X98.69 Y83.59 E.00848
G1 X99.311 Y83.829 E.02086
G1 X99.584 Y84.021 E.01046
G1 X99.693 Y84.065 E.00369
G1 X99.972 Y84.335 E.01217
G1 X100.104 Y84.388 E.00446
G1 X100.233 Y84.492 E.0052
G1 X100.541 Y84.604 E.01028
G1 X100.675 Y84.684 E.00489
G1 X100.923 Y84.754 E.00808
G1 X101.152 Y84.709 E.00732
G1 X101.548 Y84.821 E.0129
;WIDTH:0.411059
G1 X101.833 Y84.791 E.00877
;WIDTH:0.392334
G1 X101.801 Y84.804 E.001
M204 P1000
G1 E-2.24 F4200
;WIPE_START
G1 F7200
M73 P27 R1
G1 X101.745 Y84.827 E-.03355
G1 X101.411 Y85.136 E-.25215
G1 X101.002 Y85.468 E-.29193
G1 X100.674 Y85.932 E-.31489
G1 X100.632 Y86.046 E-.06748
;WIPE_END
G1 Z.4 F720
G1 X98.616 Y84.145 F9000
G1 Z.2 F720
G1 E3.2 F2400
M204 P600
;TYPE:Solid infill
;WIDTH:0.457115
G1 F1200
G1 X100.053 Y85.582 E.06999
G1 X99.991 Y85.696 E.00447
G1 X99.891 Y86.006 E.01122
G1 X98.16 Y84.274 E.08433
G1 X97.723 Y84.423 E.0159
G1 X99.758 Y86.458 E.09912
G1 X99.634 Y86.722 E.01005
G1 X99.535 Y86.821 E.00482
G1 X97.36 Y84.645 E.10596
G1 X97.067 Y84.938 E.01427
G1 X99.243 Y87.115 E.10601
G1 X98.837 Y87.294 E.01528
G1 X96.891 Y85.348 E.09478
G1 X96.786 Y85.65 E.01101
M73 P28 R1
G1 X96.786 Y85.829 E.00616
G1 X98.371 Y87.414 E.0772
G1 X98.072 Y87.358 E.01048
G1 X97.866 Y87.294 E.00743
G1 X97.711 Y87.233 E.00574
G1 X97.57 Y87.136 E.00589
G1 X97.466 Y87.094 E.00386
G1 X96.727 Y86.356 E.03597
M204 P1000
G1 E-2.24 F4200
;WIPE_START
G1 F7200
G1 X97.466 Y87.094 E-.57877
G1 X97.57 Y87.136 E-.06216
G1 X97.711 Y87.233 E-.09484
G1 X97.866 Y87.294 E-.09231
G1 X98.072 Y87.358 E-.11954
G1 X98.094 Y87.362 E-.01238
;WIPE_END
G1 Z.4 F720
G1 X101.564 Y106.63 F9000
G1 Z.2 F720
G1 E3.2 F2400
M204 P600
;TYPE:Perimeter
;WIDTH:0.419999
G1 F1200
G1 X101.553 Y106.467 E.00512
G1 X101.469 Y106.198 E.00884
G1 X101.482 Y105.342 E.02684
G1 X101.647 Y104.502 E.02684
G1 X101.647 Y103.65 E.02671
G1 X101.727 Y103.403 E.00814
G1 X101.804 Y103.285 E.00442
G1 X101.886 Y103.022 E.00864
G1 X102.062 Y102.582 E.01486
G1 X102.365 Y102.274 E.01355
G1 X102.778 Y101.975 E.01599
G1 X103.25 Y101.807 E.01571
G1 X103.555 Y101.807 E.00956
G1 X103.811 Y101.727 E.00841
G1 X104.421 Y101.727 E.01913
G1 X104.854 Y101.646 E.01381
G1 X105.104 Y101.564 E.00825
G1 X106.164 Y101.567 E.03324
G1 X106.587 Y101.647 E.0135
G1 X106.379 Y101.822 E.00852
G1 X106.041 Y102.278 E.0178
G1 X105.772 Y102.791 E.01816
M73 P29 R1
G1 X105.561 Y103.302 E.01733
G1 X105.458 Y103.804 E.01607
G1 X105.303 Y104.333 E.01728
G1 X105.111 Y104.688 E.01265
G1 X104.829 Y104.972 E.01255
G1 X104.406 Y105.283 E.01646
G1 X104.161 Y105.374 E.00819
G1 X103.439 Y105.534 E.02319
G1 X103.18 Y105.618 E.00854
G1 X102.697 Y105.818 E.01639
G1 X102.229 Y106.065 E.01659
G1 X101.948 Y106.282 E.01113
G1 X101.609 Y106.59 E.01436
M204 P1000
G1 X101.609 Y106.59 F9000
