; generated by PrusaSlicer 2.7.4 on 2024-10-19 at 16:12:35 UTC


;
;

;
;
; 

; external perimeters extrusion width = 0.40mm
; perimeters extrusion width = 0.40mm
; infill extrusion width = 0.45mm
; solid infill extrusion width = 0.45mm
; top infill extrusion width = 0.40mm
; first layer extrusion width = 0.42mm

M73 P0 R10
M201 X2500 Y2500 Z400 E5000 ; sets maximum accelerations, mm/sec^2
M203 X180 Y180 Z12 E80 ; sets maximum feedrates, mm / sec
M204 P2000 R1250 T2500 ; sets acceleration (P, T) and retract acceleration (R), mm/sec^2
M205 X8.00 Y8.00 Z2.00 E10.00 ; sets the jerk limits, mm/sec
M205 S0 T0 ; sets the minimum extruding and travel feed rate, mm/sec

; printing object binary_cyan.stl id:0 copy 0
; stop printing object binary_cyan.stl id:0 copy 0

;TYPE:Custom
M862.3 P "MINI" ; printer model check
G90 ; use absolute coordinates
M83 ; extruder relative mode
M104 S170 ; set extruder temp for bed leveling
M140 S60 ; set bed temp
M109 R170 ; wait for bed leveling temp
M190 S60 ; wait for bed temp
M204 T1250 ; set travel acceleration
G28 ; home all without mesh bed level
G29 ; mesh bed leveling 
M204 T2500 ; restore travel acceleration
M104 S215 ; set extruder temp
G92 E0
G1 Y-2 X179 F2400
G1 Z3 F720
M109 S215 ; wait for extruder temp

; intro line
G1 X170 F1000
G1 Z0.2 F720
G1 X110 E8 F900
G1 X40 E10 F700
M73 P1 R10
G92 E0

M221 S95 ; set flow
G21 ; set units to millimeters
G90 ; use absolute coordinates
M83 ; use relative distances for extrusion
M900 K0.2 ; Filament gcode LA 1.5
; ; Filament gcode LA 1.0
M107
;LAYER_CHANGE
;Z:0.2
;HEIGHT:0.2
G1 E-3.2 F4200
M73 P2 R10
G1 Z.4 F720
G1 X73.572 Y78.385 F9000
G1 Z.2 F720
G1 E3.2 F2400
M204 P600
;TYPE:Skirt/Brim
;WIDTH:0.42
G1 F1200
G1 X74.667 Y77.367 E.04688
G1 X77.283 Y75.627 E.09851
G1 X78.984 Y75.169 E.05523
G1 X102.544 Y76.269 E.73951
G1 X103.287 Y76.407 E.02369
G1 X103.883 Y76.634 E.02
G1 X105.201 Y77.345 E.04695
G1 X105.656 Y77.713 E.01835
G1 X106.586 Y78.716 E.04289
G1 X107.109 Y79.625 E.03288
G1 X107.413 Y80.453 E.02766
G1 X107.554 Y81.324 E.02767
G1 X107.554 Y82.256 E.02922
G1 X107.392 Y83.245 E.03142
G1 X106.685 Y84.761 E.05245
G1 X94.825 Y102.393 E.66627
G1 X94.176 Y103.071 E.02943
M73 P3 R10
G1 X91.19 Y105.211 E.11519
G1 X80.03 Y110.471 E.38683
G1 X78.808 Y110.734 E.03919
G1 X77.494 Y110.401 E.0425
G1 X73.846 Y108.421 E.13014
G1 X72.934 Y107.793 E.03472
G1 X72.193 Y107.06 E.03268
G1 X71.569 Y106.152 E.03454
G1 X67.178 Y98.083 E.28803
G1 X66.919 Y97.424 E.0222
G1 X66.617 Y96.278 E.03716
G1 X66.526 Y95.524 E.02381
G1 X66.728 Y94.489 E.03306
G1 X72.63 Y79.963 E.49161
G1 X73.077 Y79.061 E.03156
G1 X73.537 Y78.433 E.02441
M204 P1000
G1 X73.838 Y78.653 F9000
M204 P600
G1 F1200
G1 X73.839 Y78.651 E.00007
G1 X74.876 Y77.681 E.04452
G1 X77.492 Y75.941 E.09851
G1 X78.967 Y75.546 E.04788
G1 X102.527 Y76.646 E.73951
G1 X103.168 Y76.765 E.02044
G1 X103.715 Y76.972 E.01834
G1 X104.996 Y77.662 E.04562
G1 X105.389 Y77.979 E.01583
G1 X106.273 Y78.926 E.04062
G1 X106.771 Y79.792 E.03132
G1 X107.055 Y80.572 E.02603
G1 X107.177 Y81.324 E.02389
G1 X107.177 Y82.256 E.02922
G1 X107.026 Y83.153 E.02852
G1 X106.372 Y84.551 E.04839
G1 X94.512 Y102.183 E.66627
G1 X93.952 Y102.768 E.02539
M73 P4 R10
G1 X91.029 Y104.87 E.11289
G1 X79.869 Y110.13 E.38683
G1 X78.808 Y110.357 E.03402
G1 X77.674 Y110.069 E.03668
G1 X74.026 Y108.089 E.13014
G1 X73.162 Y107.493 E.03291
G1 X72.496 Y106.834 E.02938
G1 X71.899 Y105.97 E.03293
G1 X67.51 Y97.905 E.28789
G1 X66.982 Y96.182 E.0565
G1 X66.903 Y95.524 E.02078
M73 P4 R9
G1 X67.077 Y94.63 E.02856
G1 X72.979 Y80.106 E.49155
G1 X73.411 Y79.235 E.03048
G1 X73.802 Y78.702 E.02073
M204 P1000
G1 E-2.24 F4200
;WIPE_START
G1 F7200
G1 X73.838 Y78.653 E-.03369
G1 X73.839 Y78.651 E-.00124
G1 X74.876 Y77.681 E-.78689
G1 X75.084 Y77.543 E-.13818
;WIPE_END
G1 Z.4 F720
; printing object binary_cyan.stl id:0 copy 0
G1 X100.295 Y82.328 F9000
G1 Z.2 F720
G1 E3.2 F2400
M204 P600
;TYPE:Perimeter
;WIDTH:0.419999
G1 F1200
G1 X100.497 Y81.988 E.0124
G1 X100.718 Y81.516 E.01634
G1 X100.906 Y81.037 E.01613
G1 X101.196 Y80.62 E.01593
G1 X101.644 Y80.36 E.01624
G1 X102.15 Y80.219 E.01647
G1 X102.313 Y80.271 E.00536
G1 X102.783 Y80.506 E.01648
G1 X103.197 Y80.796 E.01585
G1 X103.46 Y81.164 E.01418
G1 X103.636 Y81.659 E.01647
G1 X103.636 Y81.79 E.00411
G1 X103.57 Y82.116 E.01043
G1 X103.38 Y82.578 E.01566
G1 X103.025 Y82.96 E.01635
G1 X102.661 Y83.173 E.01322
G1 X102.166 Y83.305 E.01606
G1 X102.057 Y83.305 E.00342
G1 X101.542 Y83.159 E.01678
G1 X101.127 Y82.906 E.01524
G1 X100.734 Y82.592 E.01577
G1 X100.346 Y82.359 E.01419
M204 P1000
G1 X100.346 Y82.359 F9000
G1 X99.61 Y82.509
M204 P600
G1 F1200
G1 X99.861 Y82.241 E.01151
G1 X100.082 Y81.957 E.01128
G1 X100.336 Y81.482 E.01689
G1 X100.5 Y80.991 E.01623
G1 X100.776 Y80.544 E.01647
G1 X100.98 Y80.302 E.00992
G1 X101.384 Y80.073 E.01456
G1 X101.862 Y79.887 E.01608
G1 X102.15 Y79.808 E.00936
G1 X102.421 Y79.905 E.00902
G1 X102.872 Y80.129 E.01579
G1 X103.315 Y80.381 E.01598
G1 X103.603 Y80.669 E.01277
G1 X103.83 Y81.07 E.01445
G1 X104.013 Y81.575 E.01684
G1 X104.013 Y82.005 E.01348
G1 X103.962 Y82.098 E.00333
G1 X103.933 Y82.312 E.00677
G1 X103.701 Y82.775 E.01624
G1 X103.389 Y83.132 E.01487
G1 X102.909 Y83.48 E.01859
G1 X102.241 Y83.693 E.02198
G1 X101.98 Y83.693 E.00818
G1 X101.705 Y83.588 E.00923
G1 X101.462 Y83.533 E.00781
G1 X100.997 Y83.274 E.01669
G1 X100.58 Y82.966 E.01625
G1 X100.118 Y82.661 E.01736
G1 X99.667 Y82.526 E.01476
M204 P1000
G1 X99.667 Y82.526 F9000
G1 X98.697 Y82.752
M204 P600
;TYPE:External perimeter
G1 F1200
G1 X98.932 Y82.495 E.01092
G1 X99.394 Y82.184 E.01746
G1 X99.609 Y81.961 E.00971
G1 X99.86 Y81.581 E.01428
G1 X99.988 Y81.302 E.00962
G1 X100.229 Y80.669 E.02124
G1 X100.421 Y80.396 E.01046
G1 X100.466 Y80.285 E.00376
G1 X100.742 Y80.007 E.01228
G1 X101.26 Y79.709 E.01874
G1 X101.708 Y79.51 E.01537
G1 X101.862 Y79.51 E.00483
G1 X102.028 Y79.43 E.00578
G1 X102.15 Y79.43 E.00383
G1 X102.671 Y79.589 E.01708
G1 X103.151 Y79.829 E.01683
G1 X103.423 Y80.021 E.01044
G1 X103.533 Y80.065 E.00371
G1 X103.939 Y80.504 E.01875
G1 X104.076 Y80.687 E.00717
G1 X104.23 Y81.05 E.01236
G1 X104.39 Y81.53 E.01586
G1 X104.39 Y82.05 E.0163
G1 X104.31 Y82.37 E.01034
G1 X104.231 Y82.591 E.00736
G1 X103.998 Y83.049 E.01611
G1 X103.453 Y83.595 E.02419
G1 X103.121 Y83.791 E.01209
G1 X102.672 Y83.99 E.0154
G1 X102.521 Y83.99 E.00473
G1 X102.353 Y84.07 E.00583
G1 X101.93 Y84.07 E.01326
G1 X101.543 Y83.928 E.01293
G1 X101.308 Y83.91 E.00739
G1 X101.057 Y83.738 E.00954
G1 X100.91 Y83.67 E.00508
G1 X100.636 Y83.479 E.01047
G1 X100.525 Y83.434 E.00376
G1 X100.246 Y83.168 E.01209
G1 X100.113 Y83.116 E.00448
G1 X99.977 Y83.017 E.00527
G1 X99.579 Y82.89 E.0131
G1 X98.879 Y82.83 E.02203
G1 X98.752 Y82.776 E.00433
M204 P1000
G1 E-2.24 F4200
;WIPE_START
G1 F7200
G1 X98.697 Y82.752 E-.03325
G1 X98.932 Y82.495 E-.19299
G1 X99.394 Y82.184 E-.30863
G1 X99.609 Y81.961 E-.17166
G1 X99.86 Y81.581 E-.25237
G1 X99.861 Y81.579 E-.0011
;WIPE_END
G1 Z.4 F720
G1 X102.426 Y80.522 F9000
G1 Z.2 F720
G1 E3.2 F2400
M204 P600
;TYPE:Solid infill
;WIDTH:0.443652
G1 F1200
G1 X103.04 Y81.135 E.02891
G1 X103.175 Y81.361 E.00877
G1 X103.296 Y81.726 E.01281
G1 X103.296 Y81.851 E.00417
G1 X103.267 Y81.929 E.00277
G1 X101.95 Y80.612 E.06206
G1 X101.833 Y80.648 E.00408
M73 P5 R9
G1 X101.562 Y80.79 E.01019
G1 X103.117 Y82.345 E.07328
G1 X103.076 Y82.428 E.00308
G1 X102.855 Y82.65 E.01044
G1 X101.276 Y81.071 E.07441
G1 X101.149 Y81.305 E.00887
G1 X101.096 Y81.458 E.0054
G1 X102.502 Y82.864 E.06625
G1 X102.116 Y82.967 E.01331
G1 X101.999 Y82.928 E.00411
G1 X100.817 Y81.745 E.05572
M204 P1000
G1 E-2.24 F4200
;WIPE_START
G1 F7200
G1 X101.999 Y82.928 E-.92674
G1 X102.056 Y82.947 E-.03326
;WIPE_END
G1 Z.4 F720
G1 X90.537 Y100.332 F9000
G1 Z.2 F720
G1 E3.2 F2400
M204 P600
;TYPE:Perimeter
;WIDTH:0.419999
G1 F1200
G1 X90.333 Y100.463 E.0076
G1 X89.993 Y100.789 E.01477
G1 X89.879 Y100.65 E.00564
G1 X89.564 Y100.387 E.01287
G1 X89.158 Y100.093 E.01572
G1 X88.618 Y99.866 E.01837
G1 X88.027 Y99.716 E.01912
G1 X86.438 Y99.716 E.04982
G1 X85.95 Y99.796 E.01551
G1 X85.398 Y99.652 E.01789
G1 X85.037 Y99.444 E.01306
G1 X84.676 Y99.082 E.01603
G1 X84.484 Y98.664 E.01442
G1 X84.415 Y98.23 E.01378
G1 X84.462 Y97.9 E.01045
G1 X84.671 Y97.425 E.01627
G1 X85.004 Y97.044 E.01587
G1 X85.47 Y96.147 E.03169
G1 X85.632 Y95.664 E.01597
G1 X85.764 Y95.174 E.01591
G1 X85.784 Y94.767 E.01278
G1 X85.827 Y94.685 E.0029
G1 X85.864 Y94.422 E.00833
G1 X85.864 Y93.478 E.0296
G1 X85.704 Y92.75 E.02337
G1 X85.78 Y92.348 E.01283
G1 X85.887 Y92.119 E.00793
G1 X86.142 Y91.678 E.01597
G1 X86.506 Y91.443 E.01358
G1 X87.006 Y91.224 E.01711
G1 X87.454 Y91.224 E.01405
G1 X87.907 Y91.388 E.01511
G1 X88.317 Y91.676 E.01571
G1 X88.58 Y92.044 E.01418
G1 X88.756 Y92.522 E.01597
G1 X88.77 Y93.704 E.03706
G1 X89.034 Y94.478 E.02564
G1 X89.289 Y94.913 E.01581
G1 X89.601 Y95.36 E.01709
G1 X90.166 Y95.91 E.02472
G1 X90.63 Y96.195 E.01707
G1 X90.303 Y96.733 E.01974
G1 X90.102 Y97.371 E.02097
G1 X90.036 Y97.713 E.01092
G1 X90.036 Y98.982 E.03979
G1 X90.125 Y99.404 E.01352
G1 X90.273 Y99.889 E.0159
G1 X90.506 Y100.281 E.0143
M204 P1000
G1 X90.506 Y100.281 F9000
G1 X91.208 Y100.502
M204 P600
G1 F1200
G1 X90.986 Y100.567 E.00725
G1 X90.533 Y100.783 E.01574
G1 X90.156 Y101.175 E.01705
G1 X89.982 Y101.483 E.01109
G1 X89.904 Y101.299 E.00627
G1 X89.588 Y100.889 E.01623
G1 X88.963 Y100.416 E.02458
G1 X88.498 Y100.224 E.01577
G1 X88.025 Y100.093 E.01539
G1 X86.397 Y100.094 E.05104
G1 X86.166 Y100.173 E.00765
G1 X85.734 Y100.173 E.01355
G1 X85.023 Y99.89 E.02399
G1 X84.577 Y99.591 E.01684
G1 X84.501 Y99.453 E.00494
G1 X84.302 Y99.238 E.00919
G1 X84.047 Y98.565 E.02257
G1 X84.047 Y97.895 E.02101
G1 X84.34 Y97.231 E.02276
G1 X84.685 Y96.834 E.01649
G1 X84.816 Y96.623 E.00779
G1 X85.045 Y96.154 E.01636
G1 X85.236 Y95.656 E.01672
G1 X85.375 Y95.169 E.01588
G1 X85.407 Y94.69 E.01505
G1 X85.484 Y94.484 E.0069
G1 X85.465 Y93.323 E.03641
G1 X85.327 Y92.965 E.01203
G1 X85.327 Y92.535 E.01348
G1 X85.378 Y92.442 E.00333
G1 X85.407 Y92.228 E.00677
G1 X85.824 Y91.46 E.0274
G1 X86.458 Y91.015 E.02429
G1 X86.93 Y90.847 E.01571
G1 X87.53 Y90.847 E.01881
G1 X87.985 Y91.002 E.01507
G1 X88.436 Y91.261 E.01631
G1 X88.723 Y91.548 E.01273
G1 X88.95 Y91.95 E.01448
G1 X89.133 Y92.449 E.01666
G1 X89.133 Y93.542 E.03427
G1 X89.254 Y93.994 E.01467
G1 X89.446 Y94.468 E.01603
G1 X89.864 Y95.09 E.0235
G1 X90.429 Y95.64 E.02472
G1 X90.837 Y95.881 E.01486
G1 X91.375 Y96.042 E.01761
G1 X91.056 Y96.26 E.01211
G1 X90.779 Y96.659 E.01523
G1 X90.547 Y97.158 E.01725
G1 X90.413 Y97.715 E.01796
G1 X90.413 Y98.982 E.03973
G1 X90.623 Y99.749 E.02493
G1 X90.918 Y100.218 E.01737
G1 X91.166 Y100.46 E.01086
M204 P1000
G1 E-2.24 F4200
;WIPE_START
G1 F7200
G1 X91.208 Y100.502 E-.03292
G1 X90.986 Y100.567 E-.12819
G1 X90.533 Y100.783 E-.27811
G1 X90.156 Y101.175 E-.30139
G1 X89.982 Y101.483 E-.19604
G1 X89.965 Y101.444 E-.02335
;WIPE_END
G1 Z.4 F720
G1 X92.397 Y95.751 F9000
G1 Z.2 F720
G1 E3.2 F2400
M204 P600
;TYPE:External perimeter
;WIDTH:0.38292
G1 F1200
G1 X92.79 Y95.686 E.01126
M204 P1000
G1 E-2.24 F4200
;WIPE_START
G1 F7200
G1 X92.397 Y95.751 E-.22075
;WIPE_END
G1 E-.73925 F4200
G1 Z.4 F720
G1 X91.989 Y100.671 F9000
G1 Z.2 F720
G1 E3.2 F2400
M204 P600
;WIDTH:0.419999
G1 F1200
G1 X91.617 Y100.834 E.01273
G1 X91.359 Y100.849 E.0081
G1 X91.193 Y100.919 E.00565
G1 X91.083 Y100.933 E.00348
G1 X90.869 Y101.06 E.0078
G1 X90.749 Y101.093 E.0039
G1 X90.411 Y101.466 E.01578
G1 X90.242 Y101.868 E.01367
G1 X90.077 Y102.062 E.00799
;WIDTH:0.417916
G1 X89.99 Y102.348 E.00932
;WIDTH:0.410245
G1 X89.857 Y102.075 E.00928
;WIDTH:0.419999
G1 X89.57 Y101.476 E.02083
G1 X89.244 Y101.084 E.01599
G1 X88.798 Y100.761 E.01727
G1 X88.502 Y100.63 E.01015
G1 X88.023 Y100.47 E.01583
G1 X86.438 Y100.47 E.0497
G1 X86.272 Y100.55 E.00578
G1 X85.69 Y100.55 E.01825
G1 X85.21 Y100.39 E.01586
G1 X84.757 Y100.176 E.01571
G1 X84.304 Y99.853 E.01744
G1 X83.909 Y99.311 E.02103
G1 X83.75 Y98.838 E.01565
G1 X83.67 Y98.672 E.00578
G1 X83.67 Y98.358 E.00985
G1 X83.629 Y98.24 E.00392
G1 X83.667 Y98.137 E.00344
G1 X83.67 Y97.85 E.009
G1 X83.829 Y97.389 E.01529
G1 X84.062 Y96.932 E.01608
G1 X84.339 Y96.649 E.01242
G1 X84.529 Y96.349 E.01113
G1 X84.749 Y95.899 E.01571
G1 X84.912 Y95.415 E.01601
G1 X84.95 Y95.21 E.00654
G1 X85.008 Y95.07 E.00475
G1 X85.03 Y94.65 E.01319
G1 X85.11 Y94.423 E.00755
G1 X85.11 Y93.542 E.02762
G1 X85.03 Y93.238 E.00986
G1 X84.95 Y93.072 E.00578
G1 X84.95 Y92.49 E.01825
G1 X85.11 Y91.878 E.01983
G1 X85.233 Y91.742 E.00575
G1 X85.482 Y91.302 E.01585
G1 X85.728 Y91.026 E.01159
G1 X85.794 Y91.01 E.00213
G1 X85.961 Y90.867 E.00689
G1 X86.03 Y90.852 E.00221
G1 X86.204 Y90.705 E.00714
G1 X86.828 Y90.47 E.02091
G1 X87.57 Y90.47 E.02326
G1 X88.271 Y90.709 E.02322
G1 X88.544 Y90.901 E.01046
G1 X88.653 Y90.945 E.00369
G1 X89.016 Y91.308 E.0161
G1 X89.231 Y91.659 E.01291
G1 X89.51 Y92.348 E.02331
G1 X89.51 Y93.478 E.03543
G1 X89.67 Y94.01 E.01742
G1 X89.799 Y94.316 E.01041
G1 X90.127 Y94.819 E.01883
G1 X90.692 Y95.37 E.02474
G1 X90.825 Y95.423 E.00449
G1 X90.967 Y95.52 E.00539
G1 X91.416 Y95.673 E.01487
G1 X91.881 Y95.71 E.01463
M73 P6 R9
G1 X92.02 Y95.768 E.00472
G1 X92.397 Y95.751 E.01183
G1 X91.948 Y96.044 E.01681
G1 X91.752 Y96.244 E.00878
G1 X91.331 Y96.523 E.01584
G1 X91.056 Y96.927 E.01532
G1 X90.87 Y97.398 E.01588
G1 X90.79 Y97.717 E.01031
G1 X90.79 Y98.912 E.03747
G1 X90.96 Y99.539 E.02037
G1 X91.173 Y99.924 E.0138
G1 X91.337 Y100.126 E.00816
G1 X91.717 Y100.392 E.01454
G1 X91.737 Y100.459 E.00219
G1 X91.943 Y100.632 E.00843
M204 P1000
G1 E-2.24 F4200
;WIPE_START
G1 F7200
G1 X91.989 Y100.671 E-.03342
G1 X91.617 Y100.834 E-.22507
G1 X91.359 Y100.849 E-.14322
G1 X91.193 Y100.919 E-.09984
G1 X91.083 Y100.933 E-.06145
G1 X90.869 Y101.06 E-.1379
G1 X90.749 Y101.093 E-.06897
G1 X90.519 Y101.347 E-.19013
;WIPE_END
G1 Z.4 F720
G1 X88.504 Y92.343 F9000
G1 Z.2 F720
G1 E3.2 F2400
M204 P600
;TYPE:Solid infill
;WIDTH:0.420119
G1 F1200
G1 X88.013 Y91.851 E.0218
G1 X87.789 Y91.707 E.00835
G1 X87.38 Y91.563 E.0136
G1 X87.192 Y91.563 E.0059
G1 X88.417 Y92.788 E.05434
G1 X88.417 Y93.322 E.01675
G1 X86.766 Y91.671 E.07323
G1 X86.446 Y91.885 E.01207
G1 X88.486 Y93.925 E.09049
G1 X88.681 Y94.531 E.01997
G1 X88.797 Y94.769 E.0083
G1 X86.222 Y92.194 E.11422
G1 X86.136 Y92.353 E.00567
G1 X86.073 Y92.578 E.00733
G1 X90.028 Y96.533 E.17543
G1 X89.875 Y96.914 E.01288
G1 X86.167 Y93.206 E.16447
G1 X86.204 Y93.468 E.0083
G1 X86.202 Y93.774 E.0096
G1 X89.758 Y97.331 E.15775
G1 X89.706 Y97.554 E.00718
G1 X89.704 Y97.81 E.00803
G1 X86.198 Y94.304 E.15551
G1 X86.197 Y94.561 E.00806
G1 X86.151 Y94.79 E.00733
G1 X89.701 Y98.34 E.15746
G1 X89.697 Y98.87 E.01662
G1 X86.091 Y95.264 E.15995
G1 X85.983 Y95.689 E.01375
G1 X89.79 Y99.496 E.16886
G1 X89.959 Y100.018 E.01721
G1 X90.073 Y100.233 E.00763
G1 X90.026 Y100.266 E.0018
G1 X85.845 Y96.084 E.18547
G1 X85.692 Y96.465 E.01288
G1 X88.794 Y99.567 E.13759
G1 X88.48 Y99.462 E.01038
G1 X88.078 Y99.385 E.01284
G1 X85.512 Y96.818 E.11384
G1 X85.332 Y97.172 E.01246
G1 X87.537 Y99.377 E.0978
G1 X87.005 Y99.378 E.01669
G1 X85.078 Y97.451 E.08547
G1 X84.985 Y97.551 E.00428
G1 X84.873 Y97.78 E.008
G1 X86.472 Y99.379 E.07092
G1 X86.344 Y99.379 E.00401
G1 X86.112 Y99.418 E.00738
G1 X86.015 Y99.455 E.00326
G1 X84.594 Y98.034 E.06303
M204 P1000
G1 E-2.24 F4200
;WIPE_START
G1 F7200
G1 X85.819 Y99.259 E-.96
;WIPE_END
G1 Z.4 F720
G1 X76.004 Y83.165 F9000
G1 Z.2 F720
G1 E3.2 F2400
M204 P600
;TYPE:Perimeter
;WIDTH:0.419999
G1 F1200
G1 X76.184 Y82.502 E.02154
G1 X76.184 Y81.968 E.01674
G1 X76.318 Y81.444 E.01696
G1 X76.53 Y80.977 E.01608
G1 X76.678 Y80.82 E.00677
G1 X76.93 Y80.624 E.01001
G1 X77.382 Y80.373 E.01621
G1 X77.854 Y80.171 E.0161
G1 X78.303 Y79.878 E.01681
G1 X78.445 Y80.162 E.00996
G1 X78.557 Y80.3 E.00557
G1 X79.188 Y80.942 E.02822
G1 X79.513 Y81.171 E.01247
G1 X79.963 Y81.416 E.01607
G1 X80.971 Y81.841 E.0343
G1 X80.65 Y81.895 E.01021
G1 X80.076 Y82.108 E.0192
G1 X79.608 Y82.337 E.01634
G1 X79.156 Y82.639 E.01704
G1 X78.826 Y82.918 E.01355
G1 X78.367 Y83.161 E.01628
