; generated by PrusaSlicer 2.7.4 on 2024-10-19 at 16:08:14 UTC


;
;

;
;
; 

; external perimeters extrusion width = 0.45mm
; perimeters extrusion width = 0.45mm
; infill extrusion width = 0.45mm
; solid infill extrusion width = 0.45mm
; top infill extrusion width = 0.40mm
; first layer extrusion width = 0.42mm

M73 P0 R14
M201 X2500 Y2500 Z400 E5000 ; sets maximum accelerations, mm/sec^2
M203 X180 Y180 Z12 E80 ; sets maximum feedrates, mm / sec
M204 P2000 R1250 T2500 ; sets acceleration (P, T) and retract acceleration (R), mm/sec^2
M205 X8.00 Y8.00 Z2.00 E10.00 ; sets the jerk limits, mm/sec
M205 S0 T0 ; sets the minimum extruding and travel feed rate, mm/sec

; printing object binary_black.stl id:0 copy 0
; stop printing object binary_black.stl id:0 copy 0

;TYPE:Custom
M862.3 P "MINI" ; printer model check
G90 ; use absolute coordinates
M83 ; extruder relative mode
M104 S170 ; set extruder temp for bed leveling
M140 S60 ; set bed temp
M109 R170 ; wait for bed leveling temp
M190 S60 ; wait for bed temp
M204 T1250 ; set travel acceleration
G28 ; home all without mesh bed level
G29 ; mesh bed leveling 
M204 T2500 ; restore travel acceleration
M104 S215 ; set extruder temp
G92 E0
G1 Y-2 X179 F2400
G1 Z3 F720
M109 S215 ; wait for extruder temp

; intro line
G1 X170 F1000
G1 Z0.2 F720
G1 X110 E8 F900
G1 X40 E10 F700
M73 P1 R14
G92 E0

M221 S95 ; set flow
G21 ; set units to millimeters
G90 ; use absolute coordinates
M83 ; use relative distances for extrusion
M900 K0.2 ; Filament gcode LA 1.5
; ; Filament gcode LA 1.0
M107
;LAYER_CHANGE
;Z:0.2
;HEIGHT:0.2
G1 E-3.2 F4200
G1 Z.4 F720
G1 X56.379 Y56.443 F9000
G1 Z.2 F720
G1 E3.2 F2400
M204 P600
;TYPE:Skirt/Brim
;WIDTH:0.42
G1 F1200
G1 X58.118 Y55.689 E.05943
G1 X121.856 Y55.683 E1.99846
G1 X123.535 Y56.378 E.05698
M73 P2 R14
G1 X124.297 Y58.124 E.05973
G1 X124.297 Y121.856 E1.99827
G1 X123.601 Y123.537 E.05705
M73 P2 R13
G1 X121.856 Y124.297 E.05968
G1 X58.124 Y124.297 E1.99827
G1 X56.442 Y123.599 E.0571
M73 P3 R13
G1 X55.683 Y121.856 E.05961
G1 X55.683 Y58.124 E1.99827
G1 X56.356 Y56.499 E.05515
M204 P1000
G1 E-2.24 F4200
;WIPE_START
G1 F7200
G1 X56.379 Y56.443 E-.03355
G1 X57.913 Y55.778 E-.92645
;WIPE_END
G1 Z.4 F720
; printing object binary_black.stl id:0 copy 0
G1 X66.11 Y116.85 F9000
G1 Z.2 F720
G1 E3.2 F2400
M204 P600
;TYPE:External perimeter
;WIDTH:0.38292
G1 F1200
G1 X66.09 Y116.467 E.01084
;WIDTH:0.417142
G1 X66.077 Y116.411 E.00179
;WIDTH:0.451364
G1 X66.064 Y116.355 E.00195
;WIDTH:0.486848
G1 X66.126 Y116.277 E.00368
G1 X66.388 Y116.314 E.00977
;WIDTH:0.460653
G1 X66.65 Y116.351 E.00919
M204 P1000
G1 X66.65 Y116.351 F9000
G1 X66.116 Y115.893
M204 P600
;WIDTH:0.459424
G1 F1200
G1 X66.121 Y116.085 E.00665
;WIDTH:0.486848
G1 X66.126 Y116.277 E.00709
M204 P1000
G1 E-2.24 F4200
;WIPE_START
G1 F7200
G1 X66.121 Y116.085 E-.10644
G1 X66.116 Y115.893 E-.10644
;WIPE_END
G1 E-.74712 F4200
G1 Z.4 F720
G1 X64.504 Y114.987 F9000
G1 Z.2 F720
G1 E3.2 F2400
M204 P600
;WIDTH:0.422484
G1 F1200
G1 X64.443 Y114.961 E.00209
G1 X64.241 Y114.79 E.00835
;WIDTH:0.423463
G1 X64.63 Y114.401 E.01741
G1 X64.791 Y114.562 E.0072
G1 X64.828 Y114.652 E.00308
G1 X64.766 Y114.804 E.00519
G1 X64.553 Y114.953 E.00823
M204 P1000
G1 E-2.24 F4200
;WIPE_START
G1 F7200
G1 X64.504 Y114.987 E-.03305
G1 X64.443 Y114.961 E-.03675
G1 X64.241 Y114.79 E-.14667
G1 X64.63 Y114.401 E-.30486
G1 X64.791 Y114.562 E-.12618
G1 X64.828 Y114.652 E-.05393
G1 X64.766 Y114.804 E-.09097
G1 X64.553 Y114.953 E-.14405
;WIPE_END
G1 E-.02354 F4200
G1 Z.4 F720
G1 X69.629 Y110.35 F9000
G1 Z.2 F720
G1 E3.2 F2400
M204 P600
;TYPE:Perimeter
;WIDTH:0.593358
G1 F1200
G1 X69.537 Y110.639 E.01388
;WIDTH:0.595359
G1 X69.451 Y110.795 E.00818
;WIDTH:0.628761
G1 X69.326 Y110.947 E.00959
;WIDTH:0.662163
G1 X69.2 Y111.098 E.01013
;WIDTH:0.695565
G1 X69.074 Y111.249 E.01067
G1 X68.587 Y111.742 E.03761
;WIDTH:0.685053
G1 X68.369 Y111.919 E.01499
;WIDTH:0.639875
G1 X68.151 Y112.095 E.01391
;WIDTH:0.594696
G1 X67.795 Y112.252 E.01785
;WIDTH:0.59339
G1 X67.582 Y112.197 E.01007
G1 X67.649 Y111.864 E.01555
;WIDTH:0.632283
G1 X67.842 Y111.611 E.01559
;WIDTH:0.663608
G1 X68.006 Y111.42 E.01299
;WIDTH:0.694933
G1 X68.171 Y111.229 E.01368
G1 X68.731 Y110.703 E.04165
;WIDTH:0.686932
G1 X68.92 Y110.534 E.01358
;WIDTH:0.640145
G1 X69.109 Y110.364 E.01262
;WIDTH:0.593358
G1 X69.441 Y110.221 E.01654
G1 X69.54 Y110.24 E.00461
G1 X69.591 Y110.303 E.00371
M204 P1000
G1 X69.591 Y110.303 F9000
G1 X70.075 Y110.18
M204 P600
;TYPE:External perimeter
;WIDTH:0.419999
G1 F1200
G1 X70.15 Y110.35 E.00583
G1 X69.948 Y110.885 E.01793
G1 X69.662 Y111.319 E.0163
G1 X69.608 Y111.443 E.00424
G1 X68.946 Y112.103 E.02931
G1 X68.241 Y112.591 E.02688
G1 X67.745 Y112.756 E.01639
G1 X67.272 Y112.58 E.01582
G1 X67.11 Y112.293 E.01033
G1 X67.11 Y112.01 E.00887
G1 X67.19 Y111.708 E.0098
G1 X67.367 Y111.452 E.00976
G1 X67.426 Y111.326 E.00436
G1 X67.604 Y111.142 E.00803
G1 X67.669 Y111.003 E.00481
G1 X68.427 Y110.28 E.03284
G1 X69.015 Y109.872 E.02244
G1 X69.308 Y109.75 E.00995
G1 X69.57 Y109.75 E.00821
G1 X69.905 Y109.879 E.01126
G1 X70.027 Y110.071 E.00713
G1 X70.051 Y110.125 E.00185
M204 P1000
G1 E-2.24 F4200
;WIPE_START
G1 F7200
G1 X70.075 Y110.18 E-.03325
G1 X70.15 Y110.35 E-.10297
G1 X69.948 Y110.885 E-.31691
G1 X69.662 Y111.319 E-.28803
G1 X69.608 Y111.443 E-.07495
G1 X69.424 Y111.626 E-.14389
;WIPE_END
G1 Z.4 F720
G1 X79.807 Y107.946 F9000
G1 Z.2 F720
G1 E3.2 F2400
M204 P600
;TYPE:Perimeter
G1 F1200
G1 X79.807 Y107.579 E.01151
G1 X80.141 Y106.744 E.0282
G1 X80.591 Y106.294 E.01995
G1 X80.911 Y106.1 E.01173
G1 X81.58 Y105.887 E.02201
G1 X81.84 Y105.887 E.00815
G1 X82.385 Y106.042 E.01777
G1 X82.85 Y106.314 E.01689
G1 X83.11 Y106.63 E.01283
G1 X83.514 Y106.854 E.01448
G1 X83.575 Y106.978 E.00433
G1 X83.71 Y107.71 E.02334
G1 X83.693 Y108.005 E.00926
G1 X83.583 Y108.365 E.0118
G1 X83.371 Y108.827 E.01594
G1 X82.995 Y109.201 E.01663
G1 X82.669 Y109.4 E.01198
G1 X82.008 Y109.613 E.02177
G1 X81.492 Y109.613 E.01618
G1 X80.831 Y109.32 E.02267
G1 X80.52 Y109.074 E.01243
G1 X80.18 Y108.669 E.01658
G1 X80.005 Y108.208 E.01546
G1 X79.843 Y107.993 E.00844
M204 P1000
G1 X79.843 Y107.993 F9000
G1 X79.43 Y108.098
M204 P600
;TYPE:External perimeter
G1 F1200
G1 X79.43 Y107.53 E.01781
G1 X79.549 Y107.179 E.01162
G1 X79.59 Y106.988 E.00613
G1 X79.822 Y106.529 E.01613
G1 X80.348 Y106.004 E.0233
G1 X80.7 Y105.789 E.01293
G1 X81.148 Y105.59 E.01537
G1 X81.302 Y105.59 E.00483
G1 X81.468 Y105.51 E.00578
G1 X81.89 Y105.51 E.01323
G1 X82.047 Y105.576 E.00534
G1 X82.21 Y105.59 E.00513
G1 X82.671 Y105.749 E.01529
G1 X82.944 Y105.941 E.01046
G1 X83.054 Y105.986 E.00373
G1 X83.271 Y106.193 E.0094
G1 X83.345 Y106.321 E.00464
G1 X83.758 Y106.55 E.01481
G1 X83.99 Y106.966 E.01493
G1 X83.99 Y107.14 E.00546
G1 X84.031 Y107.26 E.00398
G1 X84.1 Y107.71 E.01427
G1 X84.07 Y108.05 E.0107
G1 X83.99 Y108.37 E.01034
G1 X83.699 Y109.033 E.0227
G1 X83.214 Y109.515 E.02144
G1 X82.88 Y109.711 E.01214
G1 X82.432 Y109.91 E.01537
G1 X82.281 Y109.91 E.00473
G1 X82.113 Y109.99 E.00583
G1 X81.45 Y109.99 E.02079
G1 X81.05 Y109.843 E.01336
G1 X80.602 Y109.619 E.0157
G1 X80.201 Y109.318 E.01572
G1 X79.903 Y108.971 E.01434
G1 X79.709 Y108.561 E.01422
G1 X79.666 Y108.384 E.00571
G1 X79.468 Y108.144 E.00976
M204 P1000
G1 E-2.24 F4200
;WIPE_START
G1 F7200
G1 X79.43 Y108.098 E-.03306
G1 X79.43 Y107.53 E-.31477
G1 X79.549 Y107.179 E-.20539
G1 X79.59 Y106.988 E-.10826
G1 X79.822 Y106.529 E-.28501
G1 X79.839 Y106.512 E-.01351
;WIPE_END
G1 Z.4 F720
G1 X82.347 Y106.215 F9000
G1 Z.2 F720
G1 E3.2 F2400
M204 P600
;TYPE:Solid infill
;WIDTH:0.464977
G1 F1200
M73 P4 R13
G1 X83.277 Y107.145 E.04616
G1 X83.292 Y107.333 E.00662
G1 X83.354 Y107.487 E.00583
G1 X83.354 Y107.819 E.01165
G1 X81.761 Y106.226 E.07906
G1 X81.657 Y106.226 E.00365
G1 X81.523 Y106.28 E.00507
G1 X81.267 Y106.329 E.00915
G1 X83.239 Y108.301 E.09787
G1 X83.082 Y108.635 E.01295
G1 X83.029 Y108.688 E.00263
G1 X80.869 Y106.528 E.1072
G1 X80.796 Y106.569 E.00294
G1 X80.555 Y106.81 E.01196
G1 X82.708 Y108.964 E.10688
G1 X82.523 Y109.091 E.00788
G1 X82.314 Y109.166 E.00779
G1 X80.316 Y107.168 E.09916
G1 X80.162 Y107.611 E.01646
G1 X81.824 Y109.273 E.08249
G1 X81.569 Y109.273 E.00895
G1 X81.496 Y109.235 E.00289
G1 X81.386 Y109.212 E.00394
G1 X80.958 Y109.004 E.0167
G1 X80.179 Y108.225 E.03866
M204 P1000
G1 E-2.24 F4200
;WIPE_START
G1 F7200
G1 X80.958 Y109.004 E-.61051
G1 X81.386 Y109.212 E-.26371
G1 X81.496 Y109.235 E-.06228
G1 X81.534 Y109.255 E-.0235
;WIPE_END
G1 Z.4 F720
G1 X75.47 Y95.984 F9000
G1 Z.2 F720
G1 E3.2 F2400
M204 P600
;TYPE:External perimeter
;WIDTH:0.589696
G1 F1200
G1 X75.56 Y95.946 E.00444
;WIDTH:0.548341
G1 X75.65 Y95.907 E.00412
;WIDTH:0.506986
G1 X75.74 Y95.869 E.00377
;WIDTH:0.465631
G1 X75.83 Y95.83 E.00345
;WIDTH:0.424276
G1 X75.921 Y95.791 E.00314
;WIDTH:0.38292
G1 X75.97 Y95.791 E.00139
M204 P1000
G1 X75.97 Y95.791 F9000
G1 X74.966 Y96.804
M204 P600
;WIDTH:0.553362
G1 F1200
G1 X74.963 Y96.746 E.00247
G1 X74.91 Y96.656 E.00443
G1 X74.438 Y96.017 E.03372
G1 X74.706 Y96.017 E.01137
;WIDTH:0.572709
G1 X75.312 Y96.026 E.0267
;WIDTH:0.589696
G1 X75.47 Y95.984 E.00743
G1 X75.329 Y96.198 E.01165
;WIDTH:0.559572
G1 X75.07 Y96.576 E.01969
;WIDTH:0.553362
G1 X74.991 Y96.75 E.00811
M204 P1000
G1 X74.991 Y96.75 F9000
G1 X74.982 Y96.908
M204 P600
;WIDTH:0.485404
G1 F1200
G1 X74.99 Y97.013 E.00387
G1 X74.982 Y96.908 E.00387
M204 P1000
G1 X74.982 Y96.908 F9000
G1 X74.99 Y97.25
M204 P600
;WIDTH:0.38292
G1 F1200
G1 X74.99 Y97.148 E.00288
M204 P1000
G1 E-2.24 F4200
;WIPE_START
G1 F7200
G1 X74.99 Y97.25 E-.05653
;WIPE_END
G1 E-.90347 F4200
G1 Z.4 F720
G1 X71.942 Y79.834 F9000
G1 Z.2 F720
G1 E3.2 F2400
M204 P600
;TYPE:Perimeter
;WIDTH:0.419999
G1 F1200
G1 X72.403 Y79.807 E.01448
G1 X73.227 Y80.129 E.02774
G1 X73.684 Y80.588 E.02031
G1 X73.88 Y80.911 E.01185
G1 X74.093 Y81.58 E.02201
G1 X74.093 Y81.84 E.00815
G1 X73.938 Y82.385 E.01777
G1 X73.667 Y82.85 E.01688
G1 X73.395 Y83.07 E.01097
G1 X73.151 Y83.44 E.0139
G1 X72.626 Y84.599 E.03989
G1 X72.413 Y85.558 E.0308
G1 X72.413 Y86.806 E.03913
G1 X72.493 Y87.15 E.01107
G1 X72.352 Y87.651 E.01632
G1 X72.159 Y88.116 E.01579
G1 X71.773 Y88.513 E.01736
G1 X71.362 Y88.805 E.01581
G1 X70.885 Y88.973 E.01586
G1 X70.215 Y88.973 E.02101
G1 X69.777 Y88.818 E.01457
G1 X69.61 Y88.72 E.00607
G1 X69.211 Y88.416 E.01573
G1 X68.98 Y87.95 E.01631
G1 X68.767 Y87.445 E.01718
G1 X68.767 Y86.775 E.02101
G1 X68.917 Y86.368 E.0136
G1 X69.011 Y86.18 E.00659
G1 X69.255 Y85.791 E.0144
G1 X69.565 Y85.474 E.0139
G1 X69.736 Y85.177 E.01075
G1 X69.966 Y84.713 E.01624
G1 X70.164 Y84.237 E.01616
G1 X70.333 Y83.735 E.01661
G1 X70.367 Y83.252 E.01518
G1 X70.423 Y83.145 E.00379
G1 X70.447 Y82.982 E.00517
G1 X70.443 Y82.21 E.02421
G1 X70.367 Y82.01 E.00671
G1 X70.367 Y81.41 E.01881
G1 X70.557 Y80.88 E.01765
G1 X70.84 Y80.464 E.01578
G1 X70.906 Y80.435 E.00226
G1 X71.142 Y80.222 E.00997
G1 X71.611 Y80.029 E.0159
G1 X71.89 Y79.864 E.01016
M204 P1000
G1 X71.89 Y79.864 F9000
G1 X71.868 Y79.43
M204 P600
;TYPE:External perimeter
G1 F1200
G1 X72.45 Y79.43 E.01825
G1 X72.931 Y79.59 E.01589
G1 X73.433 Y79.801 E.01707
G1 X73.995 Y80.366 E.02499
G1 X74.191 Y80.7 E.01214
G1 X74.39 Y81.21 E.01716
G1 X74.47 Y81.53 E.01034
G1 X74.47 Y81.89 E.01129
G1 X74.404 Y82.047 E.00534
G1 X74.39 Y82.21 E.00513
G1 X74.231 Y82.671 E.01529
G1 X74.039 Y82.944 E.01046
G1 X73.994 Y83.054 E.00373
G1 X73.787 Y83.27 E.00938
G1 X73.659 Y83.345 E.00465
G1 X73.501 Y83.61 E.00967
G1 X73.196 Y84.231 E.02169
G1 X72.988 Y84.725 E.01681
G1 X72.95 Y84.93 E.00654
G1 X72.892 Y85.069 E.00472
G1 X72.87 Y85.33 E.00821
G1 X72.79 Y85.558 E.00758
G1 X72.79 Y86.822 E.03963
G1 X72.87 Y86.988 E.00578
G1 X72.87 Y87.25 E.00821
G1 X72.811 Y87.392 E.00482
G1 X72.79 Y87.57 E.00562
G1 X72.71 Y87.872 E.0098
G1 X72.478 Y88.329 E.01607
G1 X72.118 Y88.739 E.01711
G1 X71.856 Y88.954 E.01063
G1 X71.778 Y88.974 E.00252
G1 X71.616 Y89.115 E.00673
G1 X71.158 Y89.27 E.01516
G1 X70.992 Y89.35 E.00578
G1 X70.681 Y89.35 E.00975
G1 X70.551 Y89.393 E.00429
G1 X70.506 Y89.37 E.00158
G1 X70.17 Y89.35 E.01055
G1 X69.819 Y89.231 E.01162
G1 X69.628 Y89.19 E.00613
G1 X68.955 Y88.714 E.02585
G1 X68.833 Y88.549 E.00643
G1 X68.39 Y87.552 E.03421
G1 X68.39 Y87.238 E.00985
G1 X68.349 Y87.121 E.00389
G1 X68.387 Y87.017 E.00347
G1 X68.39 Y86.73 E.009
G1 X68.509 Y86.379 E.01162
G1 X68.55 Y86.188 E.00613
G1 X68.732 Y85.927 E.00998
G1 X68.788 Y85.801 E.00432
G1 X68.901 Y85.676 E.00528
G1 X68.944 Y85.57 E.00359
G1 X69.296 Y85.21 E.01579
G1 X69.75 Y84.262 E.03296
G1 X69.972 Y83.622 E.02124
G1 X69.99 Y83.21 E.01293
G1 X70.07 Y82.982 E.00758
G1 X70.07 Y82.278 E.02207
G1 X69.99 Y82.112 E.00578
G1 X69.99 Y81.37 E.02326
G1 X70.192 Y80.775 E.0197
G1 X70.477 Y80.348 E.0161
G1 X70.532 Y80.218 E.00443
G1 X70.93 Y79.902 E.01593
G1 X71.34 Y79.709 E.01421
G1 X71.47 Y79.67 E.00426
G1 X71.817 Y79.461 E.0127
M204 P1000
G1 E-2.24 F4200
;WIPE_START
G1 F7200
G1 X71.868 Y79.43 E-.03307
G1 X72.45 Y79.43 E-.32253
G1 X72.931 Y79.59 E-.28091
G1 X73.433 Y79.801 E-.30177
G1 X73.461 Y79.829 E-.02172
;WIPE_END
G1 Z.4 F720
G1 X73.804 Y81.189 F9000
G1 Z.2 F720
G1 E3.2 F2400
M204 P600
;TYPE:Solid infill
;WIDTH:0.424384
G1 F1200
G1 X73.03 Y80.415 E.03472
G1 X72.751 Y80.286 E.00975
G1 X72.319 Y80.146 E.0144
G1 X72.222 Y80.146 E.00308
G1 X73.754 Y81.678 E.06872
G1 X73.754 Y81.763 E.0027
G1 X73.7 Y81.897 E.00458
G1 X73.66 Y82.124 E.00731
G1 X71.842 Y80.306 E.08155
G1 X71.627 Y80.368 E.0071
G1 X71.449 Y80.453 E.00626
G1 X73.488 Y82.492 E.09146
G1 X73.378 Y82.66 E.00637
G1 X73.233 Y82.776 E.00589
G1 X71.139 Y80.682 E.09393
G1 X71.091 Y80.714 E.00183
G1 X70.909 Y80.991 E.01051
G1 X72.973 Y83.056 E.09261
G1 X72.785 Y83.406 E.0126
G1 X70.756 Y81.378 E.09099
G1 X70.706 Y81.485 E.00375
G1 X70.706 Y81.868 E.01215
G1 X72.619 Y83.781 E.08581
G1 X72.439 Y84.14 E.01274
G1 X70.786 Y82.487 E.07415
G1 X70.782 Y83.022 E.01697
G1 X72.288 Y84.528 E.06756
G1 X72.24 Y84.779 E.00811
G1 X72.178 Y84.958 E.00601
G1 X70.705 Y83.484 E.0661
G1 X70.703 Y83.624 E.00444
G1 X70.654 Y83.849 E.0073
G1 X70.613 Y83.933 E.00296
G1 X72.092 Y85.411 E.06632
G1 X72.074 Y85.531 E.00385
G1 X72.074 Y85.933 E.01275
G1 X70.481 Y84.34 E.07146
G1 X70.392 Y84.623 E.00941
G1 X70.337 Y84.735 E.00396
G1 X72.075 Y86.473 E.07796
G1 X72.075 Y86.881 E.01294
G1 X72.099 Y87.037 E.00501
G1 X70.159 Y85.096 E.08705
G1 X69.978 Y85.455 E.01275
G1 X72.047 Y87.524 E.09281
G1 X71.884 Y87.901 E.01303
G1 X69.752 Y85.769 E.09564
G1 X69.543 Y85.982 E.00947
G1 X69.507 Y86.063 E.00281
G1 X71.63 Y88.186 E.09523
G1 X71.463 Y88.341 E.00723
G1 X71.325 Y88.421 E.00506
G1 X69.281 Y86.376 E.09171
G1 X69.168 Y86.656 E.00958
G1 X69.142 Y86.778 E.00396
G1 X70.943 Y88.578 E.08077
G1 X70.799 Y88.636 E.00492
M73 P5 R13
G1 X70.473 Y88.647 E.01035
G1 X69.106 Y87.281 E.0613
G1 X69.106 Y87.363 E.0026
G1 X69.168 Y87.553 E.00634
G1 X69.43 Y88.074 E.0185
G1 X69.466 Y88.18 E.00355
G1 X69.99 Y88.704 E.02351
M204 P1000
G1 E-2.24 F4200
;WIPE_START
G1 F7200
G1 X69.466 Y88.18 E-.41066
G1 X69.43 Y88.074 E-.06204
G1 X69.168 Y87.553 E-.32317
G1 X69.106 Y87.363 E-.11076
G1 X69.106 Y87.281 E-.04544
G1 X69.116 Y87.291 E-.00793
;WIPE_END
G1 Z.4 F720
G1 X85.119 Y79.118 F9000
G1 Z.2 F720
G1 E3.2 F2400
M204 P600
;TYPE:Perimeter
;WIDTH:0.419999
G1 F1200
G1 X85.623 Y79.513 E.02008
G1 X85.968 Y79.699 E.01229
G1 X86.907 Y80.049 E.03142
G1 X87.359 Y80.503 E.02009
G1 X87.56 Y80.911 E.01426
G1 X87.773 Y81.587 E.02222
G1 X87.693 Y81.958 E.0119
G1 X87.52 Y82.45 E.01635
G1 X87.357 Y82.759 E.01095
G1 X86.984 Y83.134 E.01658
G1 X86.751 Y83.302 E.00901
G1 X86.086 Y83.533 E.02207
G1 X85.655 Y83.533 E.01351
G1 X85.216 Y83.378 E.0146
G1 X84.542 Y82.963 E.02482
G1 X84.291 Y82.749 E.01034
G1 X84.076 Y82.283 E.01609
G1 X83.888 Y81.75 E.01772
G1 X83.939 Y81.639 E.00383
G1 X84.042 Y81.115 E.01674
G1 X84.377 Y80.507 E.02177
G1 X84.572 Y80.305 E.0088
G1 X84.778 Y79.993 E.01172
G1 X84.995 Y79.519 E.01635
G1 X85.101 Y79.176 E.01126
M204 P1000
G1 X85.101 Y79.176 F9000
G1 X84.827 Y78.235
M204 P600
;TYPE:External perimeter
G1 F1200
G1 X85.427 Y78.892 E.0279
G1 X85.868 Y79.224 E.01731
G1 X87.113 Y79.721 E.04203
