; generated by PrusaSlicer 2.7.4 on 2024-10-19 at 16:11:18 UTC


;
;

;
;
; 

; external perimeters extrusion width = 0.40mm
; perimeters extrusion width = 0.40mm
; infill extrusion width = 0.45mm
; solid infill extrusion width = 0.45mm
; top infill extrusion width = 0.40mm
; first layer extrusion width = 0.42mm

M73 P0 R9
M201 X2500 Y2500 Z400 E5000 ; sets maximum accelerations, mm/sec^2
M203 X180 Y180 Z12 E80 ; sets maximum feedrates, mm / sec
M204 P2000 R1250 T2500 ; sets acceleration (P, T) and retract acceleration (R), mm/sec^2
M205 X8.00 Y8.00 Z2.00 E10.00 ; sets the jerk limits, mm/sec
M205 S0 T0 ; sets the minimum extruding and travel feed rate, mm/sec

; printing object binary_red.stl id:0 copy 0
; stop printing object binary_red.stl id:0 copy 0

;TYPE:Custom
M862.3 P "MINI" ; printer model check
G90 ; use absolute coordinates
M83 ; extruder relative mode
M104 S170 ; set extruder temp for bed leveling
M140 S60 ; set bed temp
M109 R170 ; wait for bed leveling temp
M190 S60 ; wait for bed temp
M204 T1250 ; set travel acceleration
G28 ; home all without mesh bed level
G29 ; mesh bed leveling 
M204 T2500 ; restore travel acceleration
M104 S215 ; set extruder temp
G92 E0
G1 Y-2 X179 F2400
G1 Z3 F720
M109 S215 ; wait for extruder temp

; intro line
G1 X170 F1000
G1 Z0.2 F720
M73 P0 R8
G1 X110 E8 F900
M73 P1 R8
G1 X40 E10 F700
G92 E0

M221 S95 ; set flow
G21 ; set units to millimeters
G90 ; use absolute coordinates
M83 ; use relative distances for extrusion
M900 K0.2 ; Filament gcode LA 1.5
; ; Filament gcode LA 1.0
M107
;LAYER_CHANGE
;Z:0.2
;HEIGHT:0.2
G1 E-3.2 F4200
M73 P2 R8
G1 Z.4 F720
G1 X82.903 Y70.872 F9000
G1 Z.2 F720
G1 E3.2 F2400
M204 P600
;TYPE:Skirt/Brim
;WIDTH:0.42
G1 F1200
M73 P3 R8
G1 X84.666 Y70.024 E.06134
G1 X101.124 Y69.623 E.51618
G1 X102.306 Y69.911 E.03815
G1 X106.123 Y71.992 E.13631
G1 X106.818 Y72.487 E.02675
G1 X107.469 Y73.125 E.02858
G1 X111.893 Y78.918 E.22854
G1 X112.284 Y79.546 E.0232
G1 X112.657 Y80.498 E.03206
G1 X112.777 Y81.244 E.02369
G1 X112.777 Y82.256 E.03173
G1 X112.655 Y83.007 E.02386
G1 X112.297 Y83.941 E.03136
G1 X111.732 Y84.824 E.03287
G1 X91.004 Y112.675 E1.08855
G1 X90.528 Y113.172 E.02158
G1 X89.621 Y113.774 E.03413
G1 X88.449 Y114.255 E.03972
G1 X87.414 Y114.449 E.03302
G1 X68.096 Y116.057 E.6078
G1 X67.404 Y116.057 E.0217
G1 X66.651 Y115.935 E.02392
G1 X65.728 Y115.537 E.03152
G1 X65.108 Y115.082 E.02411
G1 X64.312 Y114.123 E.03908
G1 X63.885 Y113.167 E.03283
G1 X63.763 Y112.416 E.02386
G1 X63.763 Y111.804 E.01919
G1 X63.885 Y111.053 E.02386
G1 X64.07 Y110.55 E.0168
G1 X82.47 Y71.511 E1.35319
G1 X82.799 Y70.996 E.01916
M73 P4 R8
G1 X82.865 Y70.918 E.0032
M204 P1000
G1 E-2.24 F4200
;WIPE_START
G1 F7200
G1 X82.903 Y70.872 E-.03306
G1 X84.41 Y70.147 E-.92694
;WIPE_END
G1 Z.4 F720
; printing object binary_red.stl id:0 copy 0
G1 X69.548 Y108.953 F9000
G1 Z.2 F720
G1 E3.2 F2400
M204 P600
;TYPE:External perimeter
;WIDTH:0.38292
G1 F1200
G1 X69.552 Y108.952 E.00012
G1 X70.169 Y109.145 E.01828
G1 X70.552 Y109.474 E.01427
G1 X70.698 Y109.696 E.00751
G1 X70.87 Y110.184 E.01463
G1 X70.87 Y110.596 E.01165
G1 X70.79 Y110.916 E.00933
G1 X70.571 Y111.404 E.01512
G1 X70.288 Y111.776 E.01321
G1 X70.253 Y111.887 E.00329
G1 X69.256 Y112.884 E.03986
G1 X68.827 Y113.157 E.01438
G1 X68.355 Y113.386 E.01483
G1 X68.188 Y113.43 E.00488
G1 X68.032 Y113.51 E.00496
G1 X67.464 Y113.51 E.01606
G1 X67.228 Y113.43 E.00704
G1 X66.914 Y113.276 E.00989
G1 X66.608 Y113.005 E.01156
G1 X66.434 Y112.675 E.01055
G1 X66.335 Y112.371 E.00904
G1 X66.31 Y111.948 E.01198
G1 X66.366 Y111.81 E.00421
G1 X66.39 Y111.624 E.0053
G1 X66.609 Y111.137 E.0151
G1 X66.731 Y111.003 E.00512
G1 X67.01 Y110.57 E.01456
G1 X67.934 Y109.649 E.03688
G1 X68.044 Y109.612 E.00328
G1 X68.256 Y109.408 E.00832
G1 X68.656 Y109.169 E.01317
G1 X69.152 Y109.03 E.01456
G1 X69.289 Y108.974 E.00418
G1 X69.488 Y108.958 E.00564
M204 P1000
G1 E-2.24 F4200
;WIPE_START
G1 F7200
G1 X69.548 Y108.953 E-.03337
G1 X69.552 Y108.952 E-.00228
G1 X70.169 Y109.145 E-.35826
G1 X70.552 Y109.474 E-.2798
G1 X70.698 Y109.696 E-.14725
G1 X70.781 Y109.932 E-.13904
;WIPE_END
G1 Z.4 F720
G1 X85.808 Y107.915 F9000
G1 Z.2 F720
G1 E3.2 F2400
M204 P600
;TYPE:Perimeter
;WIDTH:0.419999
G1 F1200
G1 X86.811 Y107.94 E.03146
G1 X87.108 Y107.866 E.0096
G1 X87.623 Y108.008 E.01675
G1 X87.967 Y108.199 E.01234
G1 X88.32 Y108.555 E.01572
G1 X88.536 Y108.996 E.0154
G1 X88.605 Y109.43 E.01378
G1 X88.596 Y109.558 E.00402
G1 X88.455 Y110.088 E.0172
G1 X88.21 Y110.425 E.01306
G1 X87.826 Y110.632 E.01368
G1 X87.359 Y110.836 E.01598
G1 X86.861 Y110.836 E.01561
G1 X86.424 Y110.681 E.01454
G1 X85.999 Y110.404 E.01591
G1 X85.591 Y110.034 E.01727
G1 X85.225 Y109.874 E.01252
G1 X85.59 Y109.265 E.02226
G1 X85.721 Y108.824 E.01442
G1 X85.777 Y108.44 E.01217
G1 X85.805 Y107.975 E.01461
M204 P1000
G1 X85.805 Y107.975 F9000
G1 X85.328 Y107.396
M204 P600
G1 F1200
G1 X85.498 Y107.463 E.00573
G1 X86.215 Y107.544 E.02262
G1 X86.783 Y107.564 E.01782
G1 X87.021 Y107.487 E.00784
G1 X87.532 Y107.58 E.01629
G1 X87.997 Y107.77 E.01575
G1 X88.42 Y108.089 E.01661
G1 X88.72 Y108.49 E.0157
G1 X88.899 Y108.875 E.01331
G1 X88.994 Y109.43 E.01765
G1 X88.973 Y109.765 E.01052
G1 X88.823 Y110.172 E.0136
G1 X88.631 Y110.528 E.01268
G1 X88.321 Y110.825 E.01346
G1 X87.445 Y111.213 E.03004
G1 X86.775 Y111.213 E.02101
G1 X86.368 Y111.063 E.0136
G1 X86.18 Y110.969 E.00659
G1 X85.783 Y110.719 E.01471
G1 X85.448 Y110.398 E.01455
G1 X84.972 Y110.18 E.01642
G1 X84.479 Y110.053 E.01596
G1 X84.757 Y109.872 E.0104
G1 X84.977 Y109.56 E.01197
G1 X85.244 Y109.111 E.01638
G1 X85.391 Y108.609 E.0164
G1 X85.385 Y108.214 E.01239
G1 X85.418 Y108.138 E.0026
G1 X85.425 Y107.892 E.00772
G1 X85.34 Y107.454 E.01399
M204 P1000
G1 X85.34 Y107.454 F9000
G1 X84.75 Y106.756
M204 P600
;TYPE:External perimeter
G1 F1200
G1 X84.791 Y106.789 E.00165
G1 X84.982 Y106.83 E.00613
G1 X85.294 Y106.934 E.01031
G1 X85.559 Y107.091 E.00966
G1 X86.231 Y107.167 E.0212
G1 X86.755 Y107.188 E.01644
G1 X86.906 Y107.109 E.00534
G1 X87.25 Y107.11 E.01079
G1 X87.4 Y107.173 E.0051
G1 X87.57 Y107.19 E.00536
G1 X87.872 Y107.27 E.0098
G1 X88.331 Y107.503 E.01614
G1 X88.714 Y107.838 E.01595
G1 X88.955 Y108.127 E.0118
G1 X88.977 Y108.207 E.0026
G1 X89.115 Y108.364 E.00655
G1 X89.27 Y108.822 E.01516
G1 X89.35 Y108.988 E.00578
M73 P5 R8
G1 X89.35 Y109.301 E.00981
G1 X89.4 Y109.43 E.00434
G1 X89.353 Y109.523 E.00327
G1 X89.35 Y109.81 E.009
G1 X89.231 Y110.161 E.01162
G1 X89.19 Y110.352 E.00613
G1 X89.008 Y110.613 E.00998
G1 X88.954 Y110.736 E.00421
G1 X88.548 Y111.147 E.01811
G1 X87.552 Y111.59 E.03418
G1 X87.241 Y111.59 E.00975
G1 X87.111 Y111.633 E.00429
G1 X87.066 Y111.61 E.00158
G1 X86.73 Y111.59 E.01055
G1 X86.379 Y111.471 E.01162
G1 X86.188 Y111.43 E.00613
G1 X85.926 Y111.248 E.01
G1 X85.801 Y111.193 E.00428
G1 X85.676 Y111.079 E.0053
G1 X85.567 Y111.035 E.00369
G1 X85.207 Y110.688 E.01568
G1 X84.985 Y110.583 E.0077
G1 X84.474 Y110.432 E.01671
G1 X84.111 Y110.424 E.01138
G1 X83.637 Y110.254 E.01579
G1 X84.017 Y109.891 E.01648
G1 X84.47 Y109.618 E.01658
G1 X84.659 Y109.358 E.01008
G1 X84.918 Y108.923 E.01587
G1 X84.947 Y108.724 E.00631
G1 X85.004 Y108.585 E.00471
G1 X85.028 Y108.101 E.01519
G1 X85.054 Y107.964 E.00437
G1 X84.948 Y107.413 E.01759
G1 X84.835 Y107.267 E.00579
G1 X84.83 Y107.005 E.00822
G1 X84.768 Y106.813 E.00633
M204 P1000
G1 E-2.24 F4200
;WIPE_START
G1 F7200
G1 X84.75 Y106.756 E-.03313
G1 X84.791 Y106.789 E-.02917
G1 X84.982 Y106.83 E-.10826
G1 X85.294 Y106.934 E-.18225
G1 X85.559 Y107.091 E-.17069
G1 X86.231 Y107.167 E-.37477
G1 X86.342 Y107.171 E-.06173
;WIPE_END
G1 Z.4 F720
G1 X88.392 Y109.117 F9000
G1 Z.2 F720
G1 E3.2 F2400
M204 P600
;TYPE:Solid infill
;WIDTH:0.437592
G1 F1200
G1 X87.69 Y108.416 E.03256
G1 X87.508 Y108.328 E.00663
G1 X87.332 Y108.272 E.00606
G1 X87.098 Y108.222 E.00785
G1 X86.967 Y108.251 E.0044
G1 X88.257 Y109.54 E.05985
G1 X88.257 Y109.612 E.00236
G1 X88.129 Y109.971 E.01251
G1 X86.424 Y108.266 E.07913
G1 X86.117 Y108.256 E.01008
G1 X86.103 Y108.503 E.00812
G1 X87.848 Y110.248 E.08099
G1 X87.473 Y110.432 E.01371
G1 X86.026 Y108.984 E.06718
G1 X85.991 Y109.177 E.00644
G1 X85.896 Y109.412 E.00832
G1 X87.15 Y110.666 E.0582
M204 P1000
G1 E-2.24 F4200
;WIPE_START
G1 F7200
G1 X85.925 Y109.441 E-.96
;WIPE_END
G1 Z.4 F720
G1 X77.831 Y99.762 F9000
G1 Z.2 F720
G1 E3.2 F2400
M204 P600
;TYPE:Perimeter
;WIDTH:0.419999
G1 F1200
G1 X77.668 Y99.71 E.00536
G1 X77.197 Y99.474 E.01652
G1 X76.78 Y99.184 E.01593
G1 X76.52 Y98.816 E.01413
G1 X76.344 Y98.334 E.01609
G1 X76.344 Y97.885 E.01408
G1 X76.459 Y97.589 E.00996
G1 X76.672 Y97.211 E.0136
G1 X77.034 Y96.862 E.01577
G1 X77.925 Y96.547 E.02963
G1 X78.398 Y96.268 E.01722
G1 X78.873 Y95.907 E.01871
G1 X79.273 Y95.5 E.01789
G1 X79.644 Y95.043 E.01846
G1 X79.905 Y94.56 E.01721
G1 X80.085 Y94.116 E.01502
G1 X80.379 Y93.279 E.02782
G1 X80.766 Y92.893 E.01714
G1 X81.12 Y92.745 E.01203
G1 X81.63 Y92.598 E.01664
G1 X82.038 Y92.713 E.01329
G1 X82.53 Y92.935 E.01692
G1 X82.83 Y93.226 E.0131
G1 X82.98 Y93.484 E.00936
G1 X83.156 Y93.979 E.01647
G1 X83.156 Y94.241 E.00821
G1 X83.038 Y94.559 E.01063
G1 X82.646 Y95.258 E.02513
G1 X82.293 Y95.484 E.01314
G1 X81.8 Y95.686 E.0167
G1 X81.35 Y95.925 E.01598
G1 X80.948 Y96.233 E.01588
G1 X79.911 Y97.275 E.04609
G1 X79.715 Y97.564 E.01095
G1 X79.467 Y97.998 E.01567
G1 X79.074 Y98.943 E.03209
G1 X78.778 Y99.366 E.01619
G1 X78.336 Y99.62 E.01598
G1 X77.889 Y99.745 E.01455
M204 P1000
G1 X77.889 Y99.745 F9000
G1 X77.831 Y100.173
M204 P600
G1 F1200
G1 X77.259 Y99.925 E.01955
G1 X76.662 Y99.598 E.02134
G1 X76.375 Y99.313 E.01268
G1 X76.15 Y98.91 E.01447
G1 X75.967 Y98.41 E.01669
G1 X75.967 Y97.81 E.01881
G1 X76.157 Y97.28 E.01765
G1 X76.468 Y96.818 E.01746
G1 X76.585 Y96.756 E.00415
G1 X76.822 Y96.542 E.01001
G1 X77.743 Y96.217 E.03062
G1 X78.19 Y95.953 E.01628
G1 X78.606 Y95.641 E.0163
G1 X79.004 Y95.236 E.0178
G1 X79.399 Y94.74 E.01988
G1 X79.647 Y94.231 E.01775
G1 X79.884 Y93.52 E.0235
G1 X80.061 Y93.064 E.01534
G1 X80.542 Y92.583 E.02133
G1 X80.844 Y92.432 E.01059
G1 X81.587 Y92.207 E.02434
G1 X82.225 Y92.361 E.02058
G1 X82.749 Y92.611 E.0182
G1 X83.199 Y93.063 E.02
G1 X83.35 Y93.39 E.01129
G1 X83.533 Y93.895 E.01684
G1 X83.533 Y94.325 E.01348
G1 X83.383 Y94.733 E.01363
G1 X83.156 Y95.155 E.01502
G1 X82.864 Y95.573 E.01599
G1 X82.45 Y95.84 E.01545
G1 X82.113 Y95.958 E.0112
G1 X81.656 Y96.171 E.01581
G1 X81.215 Y96.499 E.01723
G1 X80.178 Y97.541 E.04609
G1 X80 Y97.81 E.01011
G1 X79.646 Y98.488 E.02398
G1 X79.48 Y98.989 E.01655
G1 X79.205 Y99.435 E.01643
G1 X78.996 Y99.682 E.01014
G1 X78.599 Y99.906 E.01429
G1 X78.121 Y100.093 E.01609
G1 X77.889 Y100.157 E.00755
M204 P1000
G1 X77.889 Y100.157 F9000
G1 X77.786 Y100.536
M204 P600
;TYPE:External perimeter
G1 F1200
G1 X77.309 Y100.391 E.01563
G1 X76.829 Y100.151 E.01683
G1 X76.557 Y99.959 E.01044
G1 X76.445 Y99.914 E.00378
G1 X76.082 Y99.554 E.01603
G1 X75.869 Y99.201 E.01293
G1 X75.59 Y98.512 E.02331
G1 X75.59 Y97.77 E.02326
G1 X75.709 Y97.419 E.01162
G1 X75.75 Y97.228 E.00613
G1 X76.207 Y96.544 E.02579
G1 X76.343 Y96.458 E.00505
G1 X76.61 Y96.222 E.01117
G1 X76.859 Y96.109 E.00857
G1 X77.51 Y95.906 E.02138
G1 X77.724 Y95.745 E.0084
G1 X77.936 Y95.661 E.00715
G1 X78.2 Y95.432 E.01096
G1 X78.338 Y95.374 E.00469
G1 X78.736 Y94.971 E.01776
G1 X78.789 Y94.844 E.00431
G1 X78.998 Y94.629 E.0094
G1 X79.256 Y94.173 E.01643
G1 X79.494 Y93.538 E.02126
G1 X79.51 Y93.308 E.00723
G1 X79.743 Y92.849 E.01614
G1 X80.319 Y92.273 E.02554
G1 X81.148 Y91.91 E.02838
G1 X81.302 Y91.91 E.00483
G1 X81.468 Y91.83 E.00578
G1 X81.73 Y91.83 E.00821
G1 X81.872 Y91.889 E.00482
G1 X82.05 Y91.91 E.00562
G1 X82.401 Y92.029 E.01162
G1 X82.581 Y92.07 E.00579
G1 X82.704 Y92.181 E.00519
G1 X82.954 Y92.282 E.00845
G1 X83.517 Y92.848 E.02503
G1 X83.75 Y93.37 E.01792
G1 X83.91 Y93.85 E.01586
G1 X83.91 Y94.37 E.0163
G1 X83.791 Y94.72 E.01159
G1 X83.75 Y94.912 E.00616
G1 X83.547 Y95.198 E.011
G1 X83.299 Y95.641 E.01592
G1 X82.972 Y95.997 E.01516
G1 X82.79 Y96.074 E.0062
M73 P6 R8
G1 X82.628 Y96.187 E.00619
G1 X81.878 Y96.481 E.02526
G1 X81.62 Y96.709 E.0108
G1 X81.482 Y96.765 E.00467
G1 X80.445 Y97.808 E.04612
G1 X80.388 Y97.941 E.00454
G1 X80.279 Y98.064 E.00515
G1 X79.99 Y98.678 E.02128
G1 X79.751 Y99.311 E.02121
G1 X79.559 Y99.584 E.01046
G1 X79.514 Y99.695 E.00376
G1 X79.233 Y99.978 E.0125
G1 X78.72 Y100.271 E.01852
G1 X78.272 Y100.47 E.01537
G1 X78.121 Y100.47 E.00473
G1 X77.953 Y100.55 E.00583
G1 X77.844 Y100.55 E.00342
M204 P1000
G1 E-2.24 F4200
;WIPE_START
G1 F7200
G1 X77.786 Y100.536 E-.03306
G1 X77.309 Y100.391 E-.27628
G1 X76.829 Y100.151 E-.2974
G1 X76.557 Y99.959 E-.1845
G1 X76.445 Y99.914 E-.06689
G1 X76.315 Y99.784 E-.10187
;WIPE_END
G1 Z.4 F720
G1 X81.985 Y92.869 F9000
G1 Z.2 F720
G1 E3.2 F2400
M204 P600
;TYPE:Solid infill
;WIDTH:0.432913
G1 F1200
G1 X82.603 Y93.487 E.02834
G1 X82.692 Y93.673 E.00669
G1 X82.817 Y94.045 E.01273
G1 X82.817 Y94.174 E.00418
G1 X82.797 Y94.233 E.00202
G1 X81.537 Y92.973 E.05778
G1 X81.115 Y93.102 E.01431
G1 X82.625 Y94.612 E.06925
G1 X82.482 Y94.886 E.01002
G1 X82.428 Y94.967 E.00316
G1 X80.8 Y93.339 E.07466
G1 X80.663 Y93.475 E.00626
G1 X80.582 Y93.673 E.00694
G1 X82.112 Y95.203 E.07017
G1 X81.712 Y95.354 E.01386
G1 X80.459 Y94.101 E.05746
G1 X80.309 Y94.502 E.01388
G1 X81.338 Y95.531 E.04719
G1 X81.023 Y95.768 E.01278
G1 X80.128 Y94.873 E.04104
G1 X80.007 Y95.121 E.00895
G1 X79.93 Y95.227 E.00425
G1 X80.709 Y96.006 E.03573
G1 X80.432 Y96.28 E.01263
G1 X79.679 Y95.527 E.03453
G1 X79.427 Y95.827 E.01271
G1 X80.155 Y96.555 E.03339
G1 X79.878 Y96.83 E.01266
G1 X79.154 Y96.105 E.03323
G1 X78.962 Y96.277 E.00836
G1 X78.842 Y96.345 E.00447
G1 X79.606 Y97.108 E.03501
G1 X79.383 Y97.438 E.01292
G1 X78.527 Y96.581 E.03928
G1 X78.3 Y96.695 E.00824
G1 X78.177 Y96.783 E.0049
G1 X79.188 Y97.794 E.04636
G1 X79.009 Y98.167 E.01342
G1 X77.793 Y96.951 E.05577
G1 X77.385 Y97.095 E.01403
G1 X78.864 Y98.573 E.0678
G1 X78.83 Y98.676 E.00352
G1 X78.68 Y98.94 E.00985
G1 X77.041 Y97.302 E.07514
G1 X76.806 Y97.618 E.01277
G1 X78.395 Y99.207 E.07287
G1 X78.151 Y99.33 E.00886
G1 X78.003 Y99.367 E.00495
G1 X76.684 Y98.047 E.06051
G1 X76.684 Y98.27 E.00723
G1 X76.827 Y98.669 E.01374
G1 X76.947 Y98.862 E.00737
G1 X77.529 Y99.445 E.02671
M204 P1000
G1 E-2.24 F4200
;WIPE_START
G1 F7200
G1 X76.947 Y98.862 E-.45651
G1 X76.827 Y98.669 E-.12594
G1 X76.684 Y98.27 E-.23488
G1 X76.684 Y98.047 E-.12358
G1 X76.708 Y98.071 E-.01909
;WIPE_END
G1 Z.4 F720
G1 X85.789 Y73.43 F9000
G1 Z.2 F720
G1 E3.2 F2400
M204 P600
;TYPE:External perimeter
;WIDTH:0.38292
G1 F1200
G1 X86.048 Y73.43 E.00732
M204 P1000
G1 E-2.24 F4200
;WIPE_START
G1 F7200
G1 X85.789 Y73.43 E-.14353
;WIPE_END
G1 E-.81647 F4200
G1 Z.4 F720
G1 X84.59 Y74.262 F9000
G1 Z.2 F720
G1 E3.2 F2400
M204 P600
;WIDTH:0.419999
G1 F1200
G1 X84.59 Y73.655 E.01903
G1 X84.789 Y73.029 E.0206
G1 X84.83 Y72.756 E.00866
G1 X85.085 Y73.013 E.01135
G1 X85.503 Y73.339 E.01662
;WIDTH:0.417079
G1 X85.789 Y73.43 E.00934
;WIDTH:0.393932
G1 X85.688 Y73.453 E.00302
;WIDTH:0.419999
G1 X85.252 Y73.683 E.01546
G1 X84.646 Y74.285 E.02678
G1 X84.618 Y74.419 E.00429
;WIDTH:0.407243
G1 X84.563 Y74.49 E.00272
;WIDTH:0.419999
G1 X84.583 Y74.322 E.0053
M204 P1000
G1 X84.583 Y74.322 F9000
G1 X85.035 Y73.398
M204 P600
;TYPE:Perimeter
;WIDTH:0.355894
G1 F1200
G1 X84.976 Y73.432 E.00177
G1 X85.035 Y73.466 E.00177
G1 X85.055 Y73.432 E.00103
M204 P1000
G1 E-2.24 F4200
;WIPE_START
G1 F7200
G1 X85.035 Y73.466 E-.02186
G1 X84.976 Y73.432 E-.03774
G1 X85.035 Y73.398 E-.03774
;WIPE_END
G1 E-.86266 F4200
G1 Z.4 F720
G1 X84.47 Y74.864 F9000
G1 Z.2 F720
G1 E3.2 F2400
M204 P600
;TYPE:External perimeter
;WIDTH:0.38292
G1 F1200
G1 X84.51 Y74.668 E.00566
M204 P1000
G1 E-2.24 F4200
;WIPE_START
G1 F7200
G1 X84.47 Y74.864 E-.11086
;WIPE_END
G1 E-.84914 F4200
G1 Z.4 F720
G1 X101.013 Y75.026 F9000
G1 Z.2 F720
G1 E3.2 F2400
M204 P600
;TYPE:Perimeter
;WIDTH:0.419999
G1 F1200
G1 X101.64 Y74.469 E.0263
G1 X101.824 Y74.099 E.01296
G1 X102.074 Y74.257 E.00927
G1 X102.611 Y74.54 E.01903
G1 X103.23 Y74.791 E.02094
G1 X103.751 Y74.896 E.01666
