; generated by PrusaSlicer 2.7.4 on 2024-10-19 at 16:11:31 UTC


;
;

;
;
; 

; external perimeters extrusion width = 0.40mm
; perimeters extrusion width = 0.40mm
; infill extrusion width = 0.45mm
; solid infill extrusion width = 0.45mm
; top infill extrusion width = 0.40mm
; first layer extrusion width = 0.42mm

M73 P0 R9
M201 X2500 Y2500 Z400 E5000 ; sets maximum accelerations, mm/sec^2
M203 X180 Y180 Z12 E80 ; sets maximum feedrates, mm / sec
M204 P2000 R1250 T2500 ; sets acceleration (P, T) and retract acceleration (R), mm/sec^2
M205 X8.00 Y8.00 Z2.00 E10.00 ; sets the jerk limits, mm/sec
M205 S0 T0 ; sets the minimum extruding and travel feed rate, mm/sec

; printing object binary_purple.stl id:0 copy 0
; stop printing object binary_purple.stl id:0 copy 0

;TYPE:Custom
M862.3 P "MINI" ; printer model check
G90 ; use absolute coordinates
M83 ; extruder relative mode
M104 S170 ; set extruder temp for bed leveling
M140 S60 ; set bed temp
M109 R170 ; wait for bed leveling temp
M190 S60 ; wait for bed temp
M204 T1250 ; set travel acceleration
G28 ; home all without mesh bed level
G29 ; mesh bed leveling 
M204 T2500 ; restore travel acceleration
M104 S215 ; set extruder temp
G92 E0
G1 Y-2 X179 F2400
G1 Z3 F720
M109 S215 ; wait for extruder temp

; intro line
G1 X170 F1000
G1 Z0.2 F720
G1 X110 E8 F900
M73 P1 R9
G1 X40 E10 F700
G92 E0

M221 S95 ; set flow
G21 ; set units to millimeters
G90 ; use absolute coordinates
M83 ; use relative distances for extrusion
M900 K0.2 ; Filament gcode LA 1.5
; ; Filament gcode LA 1.0
M107
;LAYER_CHANGE
;Z:0.2
;HEIGHT:0.2
G1 E-3.2 F4200
M73 P2 R8
G1 Z.4 F720
G1 X82.663 Y67.368 F9000
G1 Z.2 F720
G1 E3.2 F2400
M204 P600
;TYPE:Skirt/Brim
;WIDTH:0.42
G1 F1200
G1 X83.532 Y66.425 E.04021
G1 X84.227 Y65.906 E.0272
G1 X84.98 Y65.513 E.02663
G1 X85.905 Y65.199 E.03063
G1 X86.844 Y65.066 E.02974
G1 X87.82 Y65.102 E.03062
M73 P3 R8
G1 X91.731 Y65.791 E.12452
G1 X93.273 Y67.077 E.06296
G1 X105.133 Y88.637 E.77153
G1 X105.474 Y89.964 E.04296
G1 X105.364 Y90.787 E.02603
G1 X99.424 Y111.147 E.66499
G1 X98.65 Y112.398 E.04612
G1 X97.988 Y112.851 E.02515
G1 X94.824 Y114.395 E.11039
G1 X94.248 Y114.613 E.01931
G1 X93.348 Y114.797 E.0288
G1 X92.232 Y114.797 E.03499
G1 X88.798 Y114.144 E.1096
G1 X87.621 Y113.605 E.04059
G1 X78.569 Y106.485 E.3611
G1 X77.739 Y105.686 E.03612
G1 X75.698 Y102.688 E.11372
G1 X75.246 Y101.176 E.04948
G1 X75.302 Y100.569 E.01911
G1 X81.682 Y69.569 E.99235
G1 X81.927 Y68.773 E.02611
M73 P4 R8
G1 X82.635 Y67.421 E.04785
M204 P1000
G1 X82.635 Y67.421 F9000
G1 X82.967 Y67.596
M204 P600
G1 F1200
G1 X82.978 Y67.576 E.00072
G1 X83.798 Y66.692 E.03781
G1 X84.431 Y66.223 E.0247
G1 X85.148 Y65.851 E.02533
G1 X85.978 Y65.569 E.02749
G1 X86.844 Y65.443 E.02744
G1 X87.76 Y65.474 E.02874
G1 X91.612 Y66.149 E.12262
G1 X92.943 Y67.258 E.05432
G1 X104.803 Y88.818 E.77153
G1 X105.097 Y89.964 E.0371
G1 X105.002 Y90.682 E.02271
G1 X99.062 Y111.042 E.66499
G1 X97.822 Y112.512 E.0603
G1 X94.658 Y114.056 E.11039
G1 X94.128 Y114.255 E.01775
G1 X93.286 Y114.425 E.02693
G1 X92.294 Y114.425 E.0311
G1 X88.87 Y113.773 E.10929
G1 X87.854 Y113.308 E.03503
G1 X78.597 Y106.007 E.36966
G1 X77.697 Y105.043 E.04135
G1 X76.013 Y102.481 E.09613
G1 X75.623 Y101.176 E.04271
G1 X75.672 Y100.645 E.01672
G1 X82.052 Y69.645 E.99235
G1 X82.285 Y68.893 E.02468
M73 P5 R8
G1 X82.939 Y67.649 E.04407
M204 P1000
G1 E-2.24 F4200
;WIPE_START
G1 F7200
G1 X82.967 Y67.596 E-.03322
G1 X82.978 Y67.576 E-.01265
G1 X83.798 Y66.692 E-.66819
G1 X84.155 Y66.428 E-.24594
;WIPE_END
G1 Z.4 F720
; printing object binary_purple.stl id:0 copy 0
G1 X89.99 Y104.738 F9000
G1 Z.2 F720
G1 E3.2 F2400
M204 P600
;TYPE:External perimeter
;WIDTH:0.38292
G1 F1200
G1 X89.99 Y104.845 E.00303
M204 P1000
G1 E-2.24 F4200
;WIPE_START
G1 F7200
G1 X89.99 Y104.738 E-.0593
;WIPE_END
G1 E-.9007 F4200
G1 Z.4 F720
G1 X88.079 Y106.59 F9000
G1 Z.2 F720
G1 E3.2 F2400
M204 P600
;WIDTH:0.416276
G1 F1200
G1 X88.352 Y106.588 E.00848
;WIDTH:0.42144
G1 X88.368 Y106.59 E.00051
M204 P1000
G1 E-2.24 F4200
;WIPE_START
G1 F7200
G1 X88.352 Y106.588 E-.00894
G1 X88.079 Y106.59 E-.15129
;WIPE_END
G1 E-.79977 F4200
G1 Z.4 F720
G1 X90.489 Y107.093 F9000
G1 Z.2 F720
G1 E3.2 F2400
M204 P600
;TYPE:Perimeter
;WIDTH:0.50165
G1 F1200
G1 X90.658 Y107.17 E.00708
;WIDTH:0.460825
G1 X90.826 Y107.246 E.00641
;WIDTH:0.419999
G1 X91.036 Y107.391 E.008
G1 X91.35 Y107.522 E.01067
G1 X91.831 Y107.681 E.01588
G1 X92.414 Y107.704 E.01829
G1 X92.496 Y107.747 E.0029
G1 X93.058 Y107.784 E.01766
G1 X93.46 Y107.927 E.01338
G1 X93.766 Y108.118 E.01131
G1 X94.07 Y108.388 E.01275
G1 X94.146 Y108.552 E.00567
G1 X94.231 Y108.915 E.01169
G1 X94.421 Y109.396 E.01622
G1 X94.706 Y109.829 E.01625
G1 X94.266 Y110.005 E.01486
G1 X94.07 Y110.155 E.00774
G1 X93.708 Y110.513 E.01596
G1 X93.224 Y110.772 E.01721
G1 X92.791 Y110.85 E.01379
G1 X92.356 Y110.774 E.01385
G1 X91.894 Y110.543 E.0162
G1 X91.352 Y110.389 E.01767
G1 X91.058 Y110.368 E.00924
G1 X91.077 Y110.132 E.00742
G1 X91.144 Y109.782 E.01117
G1 X91.144 Y109.078 E.02207
G1 X91.064 Y108.571 E.01609
G1 X90.959 Y108.142 E.01385
G1 X90.761 Y107.613 E.01771
;WIDTH:0.460825
G1 X90.625 Y107.353 E.0102
;WIDTH:0.50165
G1 X90.517 Y107.146 E.00891
M204 P1000
G1 X90.517 Y107.146 F9000
G1 X89.222 Y106.57
M204 P600
;WIDTH:0.419999
G1 F1200
G1 X89.487 Y106.455 E.00906
G1 X89.865 Y106.069 E.01694
G1 X89.978 Y105.881 E.00688
G1 X90.059 Y106.039 E.00557
G1 X90.355 Y106.411 E.01491
G1 X90.735 Y106.749 E.01595
G1 X91.168 Y107.018 E.01598
G1 X91.43 Y107.154 E.00926
G1 X91.914 Y107.313 E.01597
G1 X92.49 Y107.327 E.01807
G1 X92.601 Y107.385 E.00393
G1 X93.131 Y107.407 E.01663
G1 X93.585 Y107.562 E.01504
G1 X94.033 Y107.818 E.01618
G1 X94.336 Y108.122 E.01346
G1 X94.56 Y108.49 E.01351
G1 X94.573 Y108.662 E.00541
G1 X94.672 Y109.03 E.01195
G1 X94.864 Y109.411 E.01338
G1 X95.224 Y109.922 E.0196
G1 X95.382 Y110.041 E.0062
G1 X95.173 Y110.074 E.00663
G1 X94.6 Y110.274 E.01903
G1 X94.335 Y110.422 E.00952
G1 X93.875 Y110.879 E.02033
G1 X93.124 Y111.213 E.02577
G1 X92.455 Y111.213 E.02098
G1 X92.01 Y111.04 E.01497
G1 X91.781 Y110.916 E.00817
G1 X91.266 Y110.756 E.01691
G1 X90.719 Y110.713 E.0172
G1 X90.554 Y110.736 E.00522
G1 X90.674 Y110.381 E.01175
G1 X90.687 Y110.06 E.01007
G1 X90.727 Y109.992 E.00247
G1 X90.767 Y109.782 E.0067
G1 X90.761 Y108.994 E.02471
G1 X90.687 Y108.805 E.00636
G1 X90.687 Y108.598 E.00649
G1 X90.628 Y108.346 E.00811
G1 X90.449 Y107.832 E.01707
G1 X90.23 Y107.464 E.01343
G1 X89.899 Y107.035 E.01699
G1 X89.489 Y106.682 E.01696
G1 X89.277 Y106.593 E.00721
M204 P1000
G1 X89.277 Y106.593 F9000
G1 X88.368 Y106.59
M204 P600
;TYPE:External perimeter
;WIDTH:0.42144
G1 F1200
G1 X88.634 Y106.425 E.00985
;WIDTH:0.420358
G1 X89.111 Y106.211 E.01641
;WIDTH:0.419999
G1 X89.244 Y106.167 E.00439
G1 X89.603 Y105.796 E.01619
G1 X89.99 Y104.845 E.03219
G1 X90.178 Y105.303 E.01552
G1 X90.354 Y105.805 E.01668
G1 X90.681 Y106.215 E.01644
G1 X90.81 Y106.283 E.00457
G1 X90.997 Y106.478 E.00847
G1 X91.142 Y106.547 E.00503
G1 X91.423 Y106.74 E.01069
G1 X92.025 Y106.95 E.01999
G1 X92.53 Y106.95 E.01583
G1 X92.706 Y107.022 E.00596
G1 X93.17 Y107.03 E.01455
G1 X93.871 Y107.269 E.02322
G1 X94.143 Y107.461 E.01044
G1 X94.253 Y107.505 E.00371
G1 X94.738 Y107.99 E.02151
G1 X94.8 Y108.171 E.006
G1 X94.95 Y108.359 E.00754
G1 X94.95 Y108.662 E.0095
G1 X95.034 Y108.896 E.0078
G1 X95.166 Y109.185 E.00996
G1 X95.465 Y109.618 E.0165
G1 X95.789 Y109.851 E.01251
G1 X95.964 Y110.058 E.0085
G1 X96.079 Y110.102 E.00386
G1 X96.262 Y110.27 E.00779
G1 X96.108 Y110.27 E.00483
G1 X95.778 Y110.374 E.01085
G1 X95.591 Y110.39 E.00588
G1 X95.078 Y110.501 E.01646
G1 X94.601 Y110.69 E.01609
G1 X94.089 Y111.198 E.02261
G1 X93.232 Y111.59 E.02955
G1 X92.921 Y111.59 E.00975
G1 X92.791 Y111.633 E.00429
G1 X92.746 Y111.61 E.00158
G1 X92.41 Y111.59 E.01055
G1 X91.981 Y111.434 E.01431
G1 X91.552 Y111.215 E.0151
G1 X91.358 Y111.193 E.00612
G1 X91.221 Y111.138 E.00463
G1 X90.898 Y111.139 E.01013
G1 X90.772 Y111.099 E.00414
G1 X90.315 Y111.184 E.01457
G1 X89.875 Y111.226 E.01386
G1 X90.017 Y111.038 E.00739
G1 X90.286 Y110.353 E.02307
G1 X90.31 Y110.01 E.01078
G1 X90.39 Y109.782 E.00758
G1 X90.39 Y109.078 E.02207
G1 X90.31 Y108.912 E.00578
G1 X90.31 Y108.598 E.00985
G1 X90.065 Y107.909 E.02293
G1 X89.906 Y107.699 E.00826
G1 X89.89 Y107.626 E.00234
G1 X89.641 Y107.367 E.01126
G1 X89.603 Y107.268 E.00332
G1 X89.204 Y106.946 E.01608
G1 X89.055 Y106.941 E.00467
G1 X88.84 Y106.817 E.00778
;WIDTH:0.42144
G1 X88.423 Y106.616 E.01457
M204 P1000
G1 E-2.24 F4200
;WIPE_START
G1 F7200
M73 P6 R8
G1 X88.368 Y106.59 E-.03371
G1 X88.634 Y106.425 E-.17346
G1 X89.111 Y106.211 E-.28972
G1 X89.244 Y106.167 E-.07763
G1 X89.603 Y105.796 E-.28609
G1 X89.671 Y105.63 E-.09939
;WIPE_END
G1 Z.4 F720
G1 X89.955 Y106.549 F9000
G1 Z.2 F720
G1 E3.2 F2400
M204 P600
;TYPE:Perimeter
;WIDTH:0.482432
G1 F1200
G1 X90.312 Y106.924 E.01892
;WIDTH:0.50165
G1 X90.489 Y107.093 E.00933
M204 P1000
G1 E-2.24 F4200
;WIPE_START
G1 F7200
G1 X90.312 Y106.924 E-.13562
G1 X89.955 Y106.549 E-.28692
;WIPE_END
G1 E-.53746 F4200
G1 Z.4 F720
G1 X93.217 Y108.028 F9000
G1 Z.2 F720
G1 E3.2 F2400
M204 P600
;TYPE:Solid infill
;WIDTH:0.43796
G1 F1200
G1 X93.807 Y108.618 E.02741
G1 X93.863 Y108.735 E.00426
G1 X93.899 Y108.989 E.00843
G1 X94.055 Y109.425 E.01521
G1 X92.752 Y108.122 E.06053
G1 X92.395 Y108.072 E.01184
G1 X92.338 Y108.043 E.0021
G1 X92.113 Y108.042 E.00739
G1 X93.913 Y109.841 E.08359
G1 X93.63 Y110.117 E.01298
G1 X91.417 Y107.904 E.1028
G1 X91.215 Y107.839 E.00697
G1 X91.384 Y108.369 E.01827
G1 X91.388 Y108.434 E.00214
G1 X93.309 Y110.355 E.08924
G1 X92.97 Y110.496 E.01206
G1 X92.892 Y110.496 E.00256
G1 X91.473 Y109.078 E.06589
G1 X91.482 Y109.645 E.01863
G1 X92.461 Y110.624 E.04548
M204 P1000
G1 E-2.24 F4200
;WIPE_START
G1 F7200
G1 X91.482 Y109.645 E-.76725
G1 X91.477 Y109.297 E-.19275
;WIPE_END
G1 Z.4 F720
G1 X83.169 Y103.873 F9000
G1 Z.2 F720
G1 E3.2 F2400
M204 P600
;TYPE:Perimeter
;WIDTH:0.419999
G1 F1200
G1 X82.582 Y103.716 E.01905
G1 X82.132 Y103.716 E.01411
G1 X82.061 Y103.678 E.00252
G1 X81.661 Y103.636 E.01261
G1 X81.349 Y103.521 E.01043
G1 X80.873 Y103.276 E.01679
G1 X80.641 Y103.001 E.01128
G1 X80.384 Y102.538 E.0166
G1 X80.176 Y102.065 E.0162
G1 X79.899 Y101.655 E.01551
G1 X80.124 Y101.559 E.00767
G1 X80.3 Y101.423 E.00697
G1 X80.942 Y100.791 E.02825
G1 X81.171 Y100.467 E.01244
G1 X81.416 Y100.017 E.01607
G1 X81.84 Y99.011 E.03423
G1 X81.895 Y99.33 E.01015
G1 X82.108 Y99.904 E.0192
G1 X82.337 Y100.372 E.01634
G1 X82.639 Y100.824 E.01704
G1 X82.917 Y101.153 E.01351
G1 X83.145 Y101.576 E.01507
G1 X83.306 Y102.058 E.01593
G1 X83.156 Y102.851 E.0253
G1 X83.168 Y103.813 E.03017
M204 P1000
G1 X83.168 Y103.813 F9000
G1 X83.554 Y104.462
M204 P600
G1 F1200
G1 X83.083 Y104.239 E.01634
G1 X82.582 Y104.093 E.01636
G1 X82.052 Y104.093 E.01662
G1 X81.949 Y104.038 E.00366
G1 X81.575 Y104.013 E.01175
G1 X81.168 Y103.863 E.0136
G1 X80.745 Y103.635 E.01507
G1 X80.509 Y103.446 E.00948
G1 X80.328 Y103.21 E.00933
G1 X80.077 Y102.765 E.01602
G1 X79.762 Y102.1 E.02307
G1 X79.437 Y101.627 E.01799
G1 X79.254 Y101.476 E.00744
G1 X79.784 Y101.298 E.01753
G1 X80.036 Y101.154 E.0091
G1 X80.678 Y100.523 E.02822
G1 X80.86 Y100.25 E.01029
G1 X81.08 Y99.843 E.01451
G1 X81.461 Y98.911 E.03157
G1 X81.754 Y98.487 E.01616
G1 X82.249 Y97.966 E.02253
G1 X82.18 Y98.685 E.02265
G1 X82.253 Y99.123 E.01392
G1 X82.345 Y99.499 E.01214
G1 X82.569 Y99.985 E.01678
G1 X82.812 Y100.431 E.01592
G1 X82.967 Y100.637 E.00808
G1 X83.277 Y100.982 E.01454
G1 X83.494 Y101.434 E.01572
G1 X83.655 Y101.915 E.0159
G1 X83.693 Y102.11 E.00623
G1 X83.533 Y102.846 E.02362
G1 X83.553 Y104.402 E.04879
M204 P1000
G1 E-2.24 F4200
;WIPE_START
G1 F7200
G1 X83.554 Y104.462 E-.03325
G1 X83.083 Y104.239 E-.28879
G1 X82.582 Y104.093 E-.28919
G1 X82.052 Y104.093 E-.29371
G1 X81.964 Y104.046 E-.05506
;WIPE_END
G1 Z.4 F720
G1 X85.066 Y106.136 F9000
G1 Z.2 F720
G1 E3.2 F2400
M204 P600
;TYPE:External perimeter
;WIDTH:0.551042
G1 F1200
G1 X85.204 Y106.205 E.00652
;WIDTH:0.511427
G1 X85.342 Y106.274 E.00601
;WIDTH:0.471812
G1 X85.48 Y106.344 E.00552
;WIDTH:0.432196
G1 X85.949 Y106.51 E.0161
;WIDTH:0.38292
G1 X86.05 Y106.51 E.00286
M204 P1000
G1 X86.05 Y106.51 F9000
G1 X85.066 Y106.136
M204 P600
;WIDTH:0.551042
G1 F1200
G1 X84.929 Y106.115 E.00586
;WIDTH:0.505538
G1 X84.792 Y106.094 E.00533
;WIDTH:0.460034
G1 X84.432 Y105.937 E.01362
;WIDTH:0.441373
G1 X84.304 Y105.795 E.00633
;WIDTH:0.464144
G1 X83.963 Y105.374 E.01898
;WIDTH:0.49395
G1 X83.623 Y104.954 E.02027
G1 X83.403 Y104.817 E.00972
;WIDTH:0.456975
G1 X83.183 Y104.681 E.0089
;WIDTH:0.419999
G1 X82.582 Y104.47 E.01997
G1 X82.01 Y104.47 E.01793
G1 X81.838 Y104.398 E.00585
G1 X81.53 Y104.39 E.00966
G1 X81.179 Y104.271 E.01162
G1 X80.988 Y104.23 E.00613
G1 X80.727 Y104.048 E.00998
G1 X80.448 Y103.917 E.00966
G1 X80.082 Y103.554 E.01616
G1 X79.893 Y103.239 E.01152
G1 X79.663 Y102.791 E.01579
G1 X79.462 Y102.327 E.01585
G1 X79.142 Y101.862 E.0177
G1 X78.856 Y101.68 E.01063
G1 X78.43 Y101.23 E.01943
G1 X78.592 Y101.23 E.00508
G1 X78.765 Y101.144 E.00606
G1 X79.22 Y101.102 E.01433
G1 X79.771 Y100.885 E.01857
G1 X80.414 Y100.254 E.02825
G1 X80.472 Y100.119 E.00461
G1 X80.581 Y99.996 E.00515
G1 X80.776 Y99.614 E.01345
G1 X81.069 Y98.859 E.02539
G1 X81.321 Y98.424 E.01576
G1 X81.485 Y98.223 E.00813
;WIDTH:0.437422
G1 X82.032 Y97.653 E.02591
;WIDTH:0.471295
G1 X82.18 Y97.549 E.00644
;WIDTH:0.494081
G1 X82.507 Y97.167 E.01886
G1 X82.82 Y97.029 E.01283
;WIDTH:0.455435
G1 X83.006 Y96.951 E.00692
;WIDTH:0.449473
G1 X82.943 Y97.104 E.00559
;WIDTH:0.494081
G1 X82.765 Y97.536 E.01753
G1 X82.657 Y97.686 E.00693
;WIDTH:0.489996
G1 X82.631 Y97.941 E.00953
;WIDTH:0.454998
G1 X82.605 Y98.197 E.00882
;WIDTH:0.419999
G1 X82.554 Y98.737 E.01701
G1 X82.632 Y98.904 E.00578
G1 X82.63 Y99.125 E.00693
G1 X82.71 Y99.369 E.00805
G1 X82.819 Y99.642 E.00922
G1 X83.04 Y100.098 E.01589
G1 X83.271 Y100.363 E.01102
G1 X83.295 Y100.451 E.00286
G1 X83.598 Y100.771 E.01382
G1 X83.674 Y100.95 E.0061
G1 X83.788 Y101.112 E.00621
G1 X83.99 Y101.702 E.01955
G1 X84.07 Y101.868 E.00578
G1 X84.07 Y102.29 E.01323
G1 X83.99 Y102.518 E.00758
G1 X83.91 Y102.841 E.01043
G1 X83.924 Y103.948 E.03471
;WIDTH:0.458085
G1 X83.925 Y104.565 E.0213
G1 X84.22 Y105.067 E.0201
;WIDTH:0.434337
G1 X84.61 Y105.551 E.02023
G1 X84.793 Y105.727 E.00826
;WIDTH:0.45612
G1 X84.884 Y105.863 E.00562
;WIDTH:0.503581
G1 X84.975 Y106 E.0063
;WIDTH:0.551042
G1 X85.033 Y106.086 E.00438
M204 P1000
G1 E-2.24 F4200
;WIPE_START
G1 F7200
M73 P7 R8
G1 X85.066 Y106.136 E-.0332
G1 X84.929 Y106.115 E-.07681
G1 X84.792 Y106.094 E-.07681
G1 X84.432 Y105.937 E-.21765
G1 X84.304 Y105.795 E-.10594
G1 X83.963 Y105.374 E-.30023
G1 X83.793 Y105.164 E-.14936
;WIPE_END
G1 Z.4 F720
G1 X82.975 Y101.604 F9000
G1 Z.2 F720
G1 E3.2 F2400
M204 P600
;TYPE:Solid infill
;WIDTH:0.430428
G1 F1200
G1 X81.662 Y100.291 E.05983
G1 X81.574 Y100.47 E.00643
G1 X81.463 Y100.64 E.00654
G1 X82.962 Y102.139 E.06831
G1 X82.852 Y102.577 E.01455
G1 X81.241 Y100.966 E.07341
G1 X80.966 Y101.239 E.01249
G1 X82.825 Y103.098 E.08471
G1 X82.826 Y103.428 E.01063
G1 X82.556 Y103.377 E.00885
G1 X80.691 Y101.512 E.08498
G1 X80.531 Y101.672 E.00729
G1 X80.4 Y101.769 E.00525
G1 X81.941 Y103.31 E.07022
G1 X81.732 Y103.298 E.00675
G1 X81.394 Y103.184 E.01149
G1 X81.246 Y103.076 E.0059
G1 X81.08 Y102.997 E.00592
G1 X80.526 Y102.443 E.02524
M204 P1000
G1 E-2.24 F4200
;WIPE_START
G1 F7200
G1 X81.08 Y102.997 E-.43418
G1 X81.246 Y103.076 E-.10188
G1 X81.394 Y103.184 E-.10153
G1 X81.732 Y103.298 E-.19768
G1 X81.941 Y103.31 E-.11601
G1 X81.93 Y103.299 E-.00872
;WIPE_END
G1 Z.4 F720
G1 X100.786 Y89.99 F9000
G1 Z.2 F720
G1 E3.2 F2400
M204 P600
;TYPE:Perimeter
;WIDTH:0.419999
G1 F1200
G1 X100.65 Y90.101 E.0055
G1 X100.376 Y90.428 E.01338
G1 X100.085 Y90.835 E.01569
G1 X99.865 Y91.364 E.01796
G1 X99.716 Y91.958 E.0192
G1 X99.716 Y93.542 E.04967
G1 X99.796 Y94.03 E.01551
G1 X99.652 Y94.582 E.01789
G1 X99.44 Y94.953 E.0134
G1 X99.082 Y95.304 E.01572
G1 X98.664 Y95.496 E.01442
G1 X98.231 Y95.57 E.01377
G1 X97.9 Y95.518 E.01051
