; generated by PrusaSlicer 2.7.4 on 2024-10-19 at 16:09:10 UTC


;
;

;
;
; 

; external perimeters extrusion width = 0.45mm
; perimeters extrusion width = 0.45mm
; infill extrusion width = 0.45mm
; solid infill extrusion width = 0.45mm
; top infill extrusion width = 0.40mm
; first layer extrusion width = 0.42mm

M73 P0 R18
M201 X2500 Y2500 Z400 E5000 ; sets maximum accelerations, mm/sec^2
M203 X180 Y180 Z12 E80 ; sets maximum feedrates, mm / sec
M204 P2000 R1250 T2500 ; sets acceleration (P, T) and retract acceleration (R), mm/sec^2
M205 X8.00 Y8.00 Z2.00 E10.00 ; sets the jerk limits, mm/sec
M205 S0 T0 ; sets the minimum extruding and travel feed rate, mm/sec

; printing object binary_white.stl id:0 copy 0
; stop printing object binary_white.stl id:0 copy 0

;TYPE:Custom
M862.3 P "MINI" ; printer model check
G90 ; use absolute coordinates
M83 ; extruder relative mode
M104 S170 ; set extruder temp for bed leveling
M140 S60 ; set bed temp
M109 R170 ; wait for bed leveling temp
M190 S60 ; wait for bed temp
M204 T1250 ; set travel acceleration
G28 ; home all without mesh bed level
G29 ; mesh bed leveling 
M204 T2500 ; restore travel acceleration
M104 S215 ; set extruder temp
G92 E0
G1 Y-2 X179 F2400
G1 Z3 F720
M109 S215 ; wait for extruder temp

; intro line
G1 X170 F1000
M73 P0 R17
G1 Z0.2 F720
G1 X110 E8 F900
G1 X40 E10 F700
G92 E0

M221 S95 ; set flow
G21 ; set units to millimeters
G90 ; use absolute coordinates
M83 ; use relative distances for extrusion
M900 K0.2 ; Filament gcode LA 1.5
; ; Filament gcode LA 1.0
M107
;LAYER_CHANGE
;Z:0.2
;HEIGHT:0.2
G1 E-3.2 F4200
M73 P1 R17
G1 Z.4 F720
G1 X48.379 Y48.443 F9000
G1 Z.2 F720
G1 E3.2 F2400
M204 P600
;TYPE:Skirt/Brim
;WIDTH:0.42
G1 F1200
G1 X50.118 Y47.689 E.05943
G1 X129.856 Y47.683 E2.50013
G1 X131.538 Y48.38 E.05709
G1 X132.297 Y50.124 E.05964
G1 X132.297 Y129.856 E2.49994
G1 X131.601 Y131.537 E.05705
M73 P2 R17
G1 X129.856 Y132.297 E.05968
G1 X50.124 Y132.297 E2.49994
G1 X48.386 Y131.544 E.05939
G1 X47.689 Y129.862 E.05709
G1 X47.683 Y50.124 E2.50013
G1 X48.356 Y48.499 E.05515
M73 P3 R17
M204 P1000
G1 E-2.24 F4200
;WIPE_START
G1 F7200
G1 X48.379 Y48.443 E-.03355
G1 X49.913 Y47.778 E-.92645
;WIPE_END
G1 Z.4 F720
; printing object binary_white.stl id:0 copy 0
G1 X129.133 Y129.133 F9000
G1 Z.2 F720
G1 E3.2 F2400
M204 P600
;TYPE:Perimeter
;WIDTH:0.419999
G1 F1200
G1 X50.847 Y129.133 E2.4546
G1 X50.847 Y50.847 E2.4546
G1 X129.133 Y50.847 E2.4546
G1 X129.133 Y54.632 E.11868
M73 P4 R17
G1 X129.133 Y129.073 E2.33404
M204 P1000
G1 X129.51 Y129.51 F9000
M204 P600
;TYPE:External perimeter
G1 F1200
G1 X50.47 Y129.51 E2.47824
G1 X50.47 Y50.47 E2.47824
G1 X129.51 Y50.47 E2.47824
M73 P5 R17
G1 X129.51 Y54.632 E.1305
G1 X129.51 Y129.45 E2.34586
M204 P1000
G1 E-2.24 F4200
M73 P6 R16
;WIPE_START
G1 F7200
G1 X129.51 Y129.51 E-.03325
G1 X127.838 Y129.51 E-.92675
;WIPE_END
G1 Z.4 F720
G1 X57.355 Y122.651 F9000
G1 Z.2 F720
G1 E3.2 F2400
M204 P600
;TYPE:Perimeter
G1 F1200
G1 X57.238 Y122.458 E.00708
G1 X57.161 Y122.224 E.00772
G1 X57.133 Y122.047 E.00562
G1 X57.145 Y57.711 E2.01721
G1 X57.192 Y57.486 E.00721
G1 X57.311 Y57.311 E.00664
G1 X57.486 Y57.192 E.00664
G1 X57.711 Y57.145 E.00721
G1 X122.273 Y57.145 E2.02429
G1 X122.498 Y57.191 E.0072
G1 X122.673 Y57.31 E.00664
G1 X122.792 Y57.486 E.00666
G1 X122.839 Y57.711 E.00721
G1 X122.839 Y122.273 E2.02429
G1 X122.792 Y122.498 E.00721
M73 P7 R16
G1 X122.673 Y122.673 E.00664
G1 X122.498 Y122.792 E.00664
G1 X122.273 Y122.839 E.00721
G1 X57.775 Y122.847 E2.02229
G1 X57.547 Y122.799 E.00731
G1 X57.395 Y122.693 E.00581
M204 P1000
G1 X57.395 Y122.693 F9000
G1 X57.64 Y122.413
M204 P600
;TYPE:External perimeter
G1 F1200
G1 X57.519 Y122.106 E.01035
G1 X57.522 Y57.711 E2.01906
G1 X57.577 Y57.577 E.00454
G1 X57.711 Y57.522 E.00454
G1 X122.273 Y57.522 E2.02429
G1 X122.407 Y57.577 E.00454
G1 X122.462 Y57.711 E.00454
G1 X122.462 Y122.273 E2.02429
G1 X122.407 Y122.407 E.00454
M73 P8 R16
G1 X122.273 Y122.462 E.00454
G1 X57.775 Y122.47 E2.02229
G1 X57.696 Y122.436 E.0027
M204 P1000
G1 E-2.24 F4200
;WIPE_START
G1 F7200
G1 X57.64 Y122.413 E-.03355
G1 X57.519 Y122.106 E-.18287
G1 X57.519 Y120.764 E-.74358
;WIPE_END
G1 Z.4 F720
G1 X128.963 Y51.78 F9000
G1 Z.2 F720
G1 E3.2 F2400
M204 P600
;TYPE:Solid infill
;WIDTH:0.420612
G1 F1200
G1 X128.369 Y51.186 E.02638
G1 X127.835 Y51.186 E.01677
G1 X128.794 Y52.145 E.04259
G1 X128.794 Y52.679 E.01677
G1 X127.301 Y51.186 E.06631
G1 X126.767 Y51.186 E.01677
G1 X128.794 Y53.213 E.09003
G1 X128.794 Y53.747 E.01677
G1 X126.233 Y51.186 E.11374
G1 X125.699 Y51.186 E.01677
G1 X128.794 Y54.281 E.13746
G1 X128.794 Y54.815 E.01677
G1 X125.165 Y51.186 E.16118
G1 X124.63 Y51.186 E.0168
G1 X128.794 Y55.35 E.18494
G1 X128.794 Y55.884 E.01677
G1 X124.096 Y51.186 E.20866
G1 X123.562 Y51.186 E.01677
G1 X128.794 Y56.418 E.23237
G1 X128.794 Y56.952 E.01677
G1 X123.028 Y51.186 E.25609
G1 X122.494 Y51.186 E.01677
G1 X128.794 Y57.486 E.27981
G1 X128.794 Y58.02 E.01677
G1 X121.96 Y51.186 E.30352
G1 X121.426 Y51.186 E.01677
G1 X128.794 Y58.554 E.32724
G1 X128.794 Y59.089 E.0168
M73 P9 R16
G1 X120.891 Y51.186 E.351
G1 X120.357 Y51.186 E.01677
G1 X128.794 Y59.623 E.37472
G1 X128.794 Y60.157 E.01677
G1 X119.823 Y51.186 E.39844
G1 X119.289 Y51.186 E.01677
G1 X128.794 Y60.691 E.42215
G1 X128.794 Y61.225 E.01677
G1 X118.755 Y51.186 E.44587
G1 X118.221 Y51.186 E.01677
G1 X128.794 Y61.759 E.46959
G1 X128.794 Y62.293 E.01677
G1 X117.687 Y51.186 E.4933
G1 X117.152 Y51.186 E.0168
G1 X128.794 Y62.828 E.51706
G1 X128.794 Y63.362 E.01677
G1 X123.178 Y57.746 E.24943
G1 X123.16 Y57.525 E.00696
G1 X123.105 Y57.351 E.00573
G1 X123.02 Y57.197 E.00552
G1 X122.913 Y57.07 E.00522
G1 X122.786 Y56.964 E.0052
G1 X122.633 Y56.879 E.0055
G1 X122.459 Y56.824 E.00573
G1 X122.238 Y56.806 E.00696
G1 X116.618 Y51.186 E.2496
G1 X116.084 Y51.186 E.01677
G1 X121.703 Y56.806 E.24958
G1 X121.169 Y56.806 E.01677
G1 X115.55 Y51.186 E.24958
G1 X115.016 Y51.186 E.01677
G1 X120.635 Y56.806 E.24958
G1 X120.101 Y56.806 E.01677
G1 X114.482 Y51.186 E.24958
G1 X113.948 Y51.186 E.01677
G1 X119.567 Y56.806 E.24958
G1 X119.033 Y56.806 E.01677
G1 X113.414 Y51.186 E.24958
G1 X112.879 Y51.186 E.0168
G1 X118.499 Y56.806 E.2496
G1 X117.964 Y56.806 E.0168
G1 X112.345 Y51.186 E.24958
G1 X111.811 Y51.186 E.01677
G1 X117.43 Y56.806 E.24958
G1 X116.896 Y56.806 E.01677
M73 P10 R16
G1 X111.277 Y51.186 E.24958
G1 X110.743 Y51.186 E.01677
G1 X116.362 Y56.806 E.24958
G1 X115.828 Y56.806 E.01677
G1 X110.209 Y51.186 E.24958
G1 X109.675 Y51.186 E.01677
G1 X115.294 Y56.806 E.24958
G1 X114.76 Y56.806 E.01677
G1 X109.14 Y51.186 E.2496
G1 X108.606 Y51.186 E.01677
G1 X114.226 Y56.806 E.2496
G1 X113.691 Y56.806 E.0168
G1 X108.072 Y51.186 E.24958
G1 X107.538 Y51.186 E.01677
G1 X113.157 Y56.806 E.24958
G1 X112.623 Y56.806 E.01677
G1 X107.004 Y51.186 E.24958
G1 X106.47 Y51.186 E.01677
G1 X112.089 Y56.806 E.24958
G1 X111.555 Y56.806 E.01677
G1 X105.936 Y51.186 E.24958
G1 X105.401 Y51.186 E.0168
G1 X111.021 Y56.806 E.2496
G1 X110.487 Y56.806 E.01677
G1 X104.867 Y51.186 E.2496
G1 X104.333 Y51.186 E.01677
G1 X109.952 Y56.806 E.24958
G1 X109.418 Y56.806 E.01677
G1 X103.799 Y51.186 E.24958
G1 X103.265 Y51.186 E.01677
G1 X108.884 Y56.806 E.24958
G1 X108.35 Y56.806 E.01677
G1 X102.731 Y51.186 E.24958
G1 X102.197 Y51.186 E.01677
G1 X107.816 Y56.806 E.24958
G1 X107.282 Y56.806 E.01677
G1 X101.663 Y51.186 E.24958
G1 X101.128 Y51.186 E.0168
G1 X106.748 Y56.806 E.2496
G1 X106.213 Y56.806 E.0168
G1 X100.594 Y51.186 E.24958
G1 X100.06 Y51.186 E.01677
G1 X105.679 Y56.806 E.24958
G1 X105.145 Y56.806 E.01677
G1 X99.526 Y51.186 E.24958
G1 X98.992 Y51.186 E.01677
G1 X104.611 Y56.806 E.24958
G1 X104.077 Y56.806 E.01677
M73 P11 R16
G1 X98.458 Y51.186 E.24958
G1 X97.924 Y51.186 E.01677
G1 X103.543 Y56.806 E.24958
G1 X103.009 Y56.806 E.01677
G1 X97.389 Y51.186 E.2496
G1 X96.855 Y51.186 E.01677
G1 X102.474 Y56.806 E.24958
G1 X101.94 Y56.806 E.01677
G1 X96.321 Y51.186 E.24958
G1 X95.787 Y51.186 E.01677
G1 X101.406 Y56.806 E.24958
G1 X100.872 Y56.806 E.01677
G1 X95.253 Y51.186 E.24958
G1 X94.719 Y51.186 E.01677
G1 X100.338 Y56.806 E.24958
G1 X99.804 Y56.806 E.01677
G1 X94.185 Y51.186 E.24958
G1 X93.65 Y51.186 E.0168
G1 X99.27 Y56.806 E.2496
G1 X98.736 Y56.806 E.01677
G1 X93.116 Y51.186 E.2496
G1 X92.582 Y51.186 E.01677
G1 X98.201 Y56.806 E.24958
G1 X97.667 Y56.806 E.01677
M73 P11 R15
G1 X92.048 Y51.186 E.24958
G1 X91.514 Y51.186 E.01677
G1 X97.133 Y56.806 E.24958
G1 X96.599 Y56.806 E.01677
G1 X90.98 Y51.186 E.24958
G1 X90.446 Y51.186 E.01677
G1 X96.065 Y56.806 E.24958
G1 X95.531 Y56.806 E.01677
G1 X89.911 Y51.186 E.2496
G1 X89.377 Y51.186 E.01677
G1 X94.997 Y56.806 E.2496
G1 X94.462 Y56.806 E.0168
G1 X88.843 Y51.186 E.24958
G1 X88.309 Y51.186 E.01677
G1 X93.928 Y56.806 E.24958
G1 X93.394 Y56.806 E.01677
G1 X87.775 Y51.186 E.24958
G1 X87.241 Y51.186 E.01677
G1 X92.86 Y56.806 E.24958
G1 X92.326 Y56.806 E.01677
G1 X86.707 Y51.186 E.24958
G1 X86.173 Y51.186 E.01677
G1 X91.792 Y56.806 E.24958
G1 X91.258 Y56.806 E.01677
G1 X85.638 Y51.186 E.2496
G1 X85.104 Y51.186 E.01677
M73 P12 R15
G1 X90.723 Y56.806 E.24958
G1 X90.189 Y56.806 E.01677
G1 X84.57 Y51.186 E.24958
G1 X84.036 Y51.186 E.01677
G1 X89.655 Y56.806 E.24958
G1 X89.121 Y56.806 E.01677
G1 X83.502 Y51.186 E.24958
G1 X82.968 Y51.186 E.01677
G1 X88.587 Y56.806 E.24958
G1 X88.053 Y56.806 E.01677
G1 X82.434 Y51.186 E.24958
G1 X81.899 Y51.186 E.0168
G1 X87.519 Y56.806 E.2496
G1 X86.985 Y56.806 E.01677
G1 X81.365 Y51.186 E.2496
G1 X80.831 Y51.186 E.01677
G1 X86.45 Y56.806 E.24958
G1 X85.916 Y56.806 E.01677
G1 X80.297 Y51.186 E.24958
G1 X79.763 Y51.186 E.01677
G1 X85.382 Y56.806 E.24958
G1 X84.848 Y56.806 E.01677
G1 X79.229 Y51.186 E.24958
G1 X78.695 Y51.186 E.01677
G1 X84.314 Y56.806 E.24958
G1 X83.78 Y56.806 E.01677
G1 X78.16 Y51.186 E.2496
G1 X77.626 Y51.186 E.01677
G1 X83.246 Y56.806 E.2496
G1 X82.711 Y56.806 E.0168
G1 X77.092 Y51.186 E.24958
G1 X76.558 Y51.186 E.01677
G1 X82.177 Y56.806 E.24958
G1 X81.643 Y56.806 E.01677
G1 X76.024 Y51.186 E.24958
G1 X75.49 Y51.186 E.01677
G1 X81.109 Y56.806 E.24958
G1 X80.575 Y56.806 E.01677
G1 X74.956 Y51.186 E.24958
G1 X74.422 Y51.186 E.01677
G1 X80.041 Y56.806 E.24958
G1 X79.507 Y56.806 E.01677
G1 X73.887 Y51.186 E.2496
G1 X73.353 Y51.186 E.01677
G1 X78.972 Y56.806 E.24958
G1 X78.438 Y56.806 E.01677
G1 X72.819 Y51.186 E.24958
G1 X72.285 Y51.186 E.01677
M73 P13 R15
G1 X77.904 Y56.806 E.24958
G1 X77.37 Y56.806 E.01677
G1 X71.751 Y51.186 E.24958
G1 X71.217 Y51.186 E.01677
G1 X76.836 Y56.806 E.24958
G1 X76.302 Y56.806 E.01677
G1 X70.683 Y51.186 E.24958
G1 X70.148 Y51.186 E.0168
G1 X75.768 Y56.806 E.2496
G1 X75.233 Y56.806 E.0168
G1 X69.614 Y51.186 E.24958
G1 X69.08 Y51.186 E.01677
G1 X74.699 Y56.806 E.24958
G1 X74.165 Y56.806 E.01677
G1 X68.546 Y51.186 E.24958
G1 X68.012 Y51.186 E.01677
G1 X73.631 Y56.806 E.24958
G1 X73.097 Y56.806 E.01677
G1 X67.478 Y51.186 E.24958
G1 X66.944 Y51.186 E.01677
G1 X72.563 Y56.806 E.24958
G1 X72.029 Y56.806 E.01677
G1 X66.409 Y51.186 E.2496
G1 X65.875 Y51.186 E.01677
G1 X71.495 Y56.806 E.2496
G1 X70.96 Y56.806 E.0168
G1 X65.341 Y51.186 E.24958
G1 X64.807 Y51.186 E.01677
G1 X70.426 Y56.806 E.24958
G1 X69.892 Y56.806 E.01677
G1 X64.273 Y51.186 E.24958
G1 X63.739 Y51.186 E.01677
G1 X69.358 Y56.806 E.24958
G1 X68.824 Y56.806 E.01677
G1 X63.205 Y51.186 E.24958
G1 X62.67 Y51.186 E.0168
G1 X68.29 Y56.806 E.2496
G1 X67.756 Y56.806 E.01677
G1 X62.136 Y51.186 E.2496
G1 X61.602 Y51.186 E.01677
G1 X67.221 Y56.806 E.24958
G1 X66.687 Y56.806 E.01677
G1 X61.068 Y51.186 E.24958
G1 X60.534 Y51.186 E.01677
G1 X66.153 Y56.806 E.24958
G1 X65.619 Y56.806 E.01677
G1 X60 Y51.186 E.24958
G1 X59.466 Y51.186 E.01677
G1 X65.085 Y56.806 E.24958
G1 X64.551 Y56.806 E.01677
M73 P14 R15
G1 X58.932 Y51.186 E.24958
G1 X58.397 Y51.186 E.0168
G1 X64.017 Y56.806 E.2496
G1 X63.482 Y56.806 E.0168
G1 X57.863 Y51.186 E.24958
G1 X57.329 Y51.186 E.01677
G1 X62.948 Y56.806 E.24958
G1 X62.414 Y56.806 E.01677
G1 X56.795 Y51.186 E.24958
G1 X56.261 Y51.186 E.01677
G1 X61.88 Y56.806 E.24958
G1 X61.346 Y56.806 E.01677
G1 X55.727 Y51.186 E.24958
G1 X55.193 Y51.186 E.01677
G1 X60.812 Y56.806 E.24958
G1 X60.278 Y56.806 E.01677
G1 X54.658 Y51.186 E.2496
G1 X54.124 Y51.186 E.01677
G1 X59.744 Y56.806 E.2496
G1 X59.209 Y56.806 E.0168
G1 X53.59 Y51.186 E.24958
G1 X53.056 Y51.186 E.01677
G1 X58.675 Y56.806 E.24958
G1 X58.141 Y56.806 E.01677
G1 X52.522 Y51.186 E.24958
G1 X51.988 Y51.186 E.01677
G1 X57.616 Y56.815 E.24998
G1 X57.351 Y56.879 E.00856
G1 X57.219 Y56.952 E.00474
G1 X51.454 Y51.186 E.25607
G1 X51.186 Y51.186 E.00842
G1 X51.186 Y51.453 E.00839
G1 X56.952 Y57.219 E.25609
G1 X56.879 Y57.351 E.00474
G1 X56.815 Y57.616 E.00856
G1 X51.186 Y51.988 E.24998
G1 X51.186 Y52.522 E.01677
G1 X56.806 Y58.141 E.24958
G1 X56.806 Y58.675 E.01677
G1 X51.186 Y53.056 E.24958
G1 X51.186 Y53.59 E.01677
G1 X56.805 Y59.209 E.24956
G1 X56.805 Y59.743 E.01677
G1 X51.186 Y54.124 E.24956
G1 X51.186 Y54.658 E.01677
G1 X56.805 Y60.277 E.24956
G1 X56.805 Y60.811 E.01677
G1 X51.186 Y55.192 E.24956
G1 X51.186 Y55.726 E.01677
G1 X56.805 Y61.345 E.24956
G1 X56.805 Y61.879 E.01677
M73 P15 R15
G1 X51.186 Y56.261 E.24954
G1 X51.186 Y56.795 E.01677
G1 X56.805 Y62.413 E.24954
G1 X56.805 Y62.947 E.01677
G1 X51.186 Y57.329 E.24954
G1 X51.186 Y57.863 E.01677
G1 X56.805 Y63.481 E.24954
G1 X56.805 Y64.015 E.01677
G1 X51.186 Y58.397 E.24954
G1 X51.186 Y58.931 E.01677
G1 X56.804 Y64.549 E.24952
G1 X56.804 Y65.083 E.01677
G1 X51.186 Y59.465 E.24952
G1 X51.186 Y60 E.0168
G1 X56.804 Y65.617 E.24949
G1 X56.804 Y66.151 E.01677
G1 X51.186 Y60.534 E.24949
G1 X51.186 Y61.068 E.01677
G1 X56.804 Y66.685 E.24949
G1 X56.804 Y67.219 E.01677
G1 X51.186 Y61.602 E.24949
G1 X51.186 Y62.136 E.01677
G1 X56.804 Y67.754 E.24952
G1 X56.804 Y68.288 E.01677
G1 X51.186 Y62.67 E.24952
G1 X51.186 Y63.204 E.01677
G1 X56.804 Y68.822 E.24952
G1 X56.804 Y69.356 E.01677
G1 X51.186 Y63.739 E.24949
G1 X51.186 Y64.273 E.01677
G1 X56.803 Y69.89 E.24947
G1 X56.803 Y70.424 E.01677
G1 X51.186 Y64.807 E.24947
G1 X51.186 Y65.341 E.01677
G1 X56.803 Y70.958 E.24947
G1 X56.803 Y71.492 E.01677
G1 X51.186 Y65.875 E.24947
G1 X51.186 Y66.409 E.01677
G1 X56.803 Y72.026 E.24947
G1 X56.803 Y72.56 E.01677
G1 X51.186 Y66.943 E.24947
G1 X51.186 Y67.478 E.0168
G1 X56.803 Y73.094 E.24945
G1 X56.803 Y73.628 E.01677
G1 X51.186 Y68.012 E.24945
G1 X51.186 Y68.546 E.01677
G1 X56.803 Y74.162 E.24945
G1 X56.803 Y74.696 E.01677
G1 X51.186 Y69.08 E.24945
G1 X51.186 Y69.614 E.01677
M73 P16 R15
G1 X56.802 Y75.23 E.24943
G1 X56.802 Y75.764 E.01677
G1 X51.186 Y70.148 E.24943
G1 X51.186 Y70.682 E.01677
G1 X56.802 Y76.298 E.24943
G1 X56.802 Y76.832 E.01677
G1 X51.186 Y71.216 E.24943
G1 X51.186 Y71.751 E.0168
G1 X56.802 Y77.366 E.24941
G1 X56.802 Y77.9 E.01677
G1 X51.186 Y72.285 E.24941
G1 X51.186 Y72.819 E.01677
G1 X56.802 Y78.434 E.24941
G1 X56.802 Y78.968 E.01677
G1 X51.186 Y73.353 E.24941
G1 X51.186 Y73.887 E.01677
G1 X56.802 Y79.502 E.24941
G1 X56.802 Y80.036 E.01677
G1 X51.186 Y74.421 E.24941
G1 X51.186 Y74.955 E.01677
G1 X56.801 Y80.57 E.24938
G1 X56.801 Y81.104 E.01677
G1 X51.186 Y75.49 E.24936
G1 X51.186 Y76.024 E.01677
G1 X56.801 Y81.638 E.24936
G1 X56.801 Y82.173 E.0168
G1 X51.186 Y76.558 E.24938
G1 X51.186 Y77.092 E.01677
G1 X56.801 Y82.707 E.24938
G1 X56.801 Y83.241 E.01677
G1 X51.186 Y77.626 E.24938
G1 X51.186 Y78.16 E.01677
G1 X56.801 Y83.775 E.24938
G1 X56.801 Y84.309 E.01677
G1 X51.186 Y78.694 E.24938
G1 X51.186 Y79.229 E.0168
G1 X56.801 Y84.843 E.24936
G1 X56.801 Y85.377 E.01677
G1 X51.186 Y79.763 E.24936
G1 X51.186 Y80.297 E.01677
G1 X56.8 Y85.911 E.24934
G1 X56.8 Y86.445 E.01677
G1 X51.186 Y80.831 E.24934
G1 X51.186 Y81.365 E.01677
G1 X56.8 Y86.979 E.24934
G1 X56.8 Y87.513 E.01677
G1 X51.186 Y81.899 E.24934
G1 X51.186 Y82.433 E.01677
M73 P17 R15
G1 X56.8 Y88.047 E.24934
G1 X56.8 Y88.581 E.01677
M73 P17 R14
G1 X51.186 Y82.967 E.24934
G1 X51.186 Y83.502 E.0168
G1 X56.8 Y89.115 E.24932
G1 X56.8 Y89.649 E.01677
G1 X51.186 Y84.036 E.24932
G1 X51.186 Y84.57 E.01677
G1 X56.8 Y90.183 E.24932
G1 X56.8 Y90.717 E.01677
G1 X51.186 Y85.104 E.24932
