; generated by PrusaSlicer 2.7.4 on 2024-10-19 at 16:09:52 UTC


;
;

;
;
; 

; external perimeters extrusion width = 0.45mm
; perimeters extrusion width = 0.45mm
; infill extrusion width = 0.45mm
; solid infill extrusion width = 0.45mm
; top infill extrusion width = 0.40mm
; first layer extrusion width = 0.42mm

M73 P0 R1
M201 X2500 Y2500 Z400 E5000 ; sets maximum accelerations, mm/sec^2
M203 X180 Y180 Z12 E80 ; sets maximum feedrates, mm / sec
M204 P2000 R1250 T2500 ; sets acceleration (P, T) and retract acceleration (R), mm/sec^2
M205 X8.00 Y8.00 Z2.00 E10.00 ; sets the jerk limits, mm/sec
M205 S0 T0 ; sets the minimum extruding and travel feed rate, mm/sec

; printing object binary_green.stl id:0 copy 0
; stop printing object binary_green.stl id:0 copy 0

;TYPE:Custom
M862.3 P "MINI" ; printer model check
G90 ; use absolute coordinates
M83 ; extruder relative mode
M104 S170 ; set extruder temp for bed leveling
M140 S60 ; set bed temp
M109 R170 ; wait for bed leveling temp
M190 S60 ; wait for bed temp
M204 T1250 ; set travel acceleration
G28 ; home all without mesh bed level
G29 ; mesh bed leveling 
M204 T2500 ; restore travel acceleration
M104 S215 ; set extruder temp
G92 E0
G1 Y-2 X179 F2400
G1 Z3 F720
M73 P3 R1
M109 S215 ; wait for extruder temp

; intro line
G1 X170 F1000
M73 P4 R1
G1 Z0.2 F720
G1 X110 E8 F900
G1 X40 E10 F700
M73 P8 R1
G92 E0

M221 S95 ; set flow
G21 ; set units to millimeters
G90 ; use absolute coordinates
M83 ; use relative distances for extrusion
M900 K0.2 ; Filament gcode LA 1.5
; ; Filament gcode LA 1.0
M107
;LAYER_CHANGE
;Z:0.2
;HEIGHT:0.2
G1 E-3.2 F4200
M73 P13 R1
G1 Z.4 F720
G1 X78.018 Y68.788 F9000
G1 Z.2 F720
G1 E3.2 F2400
M204 P600
;TYPE:Skirt/Brim
;WIDTH:0.42
G1 F1200
M73 P14 R1
G1 X78.725 Y68.157 E.02971
G1 X79.643 Y67.603 E.03362
G1 X80.892 Y67.219 E.04097
G1 X82.009 Y67.159 E.03507
G1 X83.008 Y67.325 E.03175
G1 X84.023 Y67.725 E.03421
G1 X111.947 Y82.685 E.99327
G1 X112.641 Y83.236 E.02778
M73 P15 R1
G1 X113.474 Y84.254 E.04124
G1 X114.175 Y85.611 E.04789
G1 X114.452 Y86.931 E.04229
G1 X116.057 Y111.884 E.784
G1 X116.057 Y112.576 E.0217
M73 P16 R1
G1 X115.935 Y113.329 E.02392
G1 X115.727 Y113.877 E.01838
G1 X115.082 Y114.872 E.03718
M73 P17 R1
G1 X114.367 Y115.508 E.03
G1 X113.408 Y116.015 E.03401
G1 X112.416 Y116.217 E.03174
G1 X111.804 Y116.217 E.01919
G1 X111.053 Y116.095 E.02386
G1 X110.612 Y115.938 E.01468
G1 X68.692 Y97.618 E1.43441
G1 X68.107 Y97.333 E.0204
M73 P19 R1
G1 X67.475 Y96.881 E.02436
G1 X66.505 Y95.726 E.04729
G1 X65.805 Y94.368 E.0479
G1 X65.635 Y93.767 E.01958
G1 X65.523 Y92.896 E.02753
G1 X65.635 Y91.813 E.03414
G1 X66.207 Y88.87 E.094
G1 X66.449 Y88.194 E.02251
G1 X71.829 Y78.234 E.35494
G1 X77.518 Y69.448 E.32819
M73 P20 R1
G1 X77.982 Y68.836 E.02408
M204 P1000
G1 E-2.24 F4200
;WIPE_START
G1 F7200
G1 X78.018 Y68.788 E-.03325
G1 X78.725 Y68.157 E-.52515
G1 X79.346 Y67.783 E-.4016
;WIPE_END
G1 Z.4 F720
; printing object binary_green.stl id:0 copy 0
G1 X69.244 Y90.554 F9000
G1 Z.2 F720
G1 E3.2 F2400
M73 P21 R1
M204 P600
;TYPE:Perimeter
;WIDTH:0.419999
G1 F1200
G1 X69.599 Y90.674 E.01175
G1 X69.921 Y90.687 E.0101
G1 X69.988 Y90.727 E.00245
G1 X70.202 Y90.767 E.00683
G1 X70.964 Y90.759 E.02389
G1 X71.214 Y90.664 E.00839
G1 X71.512 Y90.635 E.00939
G1 X71.965 Y90.373 E.01641
G1 X71.947 Y91.006 E.01986
G1 X71.977 Y91.244 E.00752
G1 X72.105 Y91.735 E.01591
G1 X72.28 Y92.11 E.01298
G1 X72.493 Y92.77 E.02174
G1 X72.493 Y93.222 E.01417
G1 X72.575 Y93.663 E.01406
G1 X72.751 Y94.206 E.0179
G1 X72.962 Y94.594 E.01385
G1 X72.508 Y94.495 E.01457
G1 X71.698 Y94.502 E.0254
G1 X71.525 Y94.573 E.00586
G1 X71.318 Y94.573 E.00649
G1 X70.956 Y94.666 E.01172
G1 X70.641 Y94.813 E.0109
G1 X70.38 Y94.813 E.00818
G1 X70.269 Y94.758 E.00388
G1 X69.791 Y94.599 E.01579
G1 X69.561 Y94.334 E.011
G1 X69.197 Y93.97 E.01614
G1 X68.98 Y93.63 E.01265
G1 X68.767 Y93.125 E.01718
G1 X68.767 Y92.455 E.02101
G1 X68.94 Y92.01 E.01497
G1 X69.064 Y91.781 E.00817
G1 X69.224 Y91.266 E.01691
G1 X69.267 Y90.719 E.0172
G1 X69.252 Y90.614 E.00333
M204 P1000
G1 X69.252 Y90.614 F9000
G1 X68.754 Y89.875
M204 P600
;TYPE:External perimeter
G1 F1200
G1 X68.942 Y90.017 E.00739
G1 X69.627 Y90.286 E.02307
G1 X69.97 Y90.31 E.01078
G1 X70.2 Y90.39 E.00764
G1 X70.902 Y90.386 E.02201
G1 X71.08 Y90.294 E.00628
G1 X71.384 Y90.275 E.00955
G1 X71.626 Y90.139 E.0087
G1 X72.237 Y89.706 E.02348
G1 X72.491 Y89.456 E.01117
;WIDTH:0.393002
G1 X72.453 Y89.549 E.00292
;WIDTH:0.419999
G1 X72.43 Y89.86 E.00978
G1 X72.351 Y90.339 E.01522
G1 X72.323 Y91.039 E.02197
M73 P22 R1
G1 X72.471 Y91.606 E.01837
G1 X72.79 Y92.348 E.02532
G1 X72.79 Y92.502 E.00483
G1 X72.87 Y92.668 E.00578
G1 X72.87 Y93.222 E.01737
G1 X72.95 Y93.388 E.00578
G1 X72.951 Y93.631 E.00762
G1 X73.118 Y94.103 E.0157
G1 X73.262 Y94.358 E.00918
;WIDTH:0.459584
G1 X73.307 Y94.475 E.00434
;WIDTH:0.499169
G1 X73.353 Y94.592 E.00477
G1 X73.529 Y94.749 E.00895
;WIDTH:0.485684
G1 X73.976 Y95.05 E.01984
;WIDTH:0.451094
G1 X74.274 Y95.345 E.01423
G1 X74.464 Y95.407 E.00678
G1 X73.928 Y95.374 E.01823
G1 X73.69 Y95.332 E.0082
G1 X73.565 Y95.261 E.00488
;WIDTH:0.496725
G1 X73.131 Y94.995 E.01921
G1 X72.972 Y94.98 E.00603
;WIDTH:0.458362
G1 X72.813 Y94.965 E.00552
;WIDTH:0.419999
G1 X72.503 Y94.872 E.01015
G1 X71.799 Y94.87 E.02207
G1 X71.632 Y94.95 E.00581
G1 X71.318 Y94.95 E.00985
G1 X71.078 Y95.03 E.00793
G1 X70.752 Y95.19 E.01139
G1 X70.33 Y95.19 E.01323
G1 X69.862 Y95.03 E.01551
G1 X69.424 Y94.835 E.01503
G1 X69.295 Y94.6 E.00841
G1 X68.782 Y94.088 E.02273
G1 X68.39 Y93.232 E.02952
G1 X68.39 Y92.918 E.00985
G1 X68.349 Y92.801 E.00389
G1 X68.387 Y92.697 E.00347
G1 X68.39 Y92.41 E.009
G1 X68.546 Y91.981 E.01431
G1 X68.765 Y91.553 E.01507
G1 X68.787 Y91.358 E.00615
G1 X68.842 Y91.221 E.00463
G1 X68.841 Y90.898 E.01013
G1 X68.881 Y90.772 E.00414
G1 X68.796 Y90.315 E.01457
G1 X68.759 Y89.935 E.01197
M204 P1000
G1 E-2.24 F4200
;WIPE_START
G1 F7200
G1 X68.754 Y89.875 E-.03337
G1 X68.942 Y90.017 E-.13056
G1 X69.627 Y90.286 E-.40783
G1 X69.97 Y90.31 E-.19054
G1 X70.2 Y90.39 E-.13495
G1 X70.313 Y90.389 E-.06275
;WIPE_END
G1 Z.4 F720
G1 X74.668 Y95.47 F9000
G1 Z.2 F720
G1 E3.2 F2400
M73 P23 R1
M204 P600
;WIDTH:0.38292
G1 F1200
G1 X74.87 Y95.496 E.00576
M204 P1000
G1 E-2.24 F4200
;WIPE_START
G1 F7200
G1 X74.668 Y95.47 E-.11287
;WIPE_END
G1 E-.84713 F4200
G1 Z.4 F720
G1 X71.877 Y91.561 F9000
G1 Z.2 F720
G1 E3.2 F2400
M204 P600
;TYPE:Solid infill
;WIDTH:0.453696
G1 F1200
G1 X71.312 Y90.996 E.02729
G1 X71.13 Y91.074 E.00676
G1 X70.837 Y91.102 E.01005
G1 X71.942 Y92.207 E.05338
G1 X72.015 Y92.353 E.00558
G1 X72.078 Y92.554 E.00719
G1 X72.108 Y92.755 E.00694
G1 X72.154 Y92.845 E.00345
G1 X72.158 Y93.004 E.00543
G1 X70.254 Y91.1 E.09197
G1 X70.075 Y91.1 E.00611
G1 X69.848 Y91.026 E.00816
G1 X69.588 Y91.015 E.00889
G1 X72.236 Y93.663 E.12791
G1 X72.319 Y94.001 E.01189
G1 X72.378 Y94.158 E.00573
G1 X72.152 Y94.16 E.00772
G1 X69.5 Y91.508 E.1281
G1 X69.48 Y91.681 E.00595
M73 P24 R1
G1 X69.364 Y91.952 E.01007
G1 X71.593 Y94.182 E.10769
G1 X71.454 Y94.234 E.00507
G1 X71.231 Y94.237 E.00762
G1 X71.093 Y94.263 E.0048
G1 X69.169 Y92.338 E.09296
G1 X69.138 Y92.48 E.00496
G1 X69.106 Y92.537 E.00223
G1 X69.106 Y92.857 E.01093
G1 X70.665 Y94.416 E.07531
G1 X70.556 Y94.474 E.00422
G1 X70.453 Y94.474 E.00352
G1 X69.971 Y94.302 E.01748
G1 X69.053 Y93.384 E.04434
M204 P1000
G1 E-2.24 F4200
;WIPE_START
G1 F7200
G1 X69.971 Y94.302 E-.71945
G1 X70.38 Y94.447 E-.24055
;WIPE_END
G1 Z.4 F720
G1 X75.485 Y79.608 F9000
G1 Z.2 F720
G1 E3.2 F2400
M204 P600
;TYPE:External perimeter
;WIDTH:0.645872
G1 F1200
M73 P25 R1
G1 X75.57 Y79.565 E.00478
;WIDTH:0.602047
G1 X75.655 Y79.522 E.00443
;WIDTH:0.558222
G1 X75.74 Y79.48 E.00406
;WIDTH:0.514396
G1 X75.824 Y79.437 E.0037
;WIDTH:0.470571
G1 X75.909 Y79.394 E.00339
;WIDTH:0.426746
G1 X75.994 Y79.351 E.00304
;WIDTH:0.38292
G1 X76.034 Y79.35 E.00113
M204 P1000
G1 E-2.24 F4200
;WIPE_START
G1 F7200
G1 X75.994 Y79.351 E-.02217
G1 X75.909 Y79.394 E-.05279
G1 X75.824 Y79.437 E-.05279
G1 X75.74 Y79.48 E-.05229
G1 X75.655 Y79.522 E-.05254
G1 X75.57 Y79.565 E-.05279
G1 X75.485 Y79.608 E-.05279
;WIPE_END
G1 E-.62184 F4200
G1 Z.4 F720
G1 X74.48 Y79.601 F9000
G1 Z.2 F720
G1 E3.2 F2400
M204 P600
;WIDTH:0.552026
G1 F1200
G1 X74.896 Y79.616 E.01762
;WIDTH:0.582697
G1 X75.312 Y79.631 E.01868
;WIDTH:0.614285
G1 X75.398 Y79.62 E.00412
;WIDTH:0.645872
G1 X75.485 Y79.608 E.0044
G1 X75.382 Y79.741 E.00843
;WIDTH:0.604366
G1 X75.278 Y79.875 E.00792
;WIDTH:0.56286
G1 X75.175 Y80.009 E.00731
;WIDTH:0.521354
G1 X75.046 Y80.302 E.01274
;WIDTH:0.496336
G1 X75.007 Y80.422 E.00476
;WIDTH:0.50526
G1 X75.002 Y80.33 E.00354
;WIDTH:0.521354
G1 X74.785 Y79.933 E.018
G1 X74.52 Y79.645 E.01557
M204 P1000
G1 E-2.24 F4200
;WIPE_START
G1 F7200
G1 X74.48 Y79.601 E-.03295
G1 X74.896 Y79.616 E-.23068
G1 X75.312 Y79.631 E-.23068
G1 X75.398 Y79.62 E-.04805
G1 X75.485 Y79.608 E-.04867
G1 X75.382 Y79.741 E-.09322
G1 X75.278 Y79.875 E-.094
G1 X75.175 Y80.009 E-.09366
G1 X75.111 Y80.155 E-.08809
;WIPE_END
G1 Z.4 F720
G1 X80.128 Y74.544 F9000
G1 Z.2 F720
G1 E3.2 F2400
M204 P600
;TYPE:Perimeter
;WIDTH:0.419999
G1 F1200
G1 X80.173 Y74.029 E.01621
G1 X80.202 Y73.243 E.02466
G1 X79.887 Y72.323 E.03049
G1 X79.887 Y71.978 E.01082
M73 P26 R1
G1 X80.132 Y71.343 E.02134
G1 X80.387 Y70.901 E.016
G1 X80.938 Y70.535 E.02074
G1 X81.41 Y70.367 E.01571
G1 X82.01 Y70.367 E.01881
G1 X82.54 Y70.557 E.01765
G1 X83.01 Y70.875 E.01779
G1 X83.358 Y71.302 E.01727
G1 X83.613 Y71.9 E.02038
G1 X83.613 Y72.407 E.0159
G1 X83.301 Y73.175 E.02599
G1 X82.989 Y73.532 E.01487
G1 X82.509 Y73.88 E.01859
G1 X81.849 Y74.093 E.02174
G1 X81.323 Y74.099 E.01649
G1 X81.113 Y74.178 E.00703
G1 X80.942 Y74.181 E.00536
G1 X80.573 Y74.301 E.01217
G1 X80.181 Y74.515 E.014
M204 P1000
G1 X80.181 Y74.515 F9000
G1 X79.631 Y75.385
M204 P600
;TYPE:External perimeter
;WIDTH:0.530502
G1 F1200
G1 X79.65 Y75.223 E.00661
;WIDTH:0.493668
G1 X79.669 Y75.06 E.00615
;WIDTH:0.456834
G1 X79.687 Y74.898 E.00561
;WIDTH:0.419999
G1 X79.781 Y74.325 E.01821
G1 X79.829 Y73.328 E.0313
G1 X79.67 Y72.931 E.01341
G1 X79.59 Y72.598 E.01074
G1 X79.51 Y72.432 E.00578
G1 X79.51 Y71.93 E.01574
G1 X79.829 Y71.069 E.02879
G1 X79.997 Y70.828 E.00921
G1 X80.053 Y70.697 E.00447
G1 X80.442 Y70.387 E.0156
G1 X80.51 Y70.372 E.00218
G1 X80.684 Y70.225 E.00714
G1 X81.308 Y69.99 E.02091
G1 X82.05 Y69.99 E.02326
G1 X82.4 Y70.109 E.01159
G1 X82.592 Y70.15 E.00616
G1 X82.853 Y70.331 E.00996
G1 X82.979 Y70.387 E.00432
G1 X83.104 Y70.501 E.0053
G1 X83.212 Y70.546 E.00367
G1 X83.678 Y71.09 E.02246
G1 X83.99 Y71.85 E.02576
G1 X83.99 Y72.45 E.01881
G1 X83.871 Y72.801 E.01162
G1 X83.83 Y72.992 E.00613
G1 X83.598 Y73.449 E.01607
G1 X83.053 Y73.995 E.02419
G1 X82.721 Y74.191 E.01209
M73 P27 R1
G1 X82.272 Y74.39 E.0154
G1 X82.118 Y74.39 E.00483
G1 X81.952 Y74.47 E.00578
G1 X81.398 Y74.471 E.01737
G1 X81.229 Y74.553 E.00589
G1 X80.949 Y74.558 E.00878
G1 X80.561 Y74.717 E.01315
G1 X80.401 Y74.805 E.00573
G1 X80.122 Y75.096 E.01264
;WIDTH:0.455013
G1 X79.954 Y75.215 E.00705
;WIDTH:0.490027
G1 X79.786 Y75.335 E.00768
;WIDTH:0.530502
G1 X79.688 Y75.366 E.00417
M204 P1000
G1 X79.688 Y75.366 F9000
G1 X79.437 Y75.765
M204 P600
;WIDTH:0.432114
G1 F1200
G1 X79.502 Y75.639 E.00459
;WIDTH:0.481308
G1 X79.566 Y75.512 E.00518
;WIDTH:0.530502
G1 X79.631 Y75.385 E.00578
M204 P1000
G1 E-2.24 F4200
;WIPE_START
G1 F7200
G1 X79.566 Y75.512 E-.07906
G1 X79.502 Y75.639 E-.07881
G1 X79.437 Y75.765 E-.07857
;WIPE_END
G1 E-.72356 F4200
G1 Z.4 F720
G1 X82.285 Y70.653 F9000
G1 Z.2 F720
G1 E3.2 F2400
M204 P600
;TYPE:Solid infill
;WIDTH:0.454709
G1 F1200
G1 X82.866 Y71.235 E.02816
G1 X82.922 Y71.332 E.00384
G1 X83.071 Y71.492 E.00749
G1 X83.133 Y71.627 E.00509
G1 X83.179 Y71.801 E.00616
G1 X83.274 Y71.984 E.00706
G1 X83.274 Y72.225 E.00825
G1 X81.755 Y70.706 E.07355
G1 X81.485 Y70.706 E.00924
G1 X81.259 Y70.793 E.00829
G1 X83.153 Y72.686 E.09169
G1 X83.134 Y72.749 E.00225
G1 X82.994 Y73.041 E.01109
G1 X82.96 Y73.076 E.00167
G1 X80.875 Y70.991 E.10096
G1 X80.64 Y71.139 E.00951
M73 P28 R1
G1 X80.56 Y71.258 E.00491
G1 X82.669 Y73.368 E.10215
G1 X82.437 Y73.533 E.00975
G1 X82.31 Y73.59 E.00477
G1 X80.362 Y71.643 E.0943
G1 X80.226 Y72.089 E.01597
G1 X81.851 Y73.714 E.07869
G1 X81.773 Y73.754 E.003
G1 X81.315 Y73.761 E.01568
G1 X80.427 Y72.872 E.04302
G1 X80.493 Y73.011 E.00527
G1 X80.54 Y73.203 E.00677
G1 X80.527 Y73.555 E.01206
G1 X80.983 Y74.011 E.02208
M204 P1000
G1 E-2.24 F4200
;WIPE_START
G1 F7200
G1 X80.527 Y73.555 E-.35737
G1 X80.54 Y73.203 E-.1952
G1 X80.493 Y73.011 E-.10954
G1 X80.427 Y72.872 E-.08527
G1 X80.698 Y73.143 E-.21262
;WIPE_END
G1 Z.4 F720
G1 X110.053 Y95.501 F9000
G1 Z.2 F720
M73 P29 R1
G1 E3.2 F2400
M204 P600
;TYPE:Perimeter
;WIDTH:0.419999
G1 F1200
G1 X109.941 Y95.315 E.00681
G1 X109.759 Y95.129 E.00816
G1 X109.159 Y94.769 E.02194
G1 X108.673 Y94.605 E.01608
G1 X108.22 Y94.593 E.01421
G1 X108.143 Y94.559 E.00264
G1 X107.902 Y94.55 E.00756
G1 X107.373 Y94.644 E.01685
G1 X107.481 Y94.396 E.00848
G1 X107.55 Y93.688 E.0223
G1 X107.566 Y93.139 E.01722
G1 X107.487 Y92.878 E.00855
G1 X107.516 Y92.656 E.00702
G1 X107.669 Y92.11 E.01778
G1 X107.897 Y91.654 E.01599
G1 X108.016 Y91.167 E.01572
G1 X108.047 Y90.775 E.01233
G1 X108.096 Y90.685 E.00321
G1 X108.127 Y90.502 E.00582
G1 X108.127 Y89.478 E.03211
G1 X108.017 Y88.736 E.02352
G1 X107.873 Y88.235 E.01634
G1 X107.7 Y87.869 E.01269
G1 X107.487 Y87.21 E.02171
G1 X107.487 Y86.758 E.01417
G1 X107.562 Y86.395 E.01162
G1 X107.815 Y85.95 E.01605
G1 X108.094 Y85.672 E.01235
G1 X108.557 Y85.359 E.01752
G1 X109.053 Y85.243 E.01597
G1 X109.257 Y85.167 E.00683
G1 X109.603 Y85.167 E.01085
G1 X109.683 Y85.212 E.00288
G1 X110.189 Y85.381 E.01673
G1 X110.419 Y85.649 E.01107
G1 X110.787 Y86.015 E.01627
G1 X111 Y86.351 E.01247
G1 X111.213 Y86.855 E.01716
G1 X111.213 Y87.318 E.01452
G1 X111.139 Y87.745 E.01359
G1 X110.886 Y88.24 E.01743
G1 X110.653 Y89.238 E.03213
G1 X110.653 Y90.502 E.03963
M73 P30 R1
G1 X110.657 Y90.89 E.01217
G1 X110.733 Y91.101 E.00703
G1 X110.817 Y91.611 E.01621
G1 X111.152 Y92.408 E.02711
G1 X111.233 Y92.87 E.01471
G1 X111.213 Y93.205 E.01052
G1 X111.063 Y93.612 E.0136
G1 X110.969 Y93.8 E.00659
G1 X110.719 Y94.197 E.01471
G1 X110.398 Y94.532 E.01455
G1 X110.18 Y95.008 E.01642
G1 X110.068 Y95.443 E.01408
M204 P1000
G1 X110.068 Y95.443 F9000
G1 X110.254 Y96.343
M204 P600
;TYPE:External perimeter
G1 F1200
G1 X109.891 Y95.963 E.01648
G1 X109.618 Y95.51 E.01658
G1 X109.358 Y95.321 E.01008
G1 X108.923 Y95.062 E.01587
G1 X108.725 Y95.033 E.00627
G1 X108.586 Y94.976 E.00471
G1 X108.194 Y94.972 E.01229
G1 X107.968 Y94.921 E.00726
G1 X107.412 Y95.02 E.01771
G1 X107.2 Y95.137 E.00759
G1 X106.75 Y95.23 E.01441
G1 X106.83 Y94.917 E.01013
G1 X106.938 Y94.616 E.01003
G1 X107.068 Y94.435 E.00699
G1 X107.166 Y93.929 E.01616
G1 X107.189 Y93.165 E.02397
G1 X107.11 Y92.993 E.00593
G1 X107.11 Y92.65 E.01075
G1 X107.19 Y92.422 E.00758
G1 X107.27 Y92.102 E.01034
G1 X107.564 Y91.477 E.02166
G1 X107.59 Y91.21 E.00841
G1 X107.655 Y91.054 E.0053
G1 X107.67 Y90.73 E.01017
G1 X107.75 Y90.502 E.00758
G1 X107.75 Y89.478 E.03211
G1 X107.67 Y89.312 E.00578
G1 X107.67 Y88.936 E.01179
G1 X107.51 Y88.37 E.01844
G1 X107.19 Y87.57 E.02702
G1 X107.11 Y87.25 E.01034
G1 X107.108 Y86.607 E.02016
G1 X107.269 Y86.109 E.01641
G1 X107.436 Y85.869 E.00917
G1 X107.492 Y85.74 E.00441
G1 X107.969 Y85.263 E.02115
G1 X108.06 Y85.229 E.00305
G1 X108.508 Y84.95 E.01655
G1 X108.662 Y84.95 E.00483
M73 P31 R1
G1 X108.828 Y84.87 E.00578
G1 X108.982 Y84.87 E.00483
G1 X109.148 Y84.79 E.00578
G1 X109.65 Y84.79 E.01574
G1 X110.118 Y84.95 E.01551
G1 X110.556 Y85.145 E.01503
G1 X110.686 Y85.382 E.00848
G1 X111.199 Y85.893 E.0227
G1 X111.59 Y86.748 E.02948
G1 X111.59 Y87.062 E.00985
G1 X111.631 Y87.179 E.00389
G1 X111.593 Y87.283 E.00347
G1 X111.59 Y87.57 E.009
G1 X111.434 Y87.999 E.01431
G1 X111.214 Y88.426 E.01506
G1 X111.19 Y88.61 E.00582
G1 X111.132 Y88.749 E.00472
G1 X111.11 Y89.01 E.00821
G1 X111.03 Y89.238 E.00758
G1 X111.03 Y90.82 E.0496
G1 X111.11 Y90.988 E.00583
G1 X111.11 Y91.222 E.00734
G1 X111.19 Y91.388 E.00578
