; generated by PrusaSlicer 2.7.4 on 2024-10-19 at 16:10:47 UTC


;
;

;
;
; 

; external perimeters extrusion width = 0.40mm
; perimeters extrusion width = 0.40mm
; infill extrusion width = 0.45mm
; solid infill extrusion width = 0.45mm
; top infill extrusion width = 0.40mm
; first layer extrusion width = 0.42mm

M73 P0 R9
M201 X2500 Y2500 Z400 E5000 ; sets maximum accelerations, mm/sec^2
M203 X180 Y180 Z12 E80 ; sets maximum feedrates, mm / sec
M204 P2000 R1250 T2500 ; sets acceleration (P, T) and retract acceleration (R), mm/sec^2
M205 X8.00 Y8.00 Z2.00 E10.00 ; sets the jerk limits, mm/sec
M205 S0 T0 ; sets the minimum extruding and travel feed rate, mm/sec

; printing object binary_yellow.stl id:0 copy 0
; stop printing object binary_yellow.stl id:0 copy 0

;TYPE:Custom
M862.3 P "MINI" ; printer model check
G90 ; use absolute coordinates
M83 ; extruder relative mode
M104 S170 ; set extruder temp for bed leveling
M140 S60 ; set bed temp
M109 R170 ; wait for bed leveling temp
M190 S60 ; wait for bed temp
M204 T1250 ; set travel acceleration
G28 ; home all without mesh bed level
G29 ; mesh bed leveling 
M204 T2500 ; restore travel acceleration
M104 S215 ; set extruder temp
G92 E0
G1 Y-2 X179 F2400
G1 Z3 F720
M109 S215 ; wait for extruder temp

; intro line
G1 X170 F1000
G1 Z0.2 F720
G1 X110 E8 F900
G1 X40 E10 F700
M73 P1 R9
G92 E0

M221 S95 ; set flow
G21 ; set units to millimeters
G90 ; use absolute coordinates
M83 ; use relative distances for extrusion
M900 K0.2 ; Filament gcode LA 1.5
; ; Filament gcode LA 1.0
M107
;LAYER_CHANGE
;Z:0.2
;HEIGHT:0.2
G1 E-3.2 F4200
M73 P2 R9
G1 Z.4 F720
G1 X72.67 Y72.331 F9000
G1 Z.2 F720
G1 E3.2 F2400
M204 P600
;TYPE:Skirt/Brim
;WIDTH:0.42
G1 F1200
G1 X73.264 Y71.856 E.02385
G1 X77.498 Y69.378 E.15382
G1 X78.88 Y69.006 E.04487
G1 X79.496 Y69.063 E.0194
G1 X88.256 Y70.883 E.28053
G1 X89.045 Y71.125 E.02588
G1 X111.44 Y80.5 E.76122
G1 X112.596 Y81.41 E.04613
M73 P3 R9
G1 X112.978 Y82.135 E.02569
G1 X113.383 Y83.783 E.05321
G1 X113.454 Y84.456 E.02122
G1 X113.252 Y85.491 E.03306
G1 X108.952 Y96.091 E.35866
G1 X107.115 Y100.345 E.14529
G1 X106.66 Y101.152 E.02905
G1 X106.247 Y101.679 E.02099
G1 X101.649 Y106.274 E.20382
G1 X100.679 Y106.949 E.03705
G1 X99.527 Y107.413 E.03894
G1 X98.656 Y107.554 E.02767
G1 X97.724 Y107.554 E.02922
G1 X97.055 Y107.472 E.02113
G1 X96.184 Y107.189 E.02871
G1 X95.536 Y106.869 E.02266
G1 X94.636 Y106.231 E.03459
G1 X69.942 Y80.772 E1.11206
G1 X69.166 Y78.856 E.06481
G1 X69.497 Y77.499 E.0438
G1 X71.557 Y73.687 E.13586
G1 X72.034 Y72.999 E.02625
G1 X72.629 Y72.374 E.02706
M204 P1000
G1 X72.629 Y72.374 F9000
G1 X72.901 Y72.635
M204 P600
G1 F1200
G1 X72.934 Y72.6 E.00151
G1 X73.723 Y72.004 E.031
G1 X77.687 Y69.704 E.14369
G1 X78.88 Y69.383 E.03874
G1 X79.42 Y69.433 E.017
G1 X88.18 Y71.253 E.28053
G1 X89.099 Y71.548 E.03026
M73 P4 R9
G1 X111.295 Y80.848 E.75456
G1 X112.603 Y82.208 E.05916
G1 X113.016 Y83.868 E.05363
G1 X113.077 Y84.404 E.01691
G1 X112.903 Y85.35 E.03016
G1 X108.603 Y95.95 E.35866
G1 X106.776 Y100.179 E.14444
G1 X106.337 Y100.958 E.02804
G1 X105.981 Y101.413 E.01811
G1 X101.383 Y106.007 E.20379
G1 X100.749 Y106.477 E.02475
G1 X99.408 Y107.055 E.04579
G1 X98.656 Y107.177 E.02389
G1 X97.724 Y107.177 E.02922
G1 X97.147 Y107.106 E.01823
G1 X96.351 Y106.851 E.02621
G1 X95.703 Y106.531 E.02266
G1 X94.871 Y105.936 E.03207
G1 X70.213 Y80.51 E1.11053
G1 X69.543 Y78.856 E.05595
G1 X69.829 Y77.678 E.03801
G1 X71.889 Y73.866 E.13586
G1 X72.336 Y73.225 E.0245
G1 X72.86 Y72.678 E.02375
M204 P1000
G1 E-2.24 F4200
;WIPE_START
G1 F7200
G1 X72.901 Y72.635 E-.03293
G1 X72.934 Y72.6 E-.02666
G1 X73.723 Y72.004 E-.54796
G1 X74.273 Y71.685 E-.35245
;WIPE_END
G1 Z.4 F720
; printing object binary_yellow.stl id:0 copy 0
G1 X103.873 Y96.811 F9000
G1 Z.2 F720
M73 P5 R9
G1 E3.2 F2400
M204 P600
;TYPE:Perimeter
;WIDTH:0.419999
G1 F1200
G1 X103.716 Y97.398 E.01905
G1 X103.716 Y97.848 E.01411
G1 X103.678 Y97.919 E.00252
G1 X103.636 Y98.198 E.00885
G1 X103.49 Y98.746 E.01778
G1 X103.269 Y99.115 E.01349
G1 X102.867 Y99.431 E.01603
G1 X101.477 Y100.083 E.04814
G1 X101.028 Y100.393 E.01711
G1 X100.401 Y101.025 E.02791
G1 X100.234 Y101.244 E.00864
G1 X99.985 Y101.679 E.01572
G1 X99.55 Y102.631 E.03282
G1 X99.293 Y103.091 E.01652
G1 X98.936 Y103.384 E.01448
G1 X98.522 Y103.563 E.01414
G1 X98.191 Y103.636 E.01063
G1 X97.864 Y103.57 E.01046
G1 X97.402 Y103.38 E.01566
G1 X97.02 Y103.025 E.01635
G1 X96.807 Y102.66 E.01325
G1 X96.664 Y102.145 E.01676
G1 X96.8 Y101.674 E.01537
G1 X97.008 Y101.229 E.0154
G1 X97.583 Y100.451 E.03033
G1 X97.828 Y99.995 E.01623
G1 X98.025 Y99.519 E.01615
G1 X98.133 Y99.026 E.01582
G1 X98.173 Y98.631 E.01245
G1 X98.138 Y98.124 E.01593
G1 X98.676 Y98.178 E.01695
G1 X99.319 Y98.087 E.02036
G1 X99.93 Y97.86 E.02044
G1 X100.391 Y97.635 E.01608
G1 X100.824 Y97.341 E.01641
G1 X101.153 Y97.063 E.01351
G1 X101.576 Y96.835 E.01507
G1 X102.058 Y96.674 E.01593
G1 X102.851 Y96.824 E.0253
G1 X103.813 Y96.812 E.03017
M204 P1000
G1 X103.813 Y96.812 F9000
G1 X104.462 Y96.426
M204 P600
G1 F1200
G1 X104.238 Y96.897 E.01635
G1 X104.093 Y97.398 E.01635
G1 X104.093 Y97.928 E.01662
G1 X104.038 Y98.031 E.00366
G1 X104.013 Y98.405 E.01175
G1 X103.88 Y98.746 E.01148
G1 X103.535 Y99.383 E.02271
G1 X103.17 Y99.68 E.01475
G1 X102.669 Y99.96 E.018
G1 X102.231 Y100.132 E.01475
G1 X101.728 Y100.378 E.01756
G1 X101.295 Y100.659 E.01618
G1 X100.669 Y101.291 E.02789
G1 X100.414 Y101.658 E.01401
G1 X100.17 Y102.153 E.0173
G1 X100.098 Y102.385 E.00762
G1 X99.605 Y103.313 E.03295
G1 X99.318 Y103.598 E.01268
G1 X98.91 Y103.83 E.01472
G1 X98.405 Y104.013 E.01684
G1 X97.975 Y104.013 E.01348
G1 X97.882 Y103.962 E.00333
G1 X97.668 Y103.933 E.00677
G1 X97.205 Y103.701 E.01624
G1 X96.848 Y103.389 E.01487
G1 X96.5 Y102.909 E.01859
G1 X96.287 Y102.24 E.02201
G1 X96.287 Y101.98 E.00815
G1 X96.392 Y101.705 E.00923
G1 X96.447 Y101.462 E.00781
G1 X96.855 Y100.75 E.02573
G1 X97.054 Y100.546 E.00894
G1 X97.26 Y100.25 E.01131
G1 X97.46 Y99.871 E.01344
G1 X97.679 Y99.368 E.0172
G1 X97.8 Y98.702 E.02122
G1 X97.766 Y98.19 E.01609
;WIDTH:0.421417
G1 X97.687 Y97.692 E.01587
G1 X98.123 Y97.743 E.01382
;WIDTH:0.419999
G1 X98.683 Y97.8 E.01765
G1 X99.248 Y97.717 E.01791
G1 X99.775 Y97.517 E.01767
G1 X100.234 Y97.292 E.01603
G1 X100.637 Y97.013 E.01537
G1 X100.982 Y96.703 E.01454
G1 X101.434 Y96.486 E.01572
G1 X101.915 Y96.325 E.0159
G1 X102.11 Y96.287 E.00623
G1 X102.846 Y96.447 E.02362
G1 X104.402 Y96.427 E.04879
M204 P1000
G1 E-2.24 F4200
;WIPE_START
G1 F7200
G1 X104.462 Y96.426 E-.03325
G1 X104.238 Y96.897 E-.28903
G1 X104.093 Y97.398 E-.28903
G1 X104.093 Y97.928 E-.29371
G1 X104.046 Y98.015 E-.05498
;WIPE_END
G1 Z.4 F720
G1 X106.05 Y95.029 F9000
G1 Z.2 F720
G1 E3.2 F2400
M204 P600
;TYPE:External perimeter
;WIDTH:0.594788
G1 F1200
G1 X106.14 Y94.863 E.00866
;WIDTH:0.54783
G1 X106.229 Y94.698 E.00787
;WIDTH:0.500872
G1 X106.296 Y94.536 E.00668
;WIDTH:0.461555
G1 X106.363 Y94.373 E.00613
;WIDTH:0.422238
G1 X106.429 Y94.211 E.00552
;WIDTH:0.38292
G1 X106.55 Y93.769 E.01296
M204 P1000
G1 X106.024 Y95.137 F9000
M204 P600
;WIDTH:0.545211
G1 F1200
G1 X105.999 Y95.245 E.00463
;WIDTH:0.495634
G1 X105.973 Y95.353 E.00418
;WIDTH:0.446056
G1 X105.876 Y95.602 E.00896
;WIDTH:0.432605
G1 X105.709 Y95.727 E.00676
;WIDTH:0.465858
G1 X105.331 Y96.047 E.01742
;WIDTH:0.49911
G1 X104.952 Y96.366 E.01879
G1 X104.817 Y96.581 E.00963
;WIDTH:0.459555
G1 X104.681 Y96.797 E.00884
;WIDTH:0.419999
G1 X104.47 Y97.398 E.01997
G1 X104.47 Y97.97 E.01793
G1 X104.398 Y98.143 E.00588
G1 X104.39 Y98.45 E.00963
G1 X104.271 Y98.801 E.01162
G1 X104.23 Y98.992 E.00613
G1 X104.048 Y99.253 E.00998
G1 X103.938 Y99.514 E.00888
G1 X103.535 Y99.914 E.0178
G1 X103.454 Y99.936 E.00263
G1 X103.295 Y100.075 E.00662
G1 X102.001 Y100.671 E.04467
G1 X101.562 Y100.925 E.0159
G1 X100.936 Y101.556 E.02787
G1 X100.868 Y101.701 E.00502
G1 X100.759 Y101.824 E.00515
G1 X100.709 Y101.954 E.00437
G1 X100.473 Y102.403 E.0159
G1 X100.396 Y102.631 E.00755
G1 X99.928 Y103.523 E.03158
G1 X99.534 Y103.914 E.0174
G1 X99.201 Y104.111 E.01213
G1 X98.512 Y104.39 E.02331
G1 X97.93 Y104.39 E.01825
G1 X97.61 Y104.31 E.01034
G1 X97.389 Y104.231 E.00736
G1 X96.931 Y103.998 E.01611
G1 X96.385 Y103.453 E.02419
G1 X96.189 Y103.121 E.01209
G1 X95.99 Y102.672 E.0154
G1 X95.99 Y102.518 E.00483
G1 X95.91 Y102.352 E.00578
G1 X95.91 Y101.93 E.01323
G1 X96.052 Y101.543 E.01293
G1 X96.07 Y101.308 E.00739
G1 X96.501 Y100.636 E.02503
G1 X96.544 Y100.529 E.00362
G1 X96.816 Y100.25 E.01222
G1 X96.87 Y100.119 E.00444
G1 X96.981 Y99.996 E.00519
G1 X97.334 Y99.217 E.02682
G1 X97.348 Y98.962 E.00801
G1 X97.424 Y98.726 E.00777
G1 X97.388 Y98.196 E.01666
;WIDTH:0.465823
G1 X97.35 Y97.907 E.01025
;WIDTH:0.511646
G1 X97.312 Y97.618 E.01136
G1 X97.211 Y97.529 E.00525
;WIDTH:0.509519
G1 X97.028 Y97.049 E.01993
;WIDTH:0.503891
G1 X97.053 Y97.031 E.00118
;WIDTH:0.509519
G1 X97.53 Y97.219 E.01989
;WIDTH:0.511646
G1 X97.665 Y97.313 E.00641
G1 X97.961 Y97.346 E.01161
;WIDTH:0.465823
G1 X98.257 Y97.378 E.01047
;WIDTH:0.419999
G1 X98.766 Y97.424 E.01602
G1 X98.903 Y97.348 E.00491
G1 X99.14 Y97.35 E.00743
G1 X99.637 Y97.164 E.01664
G1 X100.103 Y96.938 E.01624
G1 X100.363 Y96.709 E.01086
G1 X100.451 Y96.685 E.00286
G1 X100.771 Y96.382 E.01382
G1 X100.95 Y96.306 E.0061
G1 X101.112 Y96.192 E.00621
G1 X101.702 Y95.99 E.01955
G1 X101.868 Y95.91 E.00578
G1 X102.29 Y95.91 E.01323
G1 X102.518 Y95.99 E.00758
G1 X102.841 Y96.07 E.01043
G1 X103.947 Y96.056 E.03468
;WIDTH:0.459555
G1 X104.293 Y96.047 E.01199
;WIDTH:0.49911
G1 X104.638 Y96.038 E.01309
G1 X104.854 Y95.897 E.00978
;WIDTH:0.462434
G1 X105.071 Y95.757 E.00901
;WIDTH:0.425757
G1 X105.611 Y95.328 E.02195
;WIDTH:0.452934
G1 X105.721 Y95.253 E.00454
;WIDTH:0.500219
G1 X105.83 Y95.178 E.00503
;WIDTH:0.547504
G1 X105.94 Y95.103 E.00559
;WIDTH:0.594788
G1 X106.05 Y95.029 E.00608
G1 X106.038 Y95.078 E.00231
M204 P1000
G1 E-2.24 F4200
;WIPE_START
G1 F7200
G1 X106.024 Y95.137 E-.0336
G1 X105.999 Y95.245 E-.06143
G1 X105.973 Y95.353 E-.06156
G1 X105.876 Y95.602 E-.14809
G1 X105.709 Y95.727 E-.1156
G1 X105.331 Y96.047 E-.27446
G1 X104.965 Y96.355 E-.26526
;WIPE_END
G1 Z.4 F720
G1 X96.852 Y96.837 F9000
G1 Z.2 F720
G1 E3.2 F2400
M204 P600
;WIDTH:0.415091
G1 F1200
G1 X96.837 Y96.852 E.00066
M204 P1000
G1 X96.837 Y96.852 F9000
G1 X96.702 Y96.707
M204 P600
;WIDTH:0.38292
G1 F1200
G1 X96.775 Y96.771 E.00274
M204 P1000
G1 E-2.24 F4200
;WIPE_START
G1 F7200
G1 X96.702 Y96.707 E-.0538
;WIPE_END
G1 E-.9062 F4200
G1 Z.4 F720
G1 X102.87 Y96.985 F9000
G1 Z.2 F720
G1 E3.2 F2400
M204 P600
;TYPE:Solid infill
;WIDTH:0.426968
G1 F1200
G1 X103.377 Y97.492 E.0229
G1 X103.377 Y97.785 E.00936
G1 X103.317 Y97.975 E.00636
G1 X102.439 Y97.097 E.03965
G1 X102.108 Y97.015 E.01089
M73 P6 R9
G1 X101.888 Y97.089 E.00741
G1 X103.235 Y98.436 E.06083
G1 X103.184 Y98.587 E.00509
G1 X103.048 Y98.792 E.00786
G1 X101.501 Y97.246 E.06984
G1 X101.388 Y97.308 E.00412
G1 X101.199 Y97.487 E.00831
G1 X102.79 Y99.077 E.07183
G1 X102.437 Y99.268 E.01282
G1 X100.881 Y97.712 E.07027
G1 X100.683 Y97.87 E.00809
G1 X100.557 Y97.931 E.00447
G1 X102.061 Y99.435 E.06792
G1 X101.686 Y99.603 E.01312
G1 X100.192 Y98.109 E.06747
G1 X99.823 Y98.283 E.01303
G1 X101.323 Y99.783 E.06774
G1 X100.988 Y99.991 E.01259
G1 X99.41 Y98.413 E.07126
G1 X99.173 Y98.441 E.00762
G1 X98.952 Y98.499 E.0073
G1 X100.698 Y100.244 E.07883
G1 X100.427 Y100.517 E.01228
G1 X98.511 Y98.601 E.08653
G1 X98.505 Y98.922 E.01025
G1 X98.461 Y99.093 E.00564
G1 X100.157 Y100.789 E.07659
G1 X99.922 Y101.098 E.0124
G1 X98.37 Y99.546 E.07009
G1 X98.228 Y99.947 E.01358
G1 X99.723 Y101.442 E.06752
G1 X99.542 Y101.804 E.01292
G1 X98.049 Y100.311 E.06743
G1 X97.855 Y100.66 E.01275
G1 X99.391 Y102.196 E.06937
G1 X99.209 Y102.558 E.01294
G1 X97.628 Y100.976 E.07142
G1 X97.457 Y101.159 E.008
G1 X97.385 Y101.276 E.00439
G1 X99.006 Y102.898 E.07323
G1 X98.898 Y103.005 E.00485
G1 X98.699 Y103.133 E.00756
G1 X97.185 Y101.619 E.06837
G1 X97.14 Y101.681 E.00245
G1 X97.044 Y102.022 E.01131
G1 X98.302 Y103.28 E.05681
G1 X98.129 Y103.296 E.00555
G1 X97.86 Y103.228 E.00886
G1 X97.558 Y103.079 E.01075
G1 X96.915 Y102.436 E.02904
M204 P1000
G1 E-2.24 F4200
;WIPE_START
G1 F7200
G1 X97.558 Y103.079 E-.50393
G1 X97.86 Y103.228 E-.18662
G1 X98.129 Y103.296 E-.15376
G1 X98.302 Y103.28 E-.09628
G1 X98.277 Y103.255 E-.01941
;WIPE_END
G1 Z.4 F720
G1 X105.83 Y89.99 F9000
G1 Z.2 F720
G1 E3.2 F2400
M204 P600
;TYPE:Perimeter
;WIDTH:0.561428
G1 F1200
G1 X106.094 Y89.808 E.01382
G1 X106.462 Y89.406 E.0235
G1 X106.462 Y89.632 E.00974
G1 X106.542 Y89.933 E.01343
G1 X106.462 Y90.52 E.02554
G1 X105.876 Y90.029 E.03296
M204 P1000
G1 X105.876 Y90.029 F9000
G1 X104.832 Y89.99
M204 P600
;TYPE:External perimeter
;WIDTH:0.419999
G1 F1200
G1 X105.358 Y89.786 E.01769
G1 X105.641 Y89.55 E.01155
G1 X105.709 Y89.537 E.00217
G1 X106.056 Y89.209 E.01497
G1 X106.109 Y89.082 E.00431
G1 X106.319 Y88.86 E.00958
;WIDTH:0.421442
G1 X106.59 Y88.368 E.01768
G1 X106.711 Y88.629 E.00905
;WIDTH:0.419999
G1 X106.83 Y88.918 E.0098
G1 X106.83 Y89.072 E.00483
G1 X106.91 Y89.238 E.00578
G1 X106.91 Y89.559 E.01006
G1 X106.99 Y89.86 E.00977
G1 X106.99 Y90.12 E.00815
G1 X106.928 Y90.268 E.00503
G1 X106.91 Y90.6 E.01042
G1 X106.853 Y90.738 E.00468
G1 X106.83 Y91 E.00825
G1 X106.561 Y91.628 E.02142
G1 X106.346 Y91.182 E.01552
G1 X106.013 Y90.724 E.01775
G1 X105.549 Y90.341 E.01886
G1 X105.272 Y90.154 E.01048
G1 X104.888 Y90.011 E.01285
M204 P1000
G1 E-2.24 F4200
;WIPE_START
G1 F7200
G1 X104.832 Y89.99 E-.03314
G1 X105.358 Y89.786 E-.31265
G1 X105.641 Y89.55 E-.2042
G1 X105.709 Y89.537 E-.03837
G1 X106.056 Y89.209 E-.26461
G1 X106.109 Y89.082 E-.07626
G1 X106.147 Y89.042 E-.03077
;WIPE_END
G1 Z.4 F720
G1 X106.59 Y88.09 F9000
G1 Z.2 F720
G1 E3.2 F2400
M204 P600
;WIDTH:0.38292
G1 F1200
G1 X106.568 Y88.296 E.00586
;WIDTH:0.421442
G1 X106.59 Y88.368 E.00237
M204 P1000
G1 E-2.24 F4200
;WIPE_START
G1 F7200
G1 X106.568 Y88.296 E-.04172
G1 X106.59 Y88.09 E-.11481
;WIPE_END
G1 E-.80347 F4200
G1 Z.4 F720
G1 X104.492 Y89.99 F9000
G1 Z.2 F720
G1 E3.2 F2400
M204 P600
;WIDTH:0.38292
G1 F1200
G1 X104.832 Y89.99 E.00961
M204 P1000
G1 E-2.24 F4200
;WIPE_START
G1 F7200
G1 X104.492 Y89.99 E-.18842
;WIPE_END
G1 E-.77158 F4200
G1 Z.4 F720
G1 X106.548 Y91.989 F9000
G1 Z.2 F720
G1 E3.2 F2400
M204 P600
G1 F1200
G1 X106.577 Y91.792 E.00563
G1 X106.55 Y91.708 E.00249
M204 P1000
G1 E-2.24 F4200
;WIPE_START
G1 F7200
G1 X106.577 Y91.792 E-.0489
G1 X106.548 Y91.989 E-.11035
;WIPE_END
G1 E-.80075 F4200
G1 Z.4 F720
G1 X110.265 Y83.293 F9000
G1 Z.2 F720
G1 E3.2 F2400
M204 P600
;WIDTH:0.432715
G1 F1200
G1 X110.244 Y83.39 E.00322
;WIDTH:0.48251
G1 X110.223 Y83.486 E.00359
;WIDTH:0.532305
G1 X110.202 Y83.583 E.00404
;WIDTH:0.5821
G1 X110.181 Y83.679 E.00441
;WIDTH:0.631895
G1 X110.16 Y83.775 E.00481
;WIDTH:0.68169
G1 X110.139 Y83.872 E.00527
;WIDTH:0.706876
G1 X110.128 Y83.901 E.00171
M204 P1000
G1 E-2.24 F4200
;WIPE_START
G1 F7200
M73 P6 R8
G1 X110.139 Y83.872 E-.01719
G1 X110.16 Y83.775 E-.055
G1 X110.181 Y83.679 E-.05446
G1 X110.202 Y83.583 E-.05446
G1 X110.223 Y83.486 E-.055
G1 X110.244 Y83.39 E-.05446
G1 X110.265 Y83.293 E-.055
;WIPE_END
G1 E-.61443 F4200
G1 Z.4 F720
G1 X89.33 Y83.821 F9000
M73 P7 R8
G1 Z.2 F720
G1 E3.2 F2400
M204 P600
;TYPE:Perimeter
;WIDTH:0.419999
G1 F1200
G1 X89.694 Y83.214 E.02219
G1 X89.88 Y82.604 E.02
G1 X89.944 Y82.262 E.01091
G1 X89.94 Y80.908 E.04245
G1 X89.824 Y80.407 E.01612
G1 X89.598 Y79.843 E.01905
;WIDTH:0.459065
G1 X89.5 Y79.609 E.00878
;WIDTH:0.498131
G1 X89.403 Y79.374 E.00962
G1 X89.135 Y79.068 E.0154
;WIDTH:0.527178
G1 X88.763 Y78.607 E.02385
G1 X88.67 Y78.559 E.00421
;WIDTH:0.491452
G1 X88.577 Y78.511 E.0039
;WIDTH:0.455726
G1 X88.483 Y78.463 E.00362
;WIDTH:0.419999
G1 X88.211 Y78.23 E.01123
G1 X87.768 Y78 E.01565
G1 X87.317 Y77.777 E.01577
G1 X86.793 Y77.632 E.01705
G1 X86.337 Y77.379 E.01635
G1 X86.027 Y77.069 E.01375
G1 X85.88 Y76.816 E.00917
G1 X85.704 Y76.338 E.01597
G1 X85.704 Y75.728 E.01913
G1 X85.969 Y75.209 E.01827
G1 X86.36 Y74.884 E.01594
G1 X86.811 Y74.725 E.01499
G1 X87.377 Y74.744 E.01776
