; generated by PrusaSlicer 2.7.4 on 2024-10-19 at 16:11:04 UTC


;
;

;
;
; 

; external perimeters extrusion width = 0.40mm
; perimeters extrusion width = 0.40mm
; infill extrusion width = 0.45mm
; solid infill extrusion width = 0.45mm
; top infill extrusion width = 0.40mm
; first layer extrusion width = 0.42mm

M73 P0 R90
M201 X2500 Y2500 Z400 E5000 ; sets maximum accelerations, mm/sec^2
M203 X180 Y180 Z12 E80 ; sets maximum feedrates, mm / sec
M204 P2000 R1250 T2500 ; sets acceleration (P, T) and retract acceleration (R), mm/sec^2
M205 X8.00 Y8.00 Z2.00 E10.00 ; sets the jerk limits, mm/sec
M205 S0 T0 ; sets the minimum extruding and travel feed rate, mm/sec

; printing object binary_white.stl id:0 copy 0
; stop printing object binary_white.stl id:0 copy 0

;TYPE:Custom
M862.3 P "MINI" ; printer model check
G90 ; use absolute coordinates
M83 ; extruder relative mode
M104 S170 ; set extruder temp for bed leveling
M140 S60 ; set bed temp
M109 R170 ; wait for bed leveling temp
M190 S60 ; wait for bed temp
M204 T1250 ; set travel acceleration
G28 ; home all without mesh bed level
G29 ; mesh bed leveling 
M204 T2500 ; restore travel acceleration
M104 S215 ; set extruder temp
G92 E0
G1 Y-2 X179 F2400
G1 Z3 F720
M109 S215 ; wait for extruder temp

; intro line
G1 X170 F1000
G1 Z0.2 F720
G1 X110 E8 F900
G1 X40 E10 F700
G92 E0

M221 S95 ; set flow
G21 ; set units to millimeters
G90 ; use absolute coordinates
M83 ; use relative distances for extrusion
M900 K0.2 ; Filament gcode LA 1.5
; ; Filament gcode LA 1.0
M107
;LAYER_CHANGE
;Z:0.2
;HEIGHT:0.2
G1 E-3.2 F4200
G1 Z.4 F720
G1 X48.379 Y48.443 F9000
G1 Z.2 F720
G1 E3.2 F2400
M204 P600
;TYPE:Skirt/Brim
;WIDTH:0.42
G1 F1200
G1 X50.124 Y47.683 E.05968
G1 X129.856 Y47.683 E2.49994
G1 X131.538 Y48.38 E.05709
G1 X132.297 Y50.124 E.05964
G1 X132.297 Y129.856 E2.49994
G1 X131.601 Y131.537 E.05705
G1 X129.856 Y132.297 E.05968
G1 X50.124 Y132.297 E2.49994
G1 X48.386 Y131.544 E.05939
G1 X47.689 Y129.862 E.05709
G1 X47.683 Y50.124 E2.50013
G1 X48.356 Y48.499 E.05515
M204 P1000
G1 E-2.24 F4200
;WIPE_START
G1 F7200
G1 X48.379 Y48.443 E-.03355
G1 X49.912 Y47.775 E-.92645
;WIPE_END
G1 Z.4 F720
; printing object binary_white.stl id:0 copy 0
G1 X128.756 Y128.756 F9000
G1 Z.2 F720
G1 E3.2 F2400
M204 P600
;TYPE:Perimeter
;WIDTH:0.419999
G1 F1200
G1 X51.224 Y128.756 E2.43096
G1 X51.224 Y51.224 E2.43096
G1 X128.756 Y51.224 E2.43096
M73 P0 R89
G1 X128.756 Y54.632 E.10686
G1 X128.756 Y128.696 E2.32222
M204 P1000
G1 X128.756 Y128.696 F9000
G1 X129.133 Y129.133
M204 P600
G1 F1200
G1 X50.847 Y129.133 E2.4546
G1 X50.847 Y50.847 E2.4546
G1 X129.133 Y50.847 E2.4546
M73 P1 R89
G1 X129.133 Y54.632 E.11868
G1 X129.133 Y129.073 E2.33404
M204 P1000
G1 X129.51 Y129.51 F9000
M204 P600
;TYPE:External perimeter
G1 F1200
G1 X50.47 Y129.51 E2.47824
G1 X50.47 Y50.47 E2.47824
G1 X129.51 Y50.47 E2.47824
G1 X129.51 Y54.632 E.1305
G1 X129.51 Y129.45 E2.34586
M204 P1000
G1 E-2.24 F4200
;WIPE_START
G1 F7200
G1 X129.51 Y129.51 E-.03325
G1 X127.838 Y129.51 E-.92675
;WIPE_END
G1 Z.4 F720
G1 X57.069 Y122.888 F9000
G1 Z.2 F720
G1 E3.2 F2400
M204 P600
;TYPE:Perimeter
G1 F1200
G1 X56.88 Y122.575 E.01146
G1 X56.803 Y122.341 E.00772
G1 X56.756 Y122.047 E.00934
G1 X56.768 Y57.71 E2.01724
G1 X56.846 Y57.336 E.01198
G1 X57.044 Y57.044 E.01106
G1 X57.336 Y56.845 E.01108
G1 X57.711 Y56.768 E.012
G1 X122.273 Y56.768 E2.02429
G1 X122.647 Y56.845 E.01197
G1 X122.94 Y57.044 E.01111
G1 X123.138 Y57.336 E.01106
G1 X123.216 Y57.711 E.01201
G1 X123.216 Y122.273 E2.02429
G1 X123.139 Y122.648 E.012
G1 X122.94 Y122.94 E.01108
G1 X122.648 Y123.138 E.01106
G1 X122.273 Y123.216 E.01201
G1 X57.775 Y123.224 E2.02229
G1 X57.395 Y123.144 E.01218
G1 X57.101 Y122.94 E.01122
M204 P1000
G1 X57.101 Y122.94 F9000
G1 X57.355 Y122.651
M204 P600
G1 F1200
G1 X57.238 Y122.458 E.00708
G1 X57.161 Y122.224 E.00772
G1 X57.133 Y122.047 E.00562
G1 X57.145 Y57.711 E2.01721
G1 X57.192 Y57.486 E.00721
G1 X57.311 Y57.311 E.00664
G1 X57.486 Y57.192 E.00664
G1 X57.711 Y57.145 E.00721
G1 X122.273 Y57.145 E2.02429
G1 X122.498 Y57.191 E.0072
M73 P1 R88
G1 X122.673 Y57.31 E.00664
G1 X122.792 Y57.486 E.00666
G1 X122.839 Y57.711 E.00721
G1 X122.839 Y122.273 E2.02429
G1 X122.792 Y122.498 E.00721
G1 X122.673 Y122.673 E.00664
G1 X122.498 Y122.792 E.00664
G1 X122.273 Y122.839 E.00721
G1 X57.775 Y122.847 E2.02229
G1 X57.547 Y122.799 E.00731
G1 X57.395 Y122.693 E.00581
M204 P1000
G1 X57.395 Y122.693 F9000
G1 X57.64 Y122.413
M204 P600
;TYPE:External perimeter
G1 F1200
G1 X57.519 Y122.106 E.01035
G1 X57.522 Y57.711 E2.01906
G1 X57.577 Y57.577 E.00454
M73 P2 R88
G1 X57.711 Y57.522 E.00454
G1 X122.273 Y57.522 E2.02429
G1 X122.407 Y57.577 E.00454
G1 X122.462 Y57.711 E.00454
G1 X122.462 Y122.273 E2.02429
G1 X122.407 Y122.407 E.00454
G1 X122.273 Y122.462 E.00454
G1 X57.775 Y122.47 E2.02229
G1 X57.696 Y122.436 E.0027
M204 P1000
G1 E-2.24 F4200
;WIPE_START
G1 F7200
G1 X57.64 Y122.413 E-.03355
G1 X57.519 Y122.106 E-.18287
G1 X57.519 Y120.764 E-.74358
;WIPE_END
G1 Z.4 F720
G1 X127.822 Y51.394 F9000
G1 Z.2 F720
G1 E3.2 F2400
M204 P600
;TYPE:Solid infill
;WIDTH:0.420843
G1 F1200
G1 X128.416 Y51.988 E.0264
G1 X128.416 Y52.523 E.01681
G1 X127.457 Y51.564 E.04262
G1 X126.923 Y51.564 E.01678
G1 X128.416 Y53.057 E.06635
G1 X128.416 Y53.592 E.01681
G1 X126.388 Y51.564 E.09013
G1 X125.854 Y51.564 E.01678
G1 X128.416 Y54.126 E.11386
G1 X128.416 Y54.661 E.01681
G1 X125.319 Y51.564 E.13763
G1 X124.785 Y51.564 E.01678
G1 X128.416 Y55.195 E.16136
G1 X128.416 Y55.729 E.01678
G1 X124.251 Y51.564 E.1851
G1 X123.716 Y51.564 E.01681
G1 X128.416 Y56.264 E.20887
G1 X128.416 Y56.798 E.01678
G1 X123.182 Y51.564 E.2326
G1 X122.647 Y51.564 E.01681
G1 X128.416 Y57.333 E.25638
G1 X128.416 Y57.867 E.01678
G1 X122.113 Y51.564 E.28011
G1 X121.578 Y51.564 E.01681
G1 X128.416 Y58.402 E.30389
G1 X128.416 Y58.936 E.01678
G1 X121.044 Y51.564 E.32762
G1 X120.509 Y51.564 E.01681
G1 X128.416 Y59.471 E.35139
G1 X128.416 Y60.005 E.01678
G1 X119.975 Y51.564 E.37513
G1 X119.44 Y51.564 E.01681
G1 X128.416 Y60.54 E.3989
G1 X128.416 Y61.074 E.01678
G1 X118.906 Y51.564 E.42263
G1 X118.371 Y51.564 E.01681
G1 X128.416 Y61.609 E.44641
G1 X128.416 Y62.143 E.01678
G1 X117.837 Y51.564 E.47014
G1 X117.303 Y51.564 E.01678
G1 X122.168 Y56.429 E.2162
G1 X121.633 Y56.429 E.01681
G1 X116.768 Y51.564 E.2162
G1 X116.234 Y51.564 E.01678
G1 X121.099 Y56.429 E.2162
G1 X120.564 Y56.429 E.01681
G1 X115.699 Y51.564 E.2162
G1 X115.165 Y51.564 E.01678
G1 X120.03 Y56.429 E.2162
G1 X119.495 Y56.429 E.01681
G1 X114.63 Y51.564 E.2162
G1 X114.096 Y51.564 E.01678
G1 X118.961 Y56.429 E.2162
G1 X118.426 Y56.429 E.01681
G1 X113.561 Y51.564 E.2162
G1 X113.027 Y51.564 E.01678
G1 X117.892 Y56.429 E.2162
G1 X117.357 Y56.429 E.01681
G1 X112.492 Y51.564 E.2162
G1 X111.958 Y51.564 E.01678
G1 X116.823 Y56.429 E.2162
G1 X116.288 Y56.429 E.01681
G1 X111.423 Y51.564 E.2162
G1 X110.889 Y51.564 E.01678
G1 X115.754 Y56.429 E.2162
G1 X115.22 Y56.429 E.01678
G1 X110.354 Y51.564 E.21623
G1 X109.82 Y51.564 E.01678
G1 X114.685 Y56.429 E.2162
G1 X114.151 Y56.429 E.01678
G1 X109.286 Y51.564 E.2162
G1 X108.751 Y51.564 E.01681
G1 X113.616 Y56.429 E.2162
G1 X113.082 Y56.429 E.01678
G1 X108.217 Y51.564 E.2162
G1 X107.682 Y51.564 E.01681
G1 X112.547 Y56.429 E.2162
G1 X112.013 Y56.429 E.01678
G1 X107.148 Y51.564 E.2162
G1 X106.613 Y51.564 E.01681
G1 X111.478 Y56.429 E.2162
G1 X110.944 Y56.429 E.01678
G1 X106.079 Y51.564 E.2162
G1 X105.544 Y51.564 E.01681
G1 X110.409 Y56.429 E.2162
G1 X109.875 Y56.429 E.01678
G1 X105.01 Y51.564 E.2162
G1 X104.475 Y51.564 E.01681
G1 X109.34 Y56.429 E.2162
G1 X108.806 Y56.429 E.01678
G1 X103.941 Y51.564 E.2162
G1 X103.406 Y51.564 E.01681
G1 X108.272 Y56.429 E.21623
G1 X107.737 Y56.429 E.01681
G1 X102.872 Y51.564 E.2162
G1 X102.338 Y51.564 E.01678
G1 X107.203 Y56.429 E.2162
G1 X106.668 Y56.429 E.01681
G1 X101.803 Y51.564 E.2162
G1 X101.269 Y51.564 E.01678
G1 X106.134 Y56.429 E.2162
G1 X105.599 Y56.429 E.01681
G1 X100.734 Y51.564 E.2162
G1 X100.2 Y51.564 E.01678
G1 X105.065 Y56.429 E.2162
G1 X104.53 Y56.429 E.01681
G1 X99.665 Y51.564 E.2162
G1 X99.131 Y51.564 E.01678
G1 X103.996 Y56.429 E.2162
G1 X103.461 Y56.429 E.01681
G1 X98.596 Y51.564 E.2162
G1 X98.062 Y51.564 E.01678
G1 X102.927 Y56.429 E.2162
G1 X102.392 Y56.429 E.01681
G1 X97.527 Y51.564 E.2162
G1 X96.993 Y51.564 E.01678
G1 X101.858 Y56.429 E.2162
G1 X101.323 Y56.429 E.01681
G1 X96.458 Y51.564 E.2162
G1 X95.924 Y51.564 E.01678
G1 X100.789 Y56.429 E.2162
G1 X100.255 Y56.429 E.01678
G1 X95.39 Y51.564 E.2162
G1 X94.855 Y51.564 E.01681
G1 X99.72 Y56.429 E.2162
G1 X99.186 Y56.429 E.01678
G1 X94.321 Y51.564 E.2162
G1 X93.786 Y51.564 E.01681
G1 X98.651 Y56.429 E.2162
G1 X98.117 Y56.429 E.01678
G1 X93.252 Y51.564 E.2162
G1 X92.717 Y51.564 E.01681
G1 X97.582 Y56.429 E.2162
G1 X97.048 Y56.429 E.01678
G1 X92.183 Y51.564 E.2162
G1 X91.648 Y51.564 E.01681
G1 X96.513 Y56.429 E.2162
G1 X95.979 Y56.429 E.01678
G1 X91.114 Y51.564 E.2162
G1 X90.579 Y51.564 E.01681
G1 X95.444 Y56.429 E.2162
G1 X94.91 Y56.429 E.01678
G1 X90.045 Y51.564 E.2162
G1 X89.51 Y51.564 E.01681
G1 X94.375 Y56.429 E.2162
G1 X93.841 Y56.429 E.01678
G1 X88.976 Y51.564 E.2162
G1 X88.441 Y51.564 E.01681
G1 X93.307 Y56.429 E.21623
G1 X92.772 Y56.429 E.01681
G1 X87.907 Y51.564 E.2162
G1 X87.373 Y51.564 E.01678
G1 X92.238 Y56.429 E.2162
G1 X91.703 Y56.429 E.01681
G1 X86.838 Y51.564 E.2162
G1 X86.304 Y51.564 E.01678
G1 X91.169 Y56.429 E.2162
G1 X90.634 Y56.429 E.01681
G1 X85.769 Y51.564 E.2162
G1 X85.235 Y51.564 E.01678
G1 X90.1 Y56.429 E.2162
G1 X89.565 Y56.429 E.01681
G1 X84.7 Y51.564 E.2162
G1 X84.166 Y51.564 E.01678
G1 X89.031 Y56.429 E.2162
G1 X88.496 Y56.429 E.01681
G1 X83.631 Y51.564 E.2162
G1 X83.097 Y51.564 E.01678
G1 X87.962 Y56.429 E.2162
G1 X87.427 Y56.429 E.01681
G1 X82.562 Y51.564 E.2162
G1 X82.028 Y51.564 E.01678
G1 X86.893 Y56.429 E.2162
G1 X86.359 Y56.429 E.01678
G1 X81.493 Y51.564 E.21623
G1 X80.959 Y51.564 E.01678
G1 X85.824 Y56.429 E.2162
G1 X85.29 Y56.429 E.01678
G1 X80.425 Y51.564 E.2162
G1 X79.89 Y51.564 E.01681
G1 X84.755 Y56.429 E.2162
G1 X84.221 Y56.429 E.01678
G1 X79.356 Y51.564 E.2162
G1 X78.821 Y51.564 E.01681
M73 P2 R87
G1 X83.686 Y56.429 E.2162
G1 X83.152 Y56.429 E.01678
G1 X78.287 Y51.564 E.2162
G1 X77.752 Y51.564 E.01681
G1 X82.617 Y56.429 E.2162
G1 X82.083 Y56.429 E.01678
G1 X77.218 Y51.564 E.2162
G1 X76.683 Y51.564 E.01681
G1 X81.548 Y56.429 E.2162
G1 X81.014 Y56.429 E.01678
G1 X76.149 Y51.564 E.2162
G1 X75.614 Y51.564 E.01681
G1 X80.479 Y56.429 E.2162
G1 X79.945 Y56.429 E.01678
G1 X75.08 Y51.564 E.2162
G1 X74.545 Y51.564 E.01681
G1 X79.41 Y56.429 E.2162
G1 X78.876 Y56.429 E.01678
G1 X74.011 Y51.564 E.2162
G1 X73.476 Y51.564 E.01681
G1 X78.342 Y56.429 E.21623
G1 X77.807 Y56.429 E.01681
M73 P3 R87
G1 X72.942 Y51.564 E.2162
G1 X72.408 Y51.564 E.01678
G1 X77.273 Y56.429 E.2162
G1 X76.738 Y56.429 E.01681
G1 X71.873 Y51.564 E.2162
G1 X71.339 Y51.564 E.01678
G1 X76.204 Y56.429 E.2162
G1 X75.669 Y56.429 E.01681
G1 X70.804 Y51.564 E.2162
G1 X70.27 Y51.564 E.01678
G1 X75.135 Y56.429 E.2162
G1 X74.6 Y56.429 E.01681
G1 X69.735 Y51.564 E.2162
G1 X69.201 Y51.564 E.01678
G1 X74.066 Y56.429 E.2162
G1 X73.531 Y56.429 E.01681
G1 X68.666 Y51.564 E.2162
G1 X68.132 Y51.564 E.01678
G1 X72.997 Y56.429 E.2162
G1 X72.462 Y56.429 E.01681
G1 X67.597 Y51.564 E.2162
G1 X67.063 Y51.564 E.01678
G1 X71.928 Y56.429 E.2162
G1 X71.394 Y56.429 E.01678
G1 X66.528 Y51.564 E.21623
G1 X65.994 Y51.564 E.01678
G1 X70.859 Y56.429 E.2162
G1 X70.325 Y56.429 E.01678
G1 X65.46 Y51.564 E.2162
G1 X64.925 Y51.564 E.01681
G1 X69.79 Y56.429 E.2162
G1 X69.256 Y56.429 E.01678
G1 X64.391 Y51.564 E.2162
G1 X63.856 Y51.564 E.01681
G1 X68.721 Y56.429 E.2162
G1 X68.187 Y56.429 E.01678
G1 X63.322 Y51.564 E.2162
G1 X62.787 Y51.564 E.01681
G1 X67.652 Y56.429 E.2162
G1 X67.118 Y56.429 E.01678
G1 X62.253 Y51.564 E.2162
G1 X61.718 Y51.564 E.01681
G1 X66.583 Y56.429 E.2162
G1 X66.049 Y56.429 E.01678
G1 X61.184 Y51.564 E.2162
G1 X60.649 Y51.564 E.01681
G1 X65.514 Y56.429 E.2162
G1 X64.98 Y56.429 E.01678
G1 X60.115 Y51.564 E.2162
G1 X59.58 Y51.564 E.01681
G1 X64.445 Y56.429 E.2162
G1 X63.911 Y56.429 E.01678
G1 X59.046 Y51.564 E.2162
G1 X58.511 Y51.564 E.01681
G1 X63.377 Y56.429 E.21623
G1 X62.842 Y56.429 E.01681
G1 X57.977 Y51.564 E.2162
G1 X57.443 Y51.564 E.01678
G1 X62.308 Y56.429 E.2162
G1 X61.773 Y56.429 E.01681
G1 X56.908 Y51.564 E.2162
G1 X56.374 Y51.564 E.01678
G1 X61.239 Y56.429 E.2162
G1 X60.704 Y56.429 E.01681
G1 X55.839 Y51.564 E.2162
G1 X55.305 Y51.564 E.01678
G1 X60.17 Y56.429 E.2162
G1 X59.635 Y56.429 E.01681
G1 X54.77 Y51.564 E.2162
G1 X54.236 Y51.564 E.01678
G1 X59.101 Y56.429 E.2162
G1 X58.566 Y56.429 E.01681
G1 X53.701 Y51.564 E.2162
G1 X53.167 Y51.564 E.01678
G1 X58.032 Y56.429 E.2162
G1 X57.517 Y56.448 E.01619
G1 X52.632 Y51.564 E.21707
G1 X52.098 Y51.564 E.01678
G1 X57.115 Y56.581 E.22296
G1 X56.984 Y56.653 E.0047
G1 X56.804 Y56.804 E.00738
G1 X51.564 Y51.564 E.23287
G1 X51.564 Y52.098 E.01678
G1 X56.581 Y57.115 E.22296
G1 X56.533 Y57.201 E.00309
G1 X56.448 Y57.517 E.01028
G1 X51.564 Y52.632 E.21707
G1 X51.564 Y53.167 E.01681
G1 X56.429 Y58.032 E.2162
G1 X56.428 Y58.566 E.01678
G1 X51.564 Y53.701 E.21618
G1 X51.564 Y54.236 E.01681
G1 X56.428 Y59.101 E.21618
G1 X56.428 Y59.635 E.01678
G1 X51.564 Y54.77 E.21618
G1 X51.564 Y55.305 E.01681
G1 X56.428 Y60.169 E.21616
G1 X56.428 Y60.704 E.01681
G1 X51.564 Y55.839 E.21618
G1 X51.564 Y56.374 E.01681
G1 X56.428 Y61.238 E.21616
G1 X56.428 Y61.773 E.01681
G1 X51.564 Y56.908 E.21618
G1 X51.564 Y57.443 E.01681
G1 X56.428 Y62.307 E.21616
G1 X56.428 Y62.841 E.01678
G1 X51.564 Y57.977 E.21616
G1 X51.564 Y58.512 E.01681
G1 X56.428 Y63.376 E.21616
G1 X56.427 Y63.91 E.01678
G1 X51.564 Y59.046 E.21614
G1 X51.564 Y59.581 E.01681
G1 X56.427 Y64.444 E.21612
G1 X56.427 Y64.979 E.01681
G1 X51.564 Y60.115 E.21614
G1 X51.564 Y60.649 E.01678
G1 X56.427 Y65.513 E.21614
G1 X56.427 Y66.047 E.01678
G1 X51.564 Y61.184 E.21612
G1 X51.564 Y61.718 E.01678
G1 X56.427 Y66.582 E.21614
G1 X56.427 Y67.116 E.01678
G1 X51.564 Y62.253 E.21612
G1 X51.564 Y62.787 E.01678
G1 X56.427 Y67.651 E.21614
G1 X56.427 Y68.185 E.01678
G1 X51.564 Y63.322 E.21612
G1 X51.564 Y63.856 E.01678
G1 X56.427 Y68.719 E.21612
G1 X56.426 Y69.254 E.01681
G1 X51.564 Y64.391 E.21609
G1 X51.564 Y64.925 E.01678
G1 X56.426 Y69.788 E.21609
G1 X56.426 Y70.322 E.01678
G1 X51.564 Y65.46 E.21607
G1 X51.564 Y65.994 E.01678
G1 X56.426 Y70.857 E.21609
G1 X56.426 Y71.391 E.01678
G1 X51.564 Y66.529 E.21607
G1 X51.564 Y67.063 E.01678
G1 X56.426 Y71.925 E.21607
G1 X56.426 Y72.46 E.01681
G1 X51.564 Y67.597 E.21609
G1 X51.564 Y68.132 E.01681
G1 X56.426 Y72.994 E.21607
G1 X56.426 Y73.529 E.01681
G1 X51.564 Y68.666 E.21609
G1 X51.564 Y69.201 E.01681
G1 X56.426 Y74.063 E.21607
G1 X56.425 Y74.597 E.01678
G1 X51.564 Y69.735 E.21605
G1 X51.564 Y70.27 E.01681
G1 X56.425 Y75.132 E.21605
G1 X56.425 Y75.666 E.01678
G1 X51.564 Y70.804 E.21605
G1 X51.564 Y71.339 E.01681
G1 X56.425 Y76.2 E.21603
G1 X56.425 Y76.735 E.01681
G1 X51.564 Y71.873 E.21605
G1 X51.564 Y72.408 E.01681
G1 X56.425 Y77.269 E.21603
G1 X56.425 Y77.803 E.01678
G1 X51.564 Y72.942 E.21603
G1 X51.564 Y73.477 E.01681
G1 X56.425 Y78.338 E.21603
G1 X56.425 Y78.872 E.01678
G1 X51.564 Y74.011 E.21603
G1 X51.564 Y74.546 E.01681
G1 X56.425 Y79.407 E.21603
G1 X56.424 Y79.941 E.01678
G1 X51.564 Y75.08 E.216
G1 X51.564 Y75.614 E.01678
G1 X56.424 Y80.475 E.216
G1 X56.424 Y81.01 E.01681
G1 X51.564 Y76.149 E.216
G1 X51.564 Y76.683 E.01678
G1 X56.424 Y81.544 E.216
G1 X56.424 Y82.078 E.01678
G1 X51.564 Y77.218 E.21598
G1 X51.564 Y77.752 E.01678
G1 X56.424 Y82.613 E.216
G1 X56.424 Y83.147 E.01678
G1 X51.564 Y78.287 E.21598
G1 X51.564 Y78.821 E.01678
G1 X56.424 Y83.681 E.21598
G1 X56.424 Y84.216 E.01681
G1 X51.564 Y79.356 E.21598
G1 X51.564 Y79.89 E.01678
G1 X56.424 Y84.75 E.21598
G1 X56.423 Y85.285 E.01681
G1 X51.564 Y80.425 E.21596
G1 X51.564 Y80.959 E.01678
G1 X56.423 Y85.819 E.21596
G1 X56.423 Y86.353 E.01678
G1 X51.564 Y81.494 E.21594
G1 X51.564 Y82.028 E.01678
G1 X56.423 Y86.888 E.21596
G1 X56.423 Y87.422 E.01678
G1 X51.564 Y82.562 E.21596
