; generated by PrusaSlicer 2.7.4 on 2024-10-19 at 16:10:28 UTC


;
;

;
;
; 

; external perimeters extrusion width = 0.45mm
; perimeters extrusion width = 0.45mm
; infill extrusion width = 0.45mm
; solid infill extrusion width = 0.45mm
; top infill extrusion width = 0.40mm
; first layer extrusion width = 0.42mm

M73 P0 R2
M201 X2500 Y2500 Z400 E5000 ; sets maximum accelerations, mm/sec^2
M203 X180 Y180 Z12 E80 ; sets maximum feedrates, mm / sec
M204 P2000 R1250 T2500 ; sets acceleration (P, T) and retract acceleration (R), mm/sec^2
M205 X8.00 Y8.00 Z2.00 E10.00 ; sets the jerk limits, mm/sec
M205 S0 T0 ; sets the minimum extruding and travel feed rate, mm/sec

; printing object binary_yellow.stl id:0 copy 0
; stop printing object binary_yellow.stl id:0 copy 0

;TYPE:Custom
M862.3 P "MINI" ; printer model check
G90 ; use absolute coordinates
M83 ; extruder relative mode
M104 S170 ; set extruder temp for bed leveling
M140 S60 ; set bed temp
M109 R170 ; wait for bed leveling temp
M190 S60 ; wait for bed temp
M204 T1250 ; set travel acceleration
G28 ; home all without mesh bed level
G29 ; mesh bed leveling 
M204 T2500 ; restore travel acceleration
M104 S215 ; set extruder temp
G92 E0
G1 Y-2 X179 F2400
G1 Z3 F720
M73 P3 R2
M109 S215 ; wait for extruder temp

; intro line
G1 X170 F1000
G1 Z0.2 F720
G1 X110 E8 F900
G1 X40 E10 F700
M73 P6 R2
G92 E0

M221 S95 ; set flow
G21 ; set units to millimeters
G90 ; use absolute coordinates
M83 ; use relative distances for extrusion
M900 K0.2 ; Filament gcode LA 1.5
; ; Filament gcode LA 1.0
M107
;LAYER_CHANGE
;Z:0.2
;HEIGHT:0.2
G1 E-3.2 F4200
M73 P10 R2
G1 Z.4 F720
G1 X72.67 Y72.331 F9000
G1 Z.2 F720
M73 P11 R2
G1 E3.2 F2400
M204 P600
;TYPE:Skirt/Brim
;WIDTH:0.42
G1 F1200
G1 X73.264 Y71.856 E.02385
G1 X77.498 Y69.378 E.15382
G1 X78.88 Y69.006 E.04487
G1 X79.496 Y69.063 E.0194
G1 X88.256 Y70.883 E.28053
G1 X89.045 Y71.125 E.02588
G1 X111.44 Y80.5 E.76122
G1 X112.596 Y81.41 E.04613
M73 P12 R2
G1 X112.978 Y82.135 E.02569
G1 X113.383 Y83.783 E.05321
G1 X113.454 Y84.456 E.02122
G1 X113.252 Y85.491 E.03306
G1 X108.952 Y96.091 E.35866
G1 X107.115 Y100.345 E.14529
M73 P13 R2
G1 X106.66 Y101.152 E.02905
G1 X106.247 Y101.679 E.02099
G1 X101.649 Y106.274 E.20382
G1 X100.679 Y106.949 E.03705
G1 X99.527 Y107.413 E.03894
G1 X98.656 Y107.554 E.02767
G1 X97.724 Y107.554 E.02922
G1 X97.055 Y107.472 E.02113
G1 X96.184 Y107.189 E.02871
G1 X95.536 Y106.869 E.02266
G1 X94.636 Y106.231 E.03459
G1 X69.942 Y80.772 E1.11206
G1 X69.166 Y78.856 E.06481
M73 P15 R2
G1 X69.497 Y77.499 E.0438
G1 X71.557 Y73.687 E.13586
G1 X72.034 Y72.999 E.02625
G1 X72.629 Y72.374 E.02706
M204 P1000
G1 X72.629 Y72.374 F9000
G1 X72.901 Y72.635
M204 P600
G1 F1200
G1 X72.934 Y72.6 E.00151
G1 X73.723 Y72.004 E.031
G1 X77.687 Y69.704 E.14369
G1 X78.88 Y69.383 E.03874
G1 X79.42 Y69.433 E.017
G1 X88.18 Y71.253 E.28053
G1 X89.099 Y71.548 E.03026
M73 P16 R2
G1 X111.295 Y80.848 E.75456
G1 X112.603 Y82.208 E.05916
G1 X113.016 Y83.868 E.05363
G1 X113.077 Y84.404 E.01691
M73 P17 R2
G1 X112.903 Y85.35 E.03016
G1 X108.603 Y95.95 E.35866
G1 X106.776 Y100.179 E.14444
G1 X106.337 Y100.958 E.02804
G1 X105.981 Y101.413 E.01811
G1 X101.383 Y106.007 E.20379
G1 X100.749 Y106.477 E.02475
G1 X99.408 Y107.055 E.04579
G1 X98.656 Y107.177 E.02389
G1 X97.724 Y107.177 E.02922
G1 X97.147 Y107.106 E.01823
M73 P18 R2
G1 X96.351 Y106.851 E.02621
G1 X95.703 Y106.531 E.02266
G1 X94.871 Y105.936 E.03207
G1 X70.213 Y80.51 E1.11053
G1 X69.543 Y78.856 E.05595
M73 P19 R1
G1 X69.829 Y77.678 E.03801
G1 X71.889 Y73.866 E.13586
G1 X72.336 Y73.225 E.0245
G1 X72.86 Y72.678 E.02375
M204 P1000
G1 E-2.24 F4200
;WIPE_START
G1 F7200
G1 X72.901 Y72.635 E-.03293
G1 X72.934 Y72.6 E-.02666
G1 X73.723 Y72.004 E-.54796
G1 X74.273 Y71.685 E-.35245
;WIPE_END
G1 Z.4 F720
; printing object binary_yellow.stl id:0 copy 0
G1 X104.462 Y96.426 F9000
G1 Z.2 F720
G1 E3.2 F2400
M204 P600
;TYPE:Perimeter
;WIDTH:0.419999
G1 F1200
M73 P20 R1
G1 X104.238 Y96.897 E.01635
G1 X104.093 Y97.398 E.01635
G1 X104.093 Y97.928 E.01662
G1 X104.038 Y98.031 E.00366
G1 X104.013 Y98.405 E.01175
G1 X103.88 Y98.746 E.01148
G1 X103.535 Y99.383 E.02271
G1 X103.17 Y99.68 E.01475
G1 X102.669 Y99.96 E.018
G1 X102.231 Y100.132 E.01475
G1 X101.728 Y100.378 E.01756
G1 X101.295 Y100.659 E.01618
G1 X100.669 Y101.291 E.02789
G1 X100.414 Y101.658 E.01401
G1 X100.17 Y102.153 E.0173
G1 X100.098 Y102.385 E.00762
G1 X99.605 Y103.313 E.03295
G1 X99.318 Y103.598 E.01268
G1 X98.91 Y103.83 E.01472
G1 X98.405 Y104.013 E.01684
G1 X97.975 Y104.013 E.01348
G1 X97.882 Y103.962 E.00333
G1 X97.668 Y103.933 E.00677
G1 X97.205 Y103.701 E.01624
G1 X96.848 Y103.389 E.01487
G1 X96.5 Y102.909 E.01859
G1 X96.287 Y102.24 E.02201
G1 X96.287 Y101.98 E.00815
G1 X96.392 Y101.705 E.00923
G1 X96.447 Y101.462 E.00781
G1 X96.855 Y100.75 E.02573
G1 X97.054 Y100.546 E.00894
G1 X97.26 Y100.25 E.01131
G1 X97.46 Y99.871 E.01344
G1 X97.679 Y99.368 E.0172
G1 X97.8 Y98.702 E.02122
G1 X97.766 Y98.19 E.01609
;WIDTH:0.421417
G1 X97.687 Y97.692 E.01587
G1 X98.123 Y97.743 E.01382
;WIDTH:0.419999
G1 X98.683 Y97.8 E.01765
G1 X99.248 Y97.717 E.01791
G1 X99.775 Y97.517 E.01767
G1 X100.234 Y97.292 E.01603
G1 X100.637 Y97.013 E.01537
G1 X100.982 Y96.703 E.01454
G1 X101.434 Y96.486 E.01572
G1 X101.915 Y96.325 E.0159
G1 X102.11 Y96.287 E.00623
G1 X102.846 Y96.447 E.02362
G1 X104.402 Y96.427 E.04879
M204 P1000
G1 E-2.24 F4200
;WIPE_START
G1 F7200
G1 X104.462 Y96.426 E-.03325
G1 X104.238 Y96.897 E-.28903
G1 X104.093 Y97.398 E-.28903
M73 P21 R1
G1 X104.093 Y97.928 E-.29371
G1 X104.046 Y98.015 E-.05498
;WIPE_END
G1 Z.4 F720
G1 X106.05 Y95.029 F9000
G1 Z.2 F720
G1 E3.2 F2400
M204 P600
;TYPE:External perimeter
;WIDTH:0.594788
G1 F1200
G1 X106.14 Y94.863 E.00866
;WIDTH:0.54783
G1 X106.229 Y94.698 E.00787
;WIDTH:0.500872
G1 X106.296 Y94.536 E.00668
;WIDTH:0.461555
G1 X106.363 Y94.373 E.00613
;WIDTH:0.422238
G1 X106.429 Y94.211 E.00552
;WIDTH:0.38292
G1 X106.55 Y93.769 E.01296
M204 P1000
G1 X105.94 Y95.103 F9000
M204 P600
;WIDTH:0.594788
G1 F1200
G1 X106.05 Y95.029 E.00608
G1 X106.024 Y95.137 E.0051
;WIDTH:0.545211
G1 X105.999 Y95.245 E.00463
;WIDTH:0.495634
G1 X105.973 Y95.353 E.00418
;WIDTH:0.446056
G1 X105.876 Y95.602 E.00896
;WIDTH:0.432605
G1 X105.709 Y95.727 E.00676
;WIDTH:0.465858
G1 X105.331 Y96.047 E.01742
;WIDTH:0.49911
G1 X104.952 Y96.366 E.01879
G1 X104.817 Y96.581 E.00963
;WIDTH:0.459555
G1 X104.681 Y96.797 E.00884
;WIDTH:0.419999
G1 X104.47 Y97.398 E.01997
G1 X104.47 Y97.97 E.01793
G1 X104.398 Y98.143 E.00588
G1 X104.39 Y98.45 E.00963
G1 X104.271 Y98.801 E.01162
G1 X104.23 Y98.992 E.00613
G1 X104.048 Y99.253 E.00998
G1 X103.938 Y99.514 E.00888
G1 X103.535 Y99.914 E.0178
G1 X103.454 Y99.936 E.00263
G1 X103.295 Y100.075 E.00662
G1 X102.001 Y100.671 E.04467
G1 X101.562 Y100.925 E.0159
G1 X100.936 Y101.556 E.02787
G1 X100.868 Y101.701 E.00502
G1 X100.759 Y101.824 E.00515
G1 X100.709 Y101.954 E.00437
G1 X100.473 Y102.403 E.0159
G1 X100.396 Y102.631 E.00755
G1 X99.928 Y103.523 E.03158
G1 X99.534 Y103.914 E.0174
G1 X99.201 Y104.111 E.01213
G1 X98.512 Y104.39 E.02331
G1 X97.93 Y104.39 E.01825
G1 X97.61 Y104.31 E.01034
G1 X97.389 Y104.231 E.00736
G1 X96.931 Y103.998 E.01611
G1 X96.385 Y103.453 E.02419
G1 X96.189 Y103.121 E.01209
G1 X95.99 Y102.672 E.0154
G1 X95.99 Y102.518 E.00483
G1 X95.91 Y102.352 E.00578
G1 X95.91 Y101.93 E.01323
G1 X96.052 Y101.543 E.01293
G1 X96.07 Y101.308 E.00739
G1 X96.501 Y100.636 E.02503
G1 X96.544 Y100.529 E.00362
G1 X96.816 Y100.25 E.01222
G1 X96.87 Y100.119 E.00444
G1 X96.981 Y99.996 E.00519
G1 X97.334 Y99.217 E.02682
G1 X97.348 Y98.962 E.00801
G1 X97.424 Y98.726 E.00777
G1 X97.388 Y98.196 E.01666
;WIDTH:0.465823
G1 X97.35 Y97.907 E.01025
M73 P22 R1
;WIDTH:0.511646
G1 X97.312 Y97.618 E.01136
G1 X97.211 Y97.529 E.00525
;WIDTH:0.509519
G1 X97.028 Y97.049 E.01993
;WIDTH:0.503891
G1 X97.053 Y97.031 E.00118
;WIDTH:0.509519
G1 X97.53 Y97.219 E.01989
;WIDTH:0.511646
G1 X97.665 Y97.313 E.00641
G1 X97.961 Y97.346 E.01161
;WIDTH:0.465823
G1 X98.257 Y97.378 E.01047
;WIDTH:0.419999
G1 X98.766 Y97.424 E.01602
G1 X98.903 Y97.348 E.00491
G1 X99.14 Y97.35 E.00743
G1 X99.637 Y97.164 E.01664
G1 X100.103 Y96.938 E.01624
G1 X100.363 Y96.709 E.01086
G1 X100.451 Y96.685 E.00286
G1 X100.771 Y96.382 E.01382
G1 X100.95 Y96.306 E.0061
G1 X101.112 Y96.192 E.00621
G1 X101.702 Y95.99 E.01955
G1 X101.868 Y95.91 E.00578
G1 X102.29 Y95.91 E.01323
G1 X102.518 Y95.99 E.00758
G1 X102.841 Y96.07 E.01043
G1 X103.947 Y96.056 E.03468
;WIDTH:0.459555
G1 X104.293 Y96.047 E.01199
;WIDTH:0.49911
G1 X104.638 Y96.038 E.01309
G1 X104.854 Y95.897 E.00978
;WIDTH:0.462434
G1 X105.071 Y95.757 E.00901
;WIDTH:0.425757
G1 X105.611 Y95.328 E.02195
;WIDTH:0.452934
G1 X105.721 Y95.253 E.00454
;WIDTH:0.500219
G1 X105.83 Y95.178 E.00503
;WIDTH:0.547504
G1 X105.891 Y95.137 E.00308
M204 P1000
G1 E-2.24 F4200
;WIPE_START
G1 F7200
G1 X105.94 Y95.103 E-.03305
G1 X106.05 Y95.029 E-.07347
G1 X106.024 Y95.137 E-.06156
G1 X105.999 Y95.245 E-.06143
G1 X105.973 Y95.353 E-.06156
G1 X105.876 Y95.602 E-.14809
G1 X105.709 Y95.727 E-.1156
G1 X105.331 Y96.047 E-.27446
G1 X105.151 Y96.199 E-.13078
;WIPE_END
G1 Z.4 F720
G1 X96.852 Y96.837 F9000
G1 Z.2 F720
G1 E3.2 F2400
M204 P600
;WIDTH:0.415091
G1 F1200
G1 X96.837 Y96.852 E.00066
M204 P1000
G1 X96.837 Y96.852 F9000
G1 X96.702 Y96.707
M204 P600
;WIDTH:0.38292
G1 F1200
G1 X96.775 Y96.771 E.00274
M204 P1000
G1 E-2.24 F4200
;WIPE_START
G1 F7200
G1 X96.702 Y96.707 E-.0538
;WIPE_END
G1 E-.9062 F4200
G1 Z.4 F720
G1 X103.979 Y97.156 F9000
G1 Z.2 F720
G1 E3.2 F2400
M204 P600
;TYPE:Solid infill
;WIDTH:0.422359
G1 F1200
G1 X103.597 Y96.774 E.01704
G1 X103.065 Y96.778 E.01679
G1 X103.754 Y97.467 E.03074
M73 P23 R1
G1 X103.754 Y97.85 E.01208
G1 X103.707 Y97.958 E.00372
G1 X102.451 Y96.701 E.05606
G1 X102.336 Y96.689 E.00365
G1 X102.151 Y96.626 E.00617
G1 X102.053 Y96.626 E.00309
G1 X101.894 Y96.681 E.00531
G1 X103.632 Y98.419 E.07755
G1 X103.522 Y98.771 E.01164
G1 X103.489 Y98.813 E.00169
G1 X101.496 Y96.819 E.08895
G1 X101.151 Y97.011 E.01246
G1 X103.289 Y99.149 E.0954
G1 X103.126 Y99.311 E.00725
G1 X102.993 Y99.389 E.00486
G1 X100.869 Y97.265 E.09477
G1 X100.75 Y97.328 E.00425
G1 X100.558 Y97.491 E.00795
G1 X102.653 Y99.586 E.09348
G1 X102.286 Y99.756 E.01276
G1 X100.212 Y97.682 E.09254
G1 X99.852 Y97.859 E.01266
G1 X101.907 Y99.913 E.09167
G1 X101.546 Y100.089 E.01267
M73 P24 R1
G1 X99.464 Y98.007 E.0929
G1 X99.23 Y98.063 E.00759
G1 X99.083 Y98.065 E.00464
G1 X99.009 Y98.089 E.00245
G1 X101.216 Y100.296 E.09847
G1 X101.06 Y100.415 E.00619
G1 X100.93 Y100.546 E.00582
G1 X98.506 Y98.123 E.10813
G1 X98.092 Y98.081 E.01313
G1 X98.109 Y98.262 E.00574
G1 X100.662 Y100.815 E.11391
G1 X100.397 Y101.086 E.01196
G1 X98.132 Y98.822 E.10104
G1 X98.134 Y98.867 E.00142
G1 X98.064 Y99.083 E.00716
G1 X98.053 Y99.279 E.00619
G1 X100.179 Y101.405 E.09486
G1 X99.989 Y101.752 E.01248
G1 X97.93 Y99.692 E.09189
G1 X97.756 Y100.055 E.0127
G1 X99.815 Y102.114 E.09187
G1 X99.73 Y102.366 E.00839
M73 P25 R1
G1 X99.662 Y102.498 E.00468
G1 X97.567 Y100.403 E.09348
G1 X97.35 Y100.723 E.0122
G1 X99.482 Y102.854 E.09511
G1 X99.324 Y103.114 E.0096
G1 X99.264 Y103.173 E.00265
G1 X97.109 Y101.018 E.09615
G1 X97.008 Y101.142 E.00505
G1 X96.908 Y101.354 E.0074
G1 X98.966 Y103.412 E.09183
G1 X98.749 Y103.534 E.00785
G1 X98.597 Y103.579 E.005
G1 X96.746 Y101.728 E.08259
G1 X96.626 Y102.054 E.01096
G1 X96.626 Y102.145 E.00287
G1 X98.155 Y103.674 E.06822
G1 X98.049 Y103.674 E.00334
G1 X97.937 Y103.623 E.00388
G1 X97.764 Y103.599 E.00551
G1 X97.339 Y103.394 E.01489
G1 X96.576 Y102.632 E.03402
M204 P1000
G1 E-2.24 F4200
;WIPE_START
G1 F7200
G1 X97.339 Y103.394 E-.59758
G1 X97.764 Y103.599 E-.26149
G1 X97.937 Y103.623 E-.09679
G1 X97.944 Y103.626 E-.00414
;WIPE_END
G1 Z.4 F720
G1 X105.83 Y89.99 F9000
G1 Z.2 F720
M73 P26 R1
G1 E3.2 F2400
M204 P600
;TYPE:Perimeter
;WIDTH:0.561428
G1 F1200
G1 X106.094 Y89.808 E.01382
G1 X106.462 Y89.406 E.0235
G1 X106.462 Y89.632 E.00974
G1 X106.542 Y89.933 E.01343
G1 X106.462 Y90.52 E.02554
G1 X105.876 Y90.029 E.03296
M204 P1000
G1 X105.876 Y90.029 F9000
G1 X104.832 Y89.99
M204 P600
;TYPE:External perimeter
;WIDTH:0.419999
G1 F1200
G1 X105.358 Y89.786 E.01769
G1 X105.641 Y89.55 E.01155
G1 X105.709 Y89.537 E.00217
G1 X106.056 Y89.209 E.01497
G1 X106.109 Y89.082 E.00431
G1 X106.319 Y88.86 E.00958
;WIDTH:0.421442
G1 X106.59 Y88.368 E.01768
G1 X106.711 Y88.629 E.00905
;WIDTH:0.419999
G1 X106.83 Y88.918 E.0098
G1 X106.83 Y89.072 E.00483
G1 X106.91 Y89.238 E.00578
G1 X106.91 Y89.559 E.01006
G1 X106.99 Y89.86 E.00977
G1 X106.99 Y90.12 E.00815
G1 X106.928 Y90.268 E.00503
G1 X106.91 Y90.6 E.01042
G1 X106.853 Y90.738 E.00468
G1 X106.83 Y91 E.00825
G1 X106.561 Y91.628 E.02142
G1 X106.346 Y91.182 E.01552
G1 X106.013 Y90.724 E.01775
G1 X105.549 Y90.341 E.01886
G1 X105.272 Y90.154 E.01048
G1 X104.888 Y90.011 E.01285
M204 P1000
G1 E-2.24 F4200
;WIPE_START
G1 F7200
G1 X104.832 Y89.99 E-.03314
G1 X105.358 Y89.786 E-.31265
G1 X105.641 Y89.55 E-.2042
G1 X105.709 Y89.537 E-.03837
G1 X106.056 Y89.209 E-.26461
G1 X106.109 Y89.082 E-.07626
G1 X106.147 Y89.042 E-.03077
;WIPE_END
G1 Z.4 F720
G1 X106.59 Y88.09 F9000
G1 Z.2 F720
G1 E3.2 F2400
M204 P600
;WIDTH:0.38292
G1 F1200
G1 X106.568 Y88.296 E.00586
;WIDTH:0.421442
G1 X106.59 Y88.368 E.00237
M204 P1000
G1 E-2.24 F4200
;WIPE_START
G1 F7200
G1 X106.568 Y88.296 E-.04172
G1 X106.59 Y88.09 E-.11481
;WIPE_END
G1 E-.80347 F4200
G1 Z.4 F720
G1 X104.492 Y89.99 F9000
G1 Z.2 F720
M73 P27 R1
G1 E3.2 F2400
M204 P600
;WIDTH:0.38292
G1 F1200
G1 X104.832 Y89.99 E.00961
M204 P1000
G1 E-2.24 F4200
;WIPE_START
G1 F7200
G1 X104.492 Y89.99 E-.18842
;WIPE_END
G1 E-.77158 F4200
G1 Z.4 F720
G1 X106.548 Y91.989 F9000
G1 Z.2 F720
G1 E3.2 F2400
M204 P600
G1 F1200
G1 X106.577 Y91.792 E.00563
G1 X106.55 Y91.708 E.00249
M204 P1000
G1 E-2.24 F4200
;WIPE_START
G1 F7200
G1 X106.577 Y91.792 E-.0489
G1 X106.548 Y91.989 E-.11035
;WIPE_END
G1 E-.80075 F4200
G1 Z.4 F720
G1 X110.265 Y83.293 F9000
G1 Z.2 F720
G1 E3.2 F2400
M204 P600
;WIDTH:0.432715
G1 F1200
G1 X110.244 Y83.39 E.00322
;WIDTH:0.48251
G1 X110.223 Y83.486 E.00359
;WIDTH:0.532305
G1 X110.202 Y83.583 E.00404
;WIDTH:0.5821
G1 X110.181 Y83.679 E.00441
;WIDTH:0.631895
G1 X110.16 Y83.775 E.00481
;WIDTH:0.68169
G1 X110.139 Y83.872 E.00527
;WIDTH:0.706876
G1 X110.128 Y83.901 E.00171
M204 P1000
G1 E-2.24 F4200
;WIPE_START
G1 F7200
G1 X110.139 Y83.872 E-.01719
G1 X110.16 Y83.775 E-.055
G1 X110.181 Y83.679 E-.05446
G1 X110.202 Y83.583 E-.05446
G1 X110.223 Y83.486 E-.055
G1 X110.244 Y83.39 E-.05446
G1 X110.265 Y83.293 E-.055
;WIPE_END
G1 E-.61443 F4200
G1 Z.4 F720
G1 X88.564 Y83.975 F9000
G1 Z.2 F720
G1 E3.2 F2400
M204 P600
;TYPE:Perimeter
;WIDTH:0.419999
G1 F1200
M73 P28 R1
G1 X88.868 Y83.768 E.01153
G1 X89.204 Y83.318 E.01761
G1 X89.434 Y82.819 E.01723
G1 X89.567 Y82.265 E.01786
G1 X89.567 Y81.07 E.03747
G1 X89.524 Y80.783 E.0091
G1 X89.382 Y80.271 E.01666
G1 X89.133 Y79.749 E.01813
G1 X88.782 Y79.279 E.01839
G1 X88.453 Y78.906 E.01559
G1 X88.247 Y78.782 E.00754
G1 X88.033 Y78.574 E.00936
G1 X87.727 Y78.399 E.01105
G1 X87.259 Y78.166 E.01639
G1 X86.982 Y78.093 E.00898
G1 X86.559 Y77.938 E.01413
G1 X86.111 Y77.686 E.01612
G1 X85.661 Y77.236 E.01995
G1 X85.51 Y76.91 E.01126
G1 X85.327 Y76.411 E.01666
G1 X85.327 Y75.651 E.02383
G1 X85.402 Y75.435 E.00717
G1 X85.657 Y74.989 E.01611
G1 X85.945 Y74.701 E.01277
G1 X86.271 Y74.5 E.01201
G1 X86.756 Y74.34 E.01601
G1 X86.942 Y74.364 E.00588
G1 X87.451 Y74.367 E.01596
G1 X87.665 Y74.441 E.0071
G1 X88.051 Y74.643 E.01366
G1 X88.477 Y74.915 E.01585
G1 X88.521 Y75.01 E.00328
G1 X88.718 Y75.222 E.00907
G1 X88.87 Y75.55 E.01133
G1 X89.053 Y76.049 E.01666
G1 X89.057 Y76.653 E.01894
G1 X89.133 Y76.855 E.00677
G1 X89.133 Y77.062 E.00649
G1 X89.223 Y77.407 E.01118
G1 X89.404 Y77.896 E.01635
G1 X89.86 Y78.606 E.02646
G1 X90.276 Y79.018 E.01836
G1 X90.599 Y79.282 E.01308
G1 X91.023 Y79.568 E.01604
G1 X91.483 Y79.756 E.01558
G1 X91.955 Y79.887 E.01536
G1 X93.583 Y79.886 E.05104
G1 X93.815 Y79.807 E.00768
G1 X94.245 Y79.807 E.01348
G1 X94.989 Y80.1 E.02507
G1 X95.409 Y80.396 E.01611
G1 X95.7 Y80.804 E.01571
