; generated by PrusaSlicer 2.7.4 on 2024-10-19 at 16:47:31 UTC


;
;

;
;
; 

; external perimeters extrusion width = 0.45mm
; perimeters extrusion width = 0.45mm
; infill extrusion width = 0.45mm
; solid infill extrusion width = 0.45mm
; top infill extrusion width = 0.40mm
; first layer extrusion width = 0.42mm

M73 P0 R11
M201 X2500 Y2500 Z400 E5000 ; sets maximum accelerations, mm/sec^2
M203 X180 Y180 Z12 E80 ; sets maximum feedrates, mm / sec
M204 P2000 R1250 T2500 ; sets acceleration (P, T) and retract acceleration (R), mm/sec^2
M205 X8.00 Y8.00 Z2.00 E10.00 ; sets the jerk limits, mm/sec
M205 S0 T0 ; sets the minimum extruding and travel feed rate, mm/sec

; printing object binary_blue.stl id:0 copy 0
; stop printing object binary_blue.stl id:0 copy 0

;TYPE:Custom
M862.3 P "MINI" ; printer model check
G90 ; use absolute coordinates
M83 ; extruder relative mode
M104 S170 ; set extruder temp for bed leveling
M140 S60 ; set bed temp
M109 R170 ; wait for bed leveling temp
M190 S60 ; wait for bed temp
M204 T1250 ; set travel acceleration
G28 ; home all without mesh bed level
G29 ; mesh bed leveling 
M204 T2500 ; restore travel acceleration
M104 S215 ; set extruder temp
G92 E0
G1 Y-2 X179 F2400
G1 Z3 F720
M109 S215 ; wait for extruder temp

; intro line
G1 X170 F1000
G1 Z0.2 F720
G1 X110 E8 F900
G1 X40 E10 F700
M73 P1 R11
G92 E0

M221 S95 ; set flow
G21 ; set units to millimeters
G90 ; use absolute coordinates
M83 ; use relative distances for extrusion
M900 K0.2 ; Filament gcode LA 1.5
; ; Filament gcode LA 1.0
M107
;LAYER_CHANGE
;Z:0.2
;HEIGHT:0.2
G1 E-3.2 F4200
M73 P2 R11
G1 Z.4 F720
G1 X69.586 Y63.888 F9000
G1 Z.2 F720
G1 E3.2 F2400
M204 P600
;TYPE:Skirt/Brim
;WIDTH:0.42
G1 F1200
G1 X71.16 Y62.383 E.06828
G1 X91.33 Y49.084 E.75751
G1 X92.461 Y48.506 E.03982
G1 X93.363 Y48.19 E.02997
G1 X94.326 Y47.984 E.03088
G1 X128.931 Y45.267 E1.08835
G1 X130.355 Y45.259 E.04465
G1 X131.106 Y45.381 E.02386
G1 X132.412 Y45.929 E.04441
G1 X133.032 Y46.366 E.02378
G1 X133.668 Y46.988 E.02789
G1 X134.31 Y47.862 E.034
G1 X134.869 Y49.144 E.04385
G1 X134.991 Y49.896 E.02389
G1 X134.954 Y51.405 E.04733
G1 X124.48 Y110.386 E1.87824
G1 X124.228 Y111.104 E.02386
M73 P3 R11
G1 X120.689 Y117.625 E.23263
G1 X119.753 Y118.972 E.05143
G1 X118.929 Y119.778 E.03614
G1 X117.64 Y120.681 E.04935
G1 X110.977 Y124.363 E.23869
G1 X109.827 Y124.659 E.03723
G1 X99.082 Y123.79 E.338
G1 X70.761 Y121.073 E.89206
G1 X69.687 Y120.696 E.03569
G1 X54.443 Y110.722 E.57118
G1 X53.408 Y109.893 E.04158
G1 X52.775 Y109.248 E.02834
G1 X51.742 Y107.695 E.05848
G1 X51.529 Y107.227 E.01612
G1 X51.138 Y105.888 E.04374
G1 X51.031 Y104.321 E.04925
G1 X51.289 Y102.322 E.0632
G1 X51.494 Y101.637 E.02242
G1 X68.962 Y64.849 E1.27689
G1 X69.554 Y63.938 E.03407
M73 P4 R11
M204 P1000
G1 E-2.24 F4200
;WIPE_START
G1 F7200
G1 X69.586 Y63.888 E-.0329
G1 X70.795 Y62.732 E-.9271
;WIPE_END
G1 Z.4 F720
; printing object binary_blue.stl id:0 copy 0
G1 X124.302 Y52.742 F9000
G1 Z.2 F720
G1 E3.2 F2400
M204 P600
;TYPE:External perimeter
;WIDTH:0.608164
G1 F1200
G1 X124.302 Y52.577 E.00776
G1 X124.426 Y52.284 E.01495
;WIDTH:0.570405
G1 X124.551 Y51.991 E.01397
;WIDTH:0.532646
G1 X124.626 Y51.897 E.0049
;WIDTH:0.533092
G1 X124.694 Y51.705 E.0083
;WIDTH:0.536612
G1 X124.974 Y51.28 E.02089
G1 X125.211 Y51.002 E.015
;WIDTH:0.52572
G1 X125.273 Y50.83 E.00734
;WIDTH:0.530844
G1 X127.056 Y49.051 E.10219
G1 X127.264 Y48.976 E.00897
;WIDTH:0.567159
G1 X127.459 Y48.815 E.01102
;WIDTH:0.607846
G1 X127.653 Y48.655 E.01181
G1 X127.885 Y48.531 E.01236
;WIDTH:0.570221
G1 X128.116 Y48.407 E.0115
;WIDTH:0.532596
G1 X128.21 Y48.332 E.0049
;WIDTH:0.5574
G1 X128.678 Y48.145 E.02156
;WIDTH:0.5826
G1 X128.744 Y48.114 E.00327
;WIDTH:0.6078
G1 X128.81 Y48.083 E.00342
;WIDTH:0.608164
G1 X128.961 Y48.083 E.0071
G1 X129.239 Y47.94 E.01469
;WIDTH:0.607132
G1 X130.235 Y47.943 E.04673
;WIDTH:0.6078
G1 X130.526 Y48.083 E.01517
;WIDTH:0.608166
G1 X130.677 Y48.083 E.0071
G1 X131.226 Y48.369 E.02909
;WIDTH:0.608062
G1 X131.324 Y48.426 E.00533
;WIDTH:0.566227
G1 X131.422 Y48.483 E.00493
;WIDTH:0.52586
G1 X131.771 Y48.839 E.02002
;WIDTH:0.529458
G1 X131.851 Y49.049 E.00909
;WIDTH:0.568765
G1 X131.938 Y49.18 E.00688
;WIDTH:0.608072
G1 X132.167 Y49.588 E.02199
;WIDTH:0.647928
G1 X132.187 Y49.875 E.01447
G1 X132.29 Y50.009 E.0085
G1 X132.31 Y50.726 E.03608
;WIDTH:0.64434
G1 X132.262 Y50.913 E.00965
;WIDTH:0.647954
G1 X132.187 Y51.01 E.00617
G1 X132.167 Y51.312 E.01523
;WIDTH:0.608168
G1 X132.024 Y51.598 E.01503
;WIDTH:0.6077
G1 X131.971 Y51.748 E.00747
;WIDTH:0.570174
G1 X131.919 Y51.897 E.00692
;WIDTH:0.532648
G1 X131.776 Y52.181 E.01295
;WIDTH:0.531516
G1 X131.557 Y52.422 E.01323
G1 X131.486 Y52.618 E.00847
;WIDTH:0.567292
G1 X131.326 Y52.813 E.011
;WIDTH:0.608038
G1 X131.166 Y53.008 E.01185
G1 X131.11 Y53.104 E.00522
;WIDTH:0.567213
G1 X131.054 Y53.201 E.00488
;WIDTH:0.535832
G1 X129.425 Y54.829 E.09439
G1 X129.203 Y54.918 E.0098
;WIDTH:0.533046
G1 X128.836 Y55.27 E.02072
;WIDTH:0.531396
G1 X128.641 Y55.338 E.00839
G1 X128.4 Y55.557 E.01323
;WIDTH:0.53266
G1 X128.21 Y55.625 E.00822
G1 X128.116 Y55.7 E.0049
;WIDTH:0.570107
G1 X127.955 Y55.752 E.00742
;WIDTH:0.6077
G1 X127.794 Y55.805 E.00796
M204 P1000
G1 X127.794 Y55.805 F9000
G1 X127.388 Y55.948
M204 P600
;WIDTH:0.647898
G1 F1200
G1 X127.086 Y55.968 E.01523
G1 X126.952 Y56.071 E.0085
G1 X126.514 Y56.091 E.02206
;WIDTH:0.639758
G1 X126.323 Y56.038 E.00984
;WIDTH:0.646176
G1 X126.234 Y55.967 E.00571
G1 X125.935 Y55.948 E.01503
;WIDTH:0.6078
G1 X125.786 Y55.896 E.00741
;WIDTH:0.570197
G1 X125.636 Y55.843 E.00697
;WIDTH:0.532594
G1 X125.542 Y55.768 E.0049
;WIDTH:0.535666
G1 X125.346 Y55.698 E.00853
G1 X125.258 Y55.637 E.00439
;WIDTH:0.499186
G1 X125.17 Y55.575 E.00408
;WIDTH:0.462705
G1 X125.082 Y55.514 E.00374
;WIDTH:0.463672
G1 X124.862 Y55.269 E.01152
;WIDTH:0.50112
G1 X124.641 Y55.024 E.01257
G1 X124.374 Y54.593 E.01932
;WIDTH:0.498728
G1 X124.357 Y54.508 E.00329
;WIDTH:0.532678
G1 X124.34 Y54.422 E.00357
G1 X124.256 Y54.305 E.00587
;WIDTH:0.562193
G1 X124.208 Y54.096 E.00926
;WIDTH:0.6077
G1 X124.159 Y53.886 E.01013
M73 P4 R10
G1 X124.159 Y53.148 E.03466
M204 P1000
G1 E-2.24 F4200
;WIPE_START
G1 F7200
G1 X124.159 Y53.886 E-.40897
G1 X124.208 Y54.096 E-.1195
G1 X124.256 Y54.305 E-.11884
G1 X124.34 Y54.422 E-.07982
G1 X124.357 Y54.508 E-.04858
G1 X124.374 Y54.593 E-.04804
G1 X124.504 Y54.802 E-.13625
;WIPE_END
G1 Z.4 F720
G1 X76.813 Y73.721 F9000
G1 Z.2 F720
G1 E3.2 F2400
M204 P600
;TYPE:Perimeter
;WIDTH:0.419999
G1 F1200
G1 X76.033 Y72.873 E.03613
G1 X75.814 Y72.79 E.00734
G1 X75.633 Y72.626 E.00766
G1 X74.67 Y72.127 E.03401
G1 X74.391 Y72.053 E.00905
G1 X74.216 Y71.97 E.00607
G1 X73.962 Y71.91 E.00818
G1 X73.111 Y71.516 E.0294
G1 X72.904 Y71.328 E.00877
G1 X72.69 Y71.236 E.0073
G1 X72.135 Y70.685 E.02452
G1 X72.059 Y70.506 E.0061
G1 X71.843 Y70.248 E.01055
G1 X71.476 Y69.485 E.02655
G1 X71.436 Y69.289 E.00627
G1 X71.322 Y69.041 E.00856
G1 X71.293 Y68.713 E.01032
G1 X71.16 Y68.446 E.00935
G1 X71.16 Y67.934 E.01605
G1 X71.251 Y67.765 E.00602
G1 X71.303 Y67.527 E.00764
G1 X71.375 Y67.374 E.0053
G1 X71.446 Y67.098 E.00894
G1 X71.969 Y65.979 E.03873
G1 X72.842 Y65.107 E.03869
G1 X72.992 Y65.062 E.00491
G1 X73.254 Y64.833 E.01091
G1 X73.729 Y64.612 E.01643
G1 X73.894 Y64.577 E.00529
G1 X74.158 Y64.469 E.00894
G1 X74.343 Y64.431 E.00592
G1 X74.625 Y64.296 E.0098
G1 X75.851 Y64.296 E.03844
G1 X76.101 Y64.417 E.00871
G1 X76.423 Y64.439 E.01012
G1 X76.875 Y64.671 E.01593
G1 X77.521 Y64.966 E.02227
G1 X78.077 Y65.493 E.02402
G1 X78.531 Y65.974 E.02074
G1 X78.568 Y66.108 E.00436
G1 X78.809 Y66.39 E.01163
G1 X79.03 Y66.865 E.01643
G1 X79.07 Y67.061 E.00627
G1 X79.184 Y67.308 E.00853
G1 X79.205 Y67.579 E.00852
G1 X79.346 Y67.934 E.01198
G1 X79.346 Y68.701 E.02405
G1 X79.239 Y68.91 E.00736
G1 X79.203 Y69.109 E.00634
G1 X79.094 Y69.344 E.00812
G1 X79.06 Y69.702 E.01128
G1 X78.95 Y69.962 E.00885
G1 X78.802 Y70.124 E.00688
G1 X78.523 Y70.674 E.01934
G1 X78.349 Y70.865 E.0081
G1 X78.248 Y71.086 E.00762
G1 X77.746 Y71.605 E.02264
G1 X77.655 Y71.829 E.00758
G1 X77.491 Y72.009 E.00764
G1 X77.259 Y72.434 E.01518
G1 X77.017 Y72.942 E.01764
G1 X76.829 Y73.663 E.02336
M204 P1000
G1 X76.829 Y73.663 F9000
G1 X77.206 Y74.882
M204 P600
;TYPE:External perimeter
G1 F1200
G1 X76.786 Y74.418 E.01962
G1 X76.539 Y74.004 E.01512
G1 X75.815 Y73.181 E.03437
G1 X75.644 Y73.146 E.00547
G1 X75.383 Y72.908 E.01107
G1 X74.963 Y72.716 E.01448
G1 X74.794 Y72.614 E.00619
G1 X74.677 Y72.573 E.00389
G1 X74.495 Y72.461 E.0067
G1 X74.207 Y72.43 E.00908
G1 X74.046 Y72.307 E.00635
G1 X73.778 Y72.287 E.00843
G1 X73.65 Y72.185 E.00513
G1 X73.247 Y72.001 E.01389
G1 X73.078 Y71.899 E.00619
G1 X72.961 Y71.858 E.00389
G1 X72.666 Y71.621 E.01186
G1 X72.494 Y71.572 E.00561
G1 X71.782 Y70.865 E.03146
G1 X71.753 Y70.744 E.0039
G1 X71.521 Y70.455 E.01162
G1 X71.481 Y70.317 E.0045
G1 X71.381 Y70.183 E.00524
G1 X71.349 Y70.063 E.00389
G1 X71.238 Y69.897 E.00626
G1 X71.206 Y69.777 E.00389
G1 X71.069 Y69.579 E.00755
G1 X71.068 Y69.37 E.00655
G1 X70.926 Y69.15 E.00821
G1 X70.926 Y68.808 E.01072
G1 X70.783 Y68.578 E.00849
G1 X70.783 Y67.772 E.02527
G1 X70.909 Y67.606 E.00653
G1 X70.926 Y67.343 E.00826
G1 X71.045 Y67.19 E.00608
G1 X71.069 Y66.913 E.00872
G1 X71.171 Y66.786 E.00511
G1 X71.212 Y66.669 E.00389
G1 X71.457 Y66.214 E.0162
G1 X71.633 Y65.782 E.01463
G1 X72.607 Y64.809 E.04317
G1 X72.786 Y64.747 E.00594
G1 X73.045 Y64.514 E.01092
G1 X73.187 Y64.472 E.00464
G1 X73.316 Y64.374 E.00508
G1 X73.437 Y64.342 E.00392
G1 X73.635 Y64.205 E.00755
G1 X73.844 Y64.204 E.00655
G1 X74.063 Y64.062 E.00818
G1 X74.279 Y64.06 E.00677
G1 X74.492 Y63.919 E.00801
M73 P5 R10
G1 X76.014 Y63.919 E.04772
G1 X76.206 Y64.055 E.00738
G1 X76.586 Y64.062 E.01192
G1 X76.713 Y64.164 E.00511
G1 X76.831 Y64.205 E.00392
G1 X77.285 Y64.45 E.01618
G1 X77.403 Y64.491 E.00392
G1 X77.571 Y64.593 E.00616
G1 X77.721 Y64.634 E.00488
G1 X78.252 Y65.153 E.02328
G1 X78.431 Y65.206 E.00585
G1 X78.487 Y65.387 E.00594
G1 X78.836 Y65.748 E.01574
G1 X78.892 Y65.915 E.00552
G1 X79.128 Y66.181 E.01115
G1 X79.17 Y66.323 E.00464
G1 X79.268 Y66.453 E.0051
G1 X79.3 Y66.573 E.00389
G1 X79.437 Y66.771 E.00755
G1 X79.439 Y66.98 E.00655
G1 X79.58 Y67.199 E.00817
G1 X79.581 Y67.544 E.01082
G1 X79.723 Y67.772 E.00842
G1 X79.723 Y67.934 E.00508
G1 X79.723 Y68.864 E.02916
G1 X79.592 Y69.043 E.00695
G1 X79.58 Y69.293 E.00785
G1 X79.46 Y69.449 E.00617
G1 X79.437 Y69.865 E.01306
G1 X79.335 Y69.992 E.00511
G1 X79.294 Y70.11 E.00392
G1 X79.081 Y70.378 E.01073
G1 X78.906 Y70.707 E.01168
G1 X78.865 Y70.825 E.00392
G1 X78.628 Y71.119 E.01184
G1 X78.551 Y71.315 E.0066
G1 X78.052 Y71.827 E.02242
G1 X78.007 Y72.002 E.00567
G1 X77.77 Y72.263 E.01105
G1 X77.578 Y72.684 E.01451
G1 X77.477 Y72.853 E.00617
G1 X77.436 Y72.971 E.00392
G1 X77.329 Y73.153 E.00662
G1 X77.307 Y73.473 E.01006
G1 X77.223 Y73.596 E.00467
G1 X77.194 Y73.741 E.00464
G1 X77.304 Y74.257 E.01654
G1 X77.233 Y74.374 E.00429
G1 X77.209 Y74.822 E.01407
M204 P1000
G1 E-2.24 F4200
;WIPE_START
G1 F7200
G1 X77.206 Y74.882 E-.03329
G1 X76.786 Y74.418 E-.34683
G1 X76.539 Y74.004 E-.26715
G1 X76.167 Y73.58 E-.31273
;WIPE_END
G1 Z.4 F720
G1 X76.177 Y64.594 F9000
G1 Z.2 F720
G1 E3.2 F2400
M204 P600
;TYPE:Solid infill
;WIDTH:0.422037
G1 F1200
G1 X78.753 Y67.17 E.11484
G1 X78.764 Y67.237 E.00214
G1 X78.864 Y67.43 E.00685
G1 X78.867 Y67.612 E.00574
G1 X78.903 Y67.796 E.00591
G1 X78.968 Y67.922 E.00447
G1 X75.682 Y64.636 E.14649
G1 X75.146 Y64.636 E.0169
G1 X79.007 Y68.496 E.17211
G1 X79.007 Y68.637 E.00444
G1 X78.919 Y68.792 E.00562
G1 X78.895 Y68.92 E.00411
G1 X74.645 Y64.671 E.18945
G1 X74.505 Y64.744 E.00498
G1 X74.307 Y64.772 E.0063
G1 X74.244 Y64.805 E.00224
G1 X78.751 Y69.313 E.20095
G1 X78.723 Y69.465 E.00487
G1 X78.721 Y69.629 E.00517
G1 X78.653 Y69.751 E.0044
G1 X73.842 Y64.94 E.21448
G1 X73.644 Y65.026 E.00681
G1 X73.488 Y65.123 E.00579
G1 X78.425 Y70.059 E.22008
G1 X78.328 Y70.286 E.00778
G1 X78.246 Y70.417 E.00487
G1 X73.178 Y65.348 E.22596
G1 X73.032 Y65.396 E.00484
G1 X72.861 Y65.568 E.00765
G1 X78.026 Y70.733 E.23026
G1 X77.991 Y70.774 E.0017
G1 X77.956 Y70.899 E.00409
G1 X77.808 Y71.051 E.00669
G1 X72.593 Y65.836 E.23249
G1 X72.325 Y66.104 E.01195
G1 X77.544 Y71.323 E.23267
G1 X77.381 Y71.55 E.00881
G1 X77.349 Y71.664 E.00373
G1 X72.139 Y66.454 E.23227
G1 X71.96 Y66.811 E.01259
G1 X77.116 Y71.967 E.22986
G1 X77.042 Y72.145 E.00608
G1 X76.939 Y72.326 E.00656
G1 X71.779 Y67.166 E.23004
G1 X71.755 Y67.334 E.00535
G1 X71.648 Y67.572 E.00823
G1 X76.767 Y72.69 E.22819
G1 X76.719 Y72.781 E.00324
G1 X76.65 Y73.038 E.00839
G1 X76.381 Y72.731 E.01287
G1 X76.231 Y72.595 E.00638
G1 X76.032 Y72.492 E.00706
G1 X71.513 Y67.973 E.20146
G1 X71.5 Y67.999 E.00092
M73 P6 R10
G1 X71.5 Y68.351 E.0111
G1 X71.6 Y68.543 E.00682
G1 X71.613 Y68.609 E.00212
G1 X74.84 Y71.836 E.14386
G1 X74.594 Y71.736 E.00837
G1 X74.446 Y71.719 E.0047
G1 X74.21 Y71.603 E.00829
G1 X74.049 Y71.581 E.00512
G1 X71.774 Y69.306 E.10142
G1 X71.89 Y69.57 E.00909
G1 X71.984 Y69.719 E.00555
G1 X72.034 Y69.857 E.00463
G1 X72.137 Y70.023 E.00616
G1 X72.15 Y70.083 E.00194
G1 X72.326 Y70.29 E.00857
G1 X72.41 Y70.478 E.00649
G1 X73.378 Y71.446 E.04315
M204 P1000
G1 E-2.24 F4200
;WIPE_START
G1 F7200
G1 X72.41 Y70.478 E-.75863
G1 X72.326 Y70.29 E-.11411
G1 X72.224 Y70.17 E-.08726
;WIPE_END
G1 Z.4 F720
G1 X100.828 Y53.84 F9000
G1 Z.2 F720
G1 E3.2 F2400
M204 P600
;TYPE:Perimeter
;WIDTH:0.419999
G1 F1200
G1 X100.361 Y54.158 E.01771
G1 X99.683 Y54.809 E.02947
G1 X99.556 Y54.99 E.00693
G1 X99.237 Y55.701 E.02443
G1 X98.974 Y56.18 E.01713
G1 X98.937 Y56.546 E.01153
G1 X98.813 Y56.806 E.00903
G1 X98.794 Y57.404 E.01876
G1 X98.681 Y57.629 E.00789
G1 X98.651 Y57.818 E.006
G1 X98.681 Y58.948 E.03544
G1 X98.804 Y59.176 E.00812
G1 X98.932 Y59.53 E.0118
G1 X98.766 Y59.416 E.00631
G1 X98.302 Y59.352 E.01469
G1 X98.051 Y59.225 E.00882
G1 X97.842 Y59.185 E.00667
G1 X95.594 Y59.194 E.07048
G1 X95.329 Y59.326 E.00928
G1 X94.818 Y59.326 E.01602
G1 X94.585 Y59.211 E.00815
G1 X94.246 Y59.183 E.01067
G1 X94.105 Y59.107 E.00502
G1 X93.839 Y59.04 E.0086
G1 X93.477 Y58.878 E.01243
G1 X93.005 Y58.656 E.01635
G1 X92.537 Y58.2 E.02049
G1 X92.276 Y58.057 E.00933
G1 X92.203 Y57.89 E.00571
G1 X91.856 Y57.512 E.01609
G1 X91.821 Y57.381 E.00425
G1 X91.575 Y57.09 E.01195
G1 X91.496 Y56.9 E.00645
G1 X91.461 Y56.733 E.00535
G1 X91.353 Y56.472 E.00886
G1 X91.314 Y56.281 E.00611
G1 X91.18 Y56.004 E.00965
G1 X91.18 Y55.502 E.01574
G1 X91.089 Y55.233 E.0089
G1 X91.178 Y54.997 E.00791
G1 X91.18 Y54.492 E.01583
G1 X91.293 Y54.268 E.00787
G1 X91.323 Y54.085 E.00581
G1 X91.406 Y53.909 E.0061
G1 X91.485 Y53.58 E.01061
G1 X91.575 Y53.377 E.00696
G1 X91.775 Y53.154 E.00939
G1 X91.854 Y52.959 E.0066
G1 X92.139 Y52.665 E.01284
G1 X92.279 Y52.409 E.00915
G1 X92.537 Y52.267 E.00923
G1 X93.005 Y51.81 E.02051
G1 X93.749 Y51.456 E.02583
G1 X93.945 Y51.416 E.00627
G1 X94.192 Y51.302 E.00853
G1 X94.493 Y51.277 E.00947
G1 X94.764 Y51.159 E.00927
G1 X95.156 Y51.14 E.01231
G1 X95.382 Y51.253 E.00792
G1 X95.728 Y51.283 E.01089
G1 X95.932 Y51.388 E.00719
G1 X96.3 Y51.426 E.0116
G1 X96.843 Y51.677 E.01876
G1 X97.034 Y51.851 E.0081
G1 X97.259 Y51.956 E.00779
G1 X97.597 Y52.282 E.01472
G1 X97.832 Y52.386 E.00806
G1 X98.225 Y52.771 E.01725
G1 X98.464 Y52.952 E.0094
G1 X98.928 Y53.161 E.01596
G1 X99.826 Y53.616 E.03156
G1 X100.404 Y53.804 E.01906
G1 X100.768 Y53.835 E.01145
M204 P1000
G1 X101.882 Y53.616 F9000
M204 P600
;TYPE:External perimeter
G1 F1200
G1 X101.603 Y53.837 E.01116
G1 X101.283 Y53.992 E.01115
G1 X100.597 Y54.455 E.02595
G1 X99.928 Y55.098 E.02909
G1 X99.886 Y55.279 E.00583
G1 X99.784 Y55.406 E.00511
G1 X99.743 Y55.524 E.00392
G1 X99.498 Y55.978 E.01618
G1 X99.457 Y56.096 E.00392
G1 X99.342 Y56.284 E.00691
G1 X99.314 Y56.709 E.01335
G1 X99.212 Y56.836 E.00511
G1 X99.171 Y56.952 E.00386
G1 X99.171 Y57.567 E.01928
G1 X99.069 Y57.694 E.00511
G1 X99.028 Y57.814 E.00398
G1 X99.045 Y58.85 E.03249
G1 X99.219 Y59.076 E.00894
G1 X99.371 Y59.658 E.01886
G1 X99.514 Y59.843 E.00733
G1 X99.528 Y60.203 E.0113
G1 X99.304 Y60.189 E.00704
