; generated by PrusaSlicer 2.7.4 on 2024-10-19 at 16:48:18 UTC


;
;

;
;
; 

; external perimeters extrusion width = 0.45mm
; perimeters extrusion width = 0.45mm
; infill extrusion width = 0.45mm
; solid infill extrusion width = 0.45mm
; top infill extrusion width = 0.40mm
; first layer extrusion width = 0.42mm

M73 P0 R12
M201 X2500 Y2500 Z400 E5000 ; sets maximum accelerations, mm/sec^2
M203 X180 Y180 Z12 E80 ; sets maximum feedrates, mm / sec
M204 P2000 R1250 T2500 ; sets acceleration (P, T) and retract acceleration (R), mm/sec^2
M205 X8.00 Y8.00 Z2.00 E10.00 ; sets the jerk limits, mm/sec
M205 S0 T0 ; sets the minimum extruding and travel feed rate, mm/sec

; printing object binary_yellow.stl id:0 copy 0
; stop printing object binary_yellow.stl id:0 copy 0

;TYPE:Custom
M862.3 P "MINI" ; printer model check
G90 ; use absolute coordinates
M83 ; extruder relative mode
M104 S170 ; set extruder temp for bed leveling
M140 S60 ; set bed temp
M109 R170 ; wait for bed leveling temp
M190 S60 ; wait for bed temp
M204 T1250 ; set travel acceleration
G28 ; home all without mesh bed level
G29 ; mesh bed leveling 
M204 T2500 ; restore travel acceleration
M104 S215 ; set extruder temp
G92 E0
G1 Y-2 X179 F2400
G1 Z3 F720
M73 P0 R11
M109 S215 ; wait for extruder temp

; intro line
G1 X170 F1000
G1 Z0.2 F720
G1 X110 E8 F900
G1 X40 E10 F700
M73 P1 R11
G92 E0

M221 S95 ; set flow
G21 ; set units to millimeters
G90 ; use absolute coordinates
M83 ; use relative distances for extrusion
M900 K0.2 ; Filament gcode LA 1.5
; ; Filament gcode LA 1.0
M107
;LAYER_CHANGE
;Z:0.2
;HEIGHT:0.2
G1 E-3.2 F4200
M73 P2 R11
G1 Z.4 F720
G1 X60.167 Y60.859 F9000
G1 Z.2 F720
G1 E3.2 F2400
M204 P600
;TYPE:Skirt/Brim
;WIDTH:0.42
G1 F1200
G1 X61.039 Y60.035 E.03762
G1 X61.844 Y59.451 E.03118
G1 X68.93 Y55.34 E.25686
G1 X70.123 Y55.019 E.03874
G1 X70.707 Y55.069 E.01838
G1 X86.365 Y58.322 E.50143
G1 X87.493 Y58.678 E.03709
G1 X127.341 Y75.367 E1.35456
G1 X128.648 Y76.726 E.05912
G1 X129.317 Y79.463 E.08834
G1 X129.378 Y80.09 E.01975
G1 X129.204 Y80.984 E.02856
G1 X121.518 Y99.931 E.64109
G1 X118.162 Y107.666 E.26437
G1 X117.242 Y109.077 E.05281
M73 P3 R11
G1 X109.028 Y117.283 E.36405
G1 X108.198 Y117.88 E.03206
G1 X107.383 Y118.3 E.02875
G1 X106.224 Y118.71 E.03855
G1 X105.473 Y118.832 E.02386
G1 X103.807 Y118.832 E.05224
G1 X103.23 Y118.761 E.01823
G1 X102.182 Y118.443 E.03434
G1 X101.024 Y117.871 E.0405
G1 X99.876 Y117.024 E.04473
G1 X55.975 Y71.734 E1.97768
G1 X55.305 Y70.08 E.05595
G1 X55.591 Y68.864 E.03917
G1 X59.273 Y62.05 E.24284
G1 X60.131 Y60.907 E.04481
M204 P1000
G1 E-2.24 F4200
;WIPE_START
G1 F7200
G1 X60.167 Y60.859 E-.03325
G1 X61.039 Y60.035 E-.66485
G1 X61.422 Y59.758 E-.2619
;WIPE_END
G1 Z.4 F720
; printing object binary_yellow.stl id:0 copy 0
G1 X117.102 Y100.596 F9000
G1 Z.2 F720
G1 E3.2 F2400
M204 P600
;TYPE:Perimeter
;WIDTH:0.61952
G1 F1200
G1 X117.035 Y100.723 E.00688
;WIDTH:0.56964
G1 X116.969 Y100.849 E.00623
;WIDTH:0.51976
G1 X116.902 Y100.976 E.00569
;WIDTH:0.46988
G1 X116.835 Y101.102 E.00507
;WIDTH:0.419999
G1 X116.673 Y101.324 E.00862
G1 X116.549 Y101.575 E.00878
G1 X116.387 Y101.753 E.00755
G1 X116.187 Y102.121 E.01313
G1 X116.097 Y102.428 E.01003
G1 X116.025 Y102.582 E.00533
G1 X115.954 Y102.857 E.00891
G1 X115.876 Y103.022 E.00572
G1 X115.811 Y103.286 E.00852
G1 X115.811 Y104.308 E.03204
G1 X115.675 Y104.623 E.01076
G1 X115.668 Y105.166 E.01703
G1 X115.555 Y105.39 E.00787
G1 X115.525 Y105.574 E.00585
G1 X115.442 Y105.749 E.00607
G1 X115.363 Y106.078 E.01061
G1 X115.273 Y106.281 E.00696
G1 X115.06 Y106.522 E.01008
G1 X114.859 Y106.984 E.0158
G1 X114.135 Y107.703 E.03199
G1 X113.993 Y107.743 E.00463
G1 X113.717 Y107.981 E.01143
G1 X113.311 Y108.158 E.01389
G1 X112.384 Y108.631 E.03263
G1 X112.161 Y108.677 E.00714
G1 X111.215 Y109.132 E.03291
G1 X110.872 Y109.397 E.01359
G1 X110.761 Y109.419 E.00355
G1 X110.577 Y109.543 E.00696
G1 X109.494 Y110.641 E.04836
G1 X109.401 Y110.868 E.00769
G1 X109.219 Y111.069 E.0085
G1 X108.748 Y111.994 E.03255
G1 X108.642 Y112.37 E.01225
G1 X108.532 Y112.615 E.00842
G1 X108.283 Y113.061 E.01602
G1 X107.978 Y113.72 E.02277
G1 X107.833 Y113.881 E.00679
G1 X107.698 Y114.145 E.0093
G1 X106.984 Y114.854 E.03155
G1 X106.839 Y114.896 E.00473
G1 X106.567 Y115.131 E.01127
G1 X106.092 Y115.352 E.01643
G1 X105.927 Y115.387 E.00529
G1 X105.662 Y115.496 E.00898
G1 X105.483 Y115.532 E.00572
G1 X105.198 Y115.668 E.0099
G1 X104.113 Y115.668 E.03402
G1 X103.875 Y115.551 E.00832
G1 X103.541 Y115.525 E.0105
G1 X102.443 Y114.998 E.03819
G1 X101.887 Y114.471 E.02402
G1 X101.434 Y113.99 E.02072
G1 X101.397 Y113.856 E.00436
G1 X101.155 Y113.574 E.01165
G1 X100.934 Y113.099 E.01643
G1 X100.894 Y112.903 E.00627
G1 X100.78 Y112.657 E.0085
G1 X100.754 Y112.348 E.00972
G1 X100.618 Y112.06 E.00999
G1 X100.618 Y111.263 E.02499
G1 X100.725 Y111.054 E.00736
G1 X100.761 Y110.856 E.00631
G1 X100.87 Y110.62 E.00815
M73 P4 R11
G1 X100.904 Y110.262 E.01128
G1 X101.015 Y110.003 E.00884
G1 X101.186 Y109.814 E.00799
G1 X101.441 Y109.29 E.01827
G1 X101.615 Y109.099 E.0081
G1 X101.713 Y108.882 E.00747
G1 X102.22 Y108.356 E.02291
G1 X102.309 Y108.135 E.00747
G1 X102.473 Y107.955 E.00764
G1 X102.75 Y107.389 E.01976
G1 X103.008 Y106.92 E.01678
G1 X103.181 Y106.389 E.01751
G1 X103.192 Y105.972 E.01308
G1 X103.292 Y105.782 E.00673
G1 X103.335 Y105.564 E.00697
G1 X103.317 Y103.73 E.05751
G1 X103.202 Y103.499 E.00809
;WIDTH:0.425274
G1 X103.118 Y103.118 E.0124
G1 X103.512 Y103.162 E.0126
;WIDTH:0.419999
G1 X103.805 Y103.299 E.01014
G1 X104 Y103.334 E.00621
G1 X105.561 Y103.335 E.04894
G1 X105.66 Y103.327 E.00311
G1 X105.918 Y103.211 E.00887
G1 X106.367 Y103.185 E.0141
G1 X106.619 Y103.079 E.00857
G1 X106.793 Y103.043 E.00557
G1 X107.01 Y102.962 E.00726
G1 X108.217 Y102.36 E.04229
G1 X108.581 Y102.012 E.01579
G1 X108.724 Y101.974 E.00464
G1 X108.835 Y101.891 E.00435
G1 X109.306 Y101.432 E.02062
G1 X109.646 Y101.292 E.01153
G1 X109.944 Y101.068 E.01169
G1 X110.11 Y101.036 E.0053
G1 X110.337 Y100.934 E.0078
G1 X110.519 Y100.897 E.00582
G1 X110.766 Y100.791 E.00843
G1 X110.971 Y100.749 E.00656
G1 X111.233 Y100.618 E.00918
G1 X112.03 Y100.618 E.02499
G1 X112.239 Y100.725 E.00736
G1 X112.602 Y100.761 E.01144
G1 X112.744 Y100.838 E.00506
G1 X113.004 Y100.904 E.00841
G1 X115.937 Y100.899 E.09196
G1 X116.2 Y100.791 E.00891
G1 X116.617 Y100.657 E.01373
;WIDTH:0.46988
G1 X116.739 Y100.642 E.00436
;WIDTH:0.51976
G1 X116.86 Y100.626 E.00484
;WIDTH:0.56964
G1 X116.981 Y100.611 E.00534
;WIDTH:0.61952
G1 X117.042 Y100.604 E.00294
M204 P1000
G1 E-2.24 F4200
;WIPE_START
G1 F7200
G1 X117.102 Y100.596 E-.03354
G1 X117.035 Y100.723 E-.07957
G1 X116.969 Y100.849 E-.07882
G1 X116.902 Y100.976 E-.07957
G1 X116.835 Y101.102 E-.07908
G1 X116.673 Y101.324 E-.1523
G1 X116.549 Y101.575 E-.15514
G1 X116.387 Y101.753 E-.13338
G1 X116.242 Y102.02 E-.1686
;WIPE_END
G1 Z.4 F720
G1 X119.367 Y97.524 F9000
G1 Z.2 F720
G1 E3.2 F2400
M204 P600
;TYPE:External perimeter
;WIDTH:0.467996
G1 F1200
G1 X119.423 Y97.368 E.00586
;WIDTH:0.464626
G1 X119.511 Y97.2 E.00665
G1 X119.511 Y97.024 E.00617
;WIDTH:0.464372
G1 X119.547 Y96.898 E.00459
;WIDTH:0.423646
G1 X119.583 Y96.771 E.00418
;WIDTH:0.38292
G1 X119.583 Y96.57 E.00568
G1 X119.654 Y96.342 E.00675
G1 X119.654 Y96.178 E.00464
M204 P1000
G1 E-2.24 F4200
;WIPE_START
G1 F7200
G1 X119.654 Y96.342 E-.09088
G1 X119.583 Y96.57 E-.13233
G1 X119.583 Y96.771 E-.11139
G1 X119.547 Y96.898 E-.07315
G1 X119.511 Y97.024 E-.07262
G1 X119.511 Y97.2 E-.09753
G1 X119.423 Y97.368 E-.1051
G1 X119.367 Y97.524 E-.09185
;WIPE_END
G1 E-.18515 F4200
G1 Z.4 F720
G1 X119.388 Y97.716 F9000
G1 Z.2 F720
G1 E3.2 F2400
M204 P600
;WIDTH:0.426669
G1 F1200
G1 X119.408 Y97.909 E.00619
;WIDTH:0.385341
G1 X119.311 Y98.105 E.00623
;WIDTH:0.402263
G1 X119.26 Y98.273 E.00525
;WIDTH:0.436954
G1 X119.209 Y98.441 E.00575
;WIDTH:0.450671
G1 X118.987 Y98.906 E.01747
;WIDTH:0.464186
G1 X118.635 Y99.417 E.02174
;WIDTH:0.505109
G1 X118.346 Y99.85 E.02001
G1 X118.31 Y99.996 E.00578
;WIDTH:0.469394
G1 X118.093 Y100.276 E.01256
;WIDTH:0.419999
G1 X117.222 Y101.156 E.03882
G1 X117.189 Y101.317 E.00515
G1 X116.952 Y101.578 E.01105
G1 X116.903 Y101.746 E.00549
G1 X116.666 Y102.007 E.01105
G1 X116.617 Y102.134 E.00427
G1 X116.508 Y102.32 E.00676
G1 X116.474 Y102.612 E.00922
G1 X116.355 Y102.765 E.00608
G1 X116.331 Y103.041 E.00869
G1 X116.229 Y103.168 E.00511
G1 X116.188 Y103.286 E.00392
G1 X116.188 Y104.471 E.03715
G1 X116.086 Y104.598 E.00511
G1 X116.045 Y104.716 E.00392
G1 X116.045 Y105.329 E.01922
G1 X115.912 Y105.512 E.00709
G1 X115.902 Y105.758 E.00772
G1 X115.779 Y105.918 E.00633
G1 X115.759 Y106.187 E.00846
G1 X115.657 Y106.314 E.00511
G1 X115.616 Y106.432 E.00392
G1 X115.384 Y106.72 E.0116
G1 X115.195 Y107.181 E.01562
G1 X114.366 Y108.005 E.03665
G1 X114.19 Y108.065 E.00583
G1 X113.926 Y108.3 E.01108
G1 X113.785 Y108.342 E.00461
G1 X113.655 Y108.44 E.0051
G1 X113.534 Y108.472 E.00392
G1 X113.369 Y108.583 E.00624
G1 X113.248 Y108.615 E.00392
G1 X113.083 Y108.726 E.00624
G1 X112.962 Y108.758 E.00392
G1 X112.797 Y108.869 E.00624
G1 X112.677 Y108.901 E.00389
G1 X112.479 Y109.038 E.00755
G1 X112.269 Y109.04 E.00658
G1 X112.082 Y109.155 E.00688
G1 X111.962 Y109.187 E.00389
G1 X111.796 Y109.298 E.00626
G1 X111.675 Y109.33 E.00392
G1 X111.516 Y109.436 E.00599
G1 X111.385 Y109.472 E.00426
G1 X111.087 Y109.711 E.01198
G1 X110.845 Y109.809 E.00819
G1 X109.792 Y110.872 E.04691
G1 X109.753 Y111.041 E.00544
G1 X109.516 Y111.302 E.01105
G1 X109.324 Y111.723 E.01451
G1 X109.222 Y111.891 E.00616
G1 X109.181 Y112.009 E.00392
G1 X109.067 Y112.194 E.00681
G1 X109.038 Y112.479 E.00898
G1 X108.936 Y112.606 E.00511
G1 X108.895 Y112.724 E.00392
G1 X108.65 Y113.178 E.01618
G1 X108.466 Y113.582 E.01392
G1 X108.364 Y113.75 E.00616
G1 X108.323 Y113.868 E.00392
G1 X108.112 Y114.134 E.01065
G1 X108.04 Y114.337 E.00675
G1 X107.216 Y115.155 E.0364
G1 X107.039 Y115.216 E.00587
G1 X106.776 Y115.45 E.01104
G1 X106.635 Y115.492 E.00461
G1 X106.505 Y115.59 E.0051
G1 X106.385 Y115.622 E.00389
G1 X106.187 Y115.759 E.00755
G1 X105.977 Y115.761 E.00658
G1 X105.758 Y115.902 E.00817
G1 X105.545 Y115.904 E.00668
G1 X105.328 Y116.045 E.00811
G1 X103.95 Y116.045 E.04321
G1 X103.762 Y115.911 E.00724
G1 X103.378 Y115.902 E.01204
G1 X103.251 Y115.8 E.00511
G1 X103.133 Y115.759 E.00392
G1 X102.679 Y115.514 E.01618
G1 X102.561 Y115.473 E.00392
G1 X102.393 Y115.371 E.00616
G1 X102.243 Y115.33 E.00488
G1 X101.712 Y114.811 E.02328
G1 X101.533 Y114.758 E.00585
G1 X101.477 Y114.577 E.00594
G1 X101.128 Y114.217 E.01572
G1 X101.073 Y114.049 E.00554
G1 X100.836 Y113.783 E.01117
G1 X100.794 Y113.642 E.00461
G1 X100.696 Y113.512 E.0051
G1 X100.664 Y113.392 E.00389
G1 X100.527 Y113.194 E.00755
G1 X100.525 Y112.984 E.00658
G1 X100.384 Y112.765 E.00817
G1 X100.383 Y112.42 E.01082
G1 X100.241 Y112.193 E.0084
G1 X100.241 Y111.1 E.03427
G1 X100.372 Y110.922 E.00693
G1 X100.384 Y110.671 E.00788
G1 X100.505 Y110.516 E.00617
G1 X100.527 Y110.099 E.01309
G1 X100.629 Y109.973 E.00508
G1 X100.67 Y109.855 E.00392
G1 X100.883 Y109.586 E.01076
G1 X101.058 Y109.257 E.01168
G1 X101.099 Y109.14 E.00389
G1 X101.336 Y108.845 E.01186
G1 X101.413 Y108.649 E.0066
G1 X101.907 Y108.143 E.02217
G1 X101.957 Y107.962 E.00589
G1 X102.194 Y107.701 E.01105
G1 X102.386 Y107.28 E.01451
G1 X102.488 Y107.112 E.00616
G1 X102.529 Y106.994 E.00392
G1 X102.643 Y106.809 E.00681
G1 X102.672 Y106.524 E.00898
G1 X102.812 Y106.316 E.00786
G1 X102.815 Y105.809 E.0159
G1 X102.917 Y105.682 E.00511
G1 X102.958 Y105.564 E.00392
G1 X102.955 Y104.004 E.04891
G1 X102.95 Y103.816 E.0059
G1 X102.794 Y103.596 E.00846
;WIDTH:0.459556
G1 X102.792 Y103.404 E.00665
;WIDTH:0.499112
G1 X102.79 Y103.212 E.00728
;WIDTH:0.527631
G1 X102.682 Y103.056 E.00765
;WIDTH:0.556149
G1 X102.464 Y102.779 E.01504
;WIDTH:0.513673
G1 X102.355 Y102.658 E.00637
;WIDTH:0.471197
G1 X102.355 Y102.569 E.00317
G1 X102.299 Y102.371 E.00733
;WIDTH:0.456538
G1 X102.188 Y102.273 E.00509
;WIDTH:0.424283
G1 X102.15 Y102.146 E.0042
G1 X102.236 Y102.175 E.00288
;WIDTH:0.456538
G1 X102.371 Y102.299 E.0063
;WIDTH:0.471197
G1 X102.498 Y102.355 E.00494
G1 X102.658 Y102.355 E.0057
G1 X102.72 Y102.418 E.00315
;WIDTH:0.511898
G1 X102.918 Y102.586 E.01013
;WIDTH:0.552599
G1 X103.115 Y102.754 E.01097
G1 X103.163 Y102.772 E.00217
;WIDTH:0.525856
G1 X103.212 Y102.789 E.00208
;WIDTH:0.499112
G1 X103.478 Y102.796 E.01009
;WIDTH:0.459556
G1 X103.744 Y102.802 E.00922
;WIDTH:0.419999
G1 X103.881 Y102.914 E.00555
G1 X104.001 Y102.957 E.004
G1 X105.561 Y102.958 E.04891
G1 X105.596 Y102.955 E.0011
G1 X105.809 Y102.815 E.00799
G1 X106.294 Y102.815 E.01521
G1 X106.524 Y102.672 E.00849
G1 X106.737 Y102.67 E.00668
G1 X106.921 Y102.555 E.0068
G1 X107.042 Y102.523 E.00392
G1 X107.207 Y102.412 E.00624
G1 X107.328 Y102.38 E.00392
G1 X107.493 Y102.269 E.00624
G1 X107.614 Y102.237 E.00392
G1 X107.764 Y102.138 E.00564
G1 X107.987 Y102.061 E.0074
G1 X108.353 Y101.708 E.01594
G1 X108.576 Y101.618 E.00754
G1 X109.14 Y101.099 E.02403
G1 X109.346 Y100.987 E.00735
G1 X109.477 Y100.951 E.00426
G1 X109.821 Y100.67 E.01393
G1 X110.035 Y100.666 E.00671
G1 X110.242 Y100.527 E.00782
G1 X110.457 Y100.525 E.00674
G1 X110.671 Y100.384 E.00804
G1 X110.884 Y100.382 E.00668
G1 X111.1 Y100.241 E.00809
G1 X112.193 Y100.241 E.03427
G1 X112.372 Y100.372 E.00695
G1 X112.765 Y100.384 E.01233
G1 X112.892 Y100.486 E.00511
G1 X113.008 Y100.527 E.00386
G1 X115.886 Y100.525 E.09024
G1 X116.105 Y100.384 E.00817
G1 X116.304 Y100.384 E.00624
G1 X116.534 Y100.241 E.00849
G1 X116.723 Y100.241 E.00593
G1 X116.931 Y100.124 E.00748
G1 X117.046 Y100.094 E.00373
G1 X117.211 Y99.986 E.00618
G1 X117.333 Y99.952 E.00397
G1 X117.642 Y99.707 E.01236
;WIDTH:0.45743
G1 X117.778 Y99.668 E.00488
;WIDTH:0.49486
G1 X117.914 Y99.63 E.00531
G1 X118.27 Y99.214 E.02058
;WIDTH:0.460477
G1 X118.57 Y98.781 E.01829
;WIDTH:0.442108
G1 X118.82 Y98.373 E.01588
;WIDTH:0.437432
G1 X118.932 Y98.144 E.00836
;WIDTH:0.411932
G1 X119.043 Y97.915 E.00781
;WIDTH:0.427214
G1 X119.205 Y97.719 E.00813
;WIDTH:0.467996
G1 X119.367 Y97.524 E.00896
G1 X119.381 Y97.657 E.00473
M204 P1000
G1 E-2.24 F4200
;WIPE_START
G1 F7200
G1 X119.388 Y97.716 E-.03293
G1 X119.408 Y97.909 E-.10753
G1 X119.311 Y98.105 E-.12119
G1 X119.26 Y98.273 E-.0973
G1 X119.209 Y98.441 E-.0973
G1 X118.987 Y98.906 E-.28555
G1 X118.763 Y99.23 E-.2182
;WIPE_END
G1 Z.4 F720
G1 X117.102 Y100.596 F9000
G1 Z.2 F720
G1 E3.2 F2400
M204 P600
;TYPE:Perimeter
;WIDTH:0.61952
G1 F1200
G1 X117.206 Y100.522 E.00612
;WIDTH:0.577316
G1 X117.31 Y100.447 E.0057
;WIDTH:0.535111
G1 X117.414 Y100.373 E.00522
;WIDTH:0.492906
G1 X117.517 Y100.298 E.00477
;WIDTH:0.450701
G1 X117.621 Y100.224 E.00433
;WIDTH:0.408496
G1 X117.837 Y100.02 E.00903
M204 P1000
G1 E-2.24 F4200
;WIPE_START
G1 F7200
G1 X117.621 Y100.224 E-.16465
G1 X117.517 Y100.298 E-.07073
G1 X117.414 Y100.373 E-.07061
G1 X117.31 Y100.447 E-.07073
G1 X117.206 Y100.522 E-.07106
G1 X117.102 Y100.596 E-.07073
;WIPE_END
G1 E-.44149 F4200
G1 Z.4 F720
G1 X101.975 Y101.985 F9000
G1 Z.2 F720
G1 E3.2 F2400
M204 P600
;TYPE:External perimeter
;WIDTH:0.38292
G1 F1200
G1 X102.107 Y102.1 E.00495
M204 P1000
G1 E-2.24 F4200
;WIPE_START
G1 F7200
G1 X101.975 Y101.985 E-.09702
;WIPE_END
G1 E-.86298 F4200
G1 Z.4 F720
G1 X116.539 Y101.221 F9000
G1 Z.2 F720
G1 E3.2 F2400
M204 P600
;TYPE:Solid infill
;WIDTH:0.423315
G1 F1200
G1 X116.404 Y101.086 E.00604
G1 X116.347 Y101.095 E.00183
G1 X116.087 Y101.217 E.00908
G1 X116.007 Y101.227 E.00255
G1 X116.218 Y101.437 E.00942
G1 X116.055 Y101.624 E.00785
G1 X115.997 Y101.754 E.0045
G1 X115.486 Y101.244 E.02284
G1 X114.948 Y101.244 E.01702
G1 X115.829 Y102.124 E.03939
G1 X115.775 Y102.244 E.00416
G1 X115.763 Y102.366 E.00388
G1 X115.684 Y102.518 E.00542
G1 X114.41 Y101.244 E.05699
G1 X113.872 Y101.244 E.01702
G1 X115.548 Y102.92 E.07497
G1 X115.472 Y103.269 E.0113
G1 X115.472 Y103.381 E.00354
G1 X113.334 Y101.244 E.09561
G1 X112.99 Y101.244 E.01088
M73 P5 R11
G1 X112.758 Y101.205 E.00744
G1 X115.472 Y103.919 E.1214
G1 X115.472 Y104.25 E.01047
G1 X115.4 Y104.386 E.00487
