; generated by PrusaSlicer 2.7.4 on 2024-10-19 at 16:47:58 UTC


;
;

;
;
; 

; external perimeters extrusion width = 0.45mm
; perimeters extrusion width = 0.45mm
; infill extrusion width = 0.45mm
; solid infill extrusion width = 0.45mm
; top infill extrusion width = 0.40mm
; first layer extrusion width = 0.42mm

M73 P0 R10
M201 X2500 Y2500 Z400 E5000 ; sets maximum accelerations, mm/sec^2
M203 X180 Y180 Z12 E80 ; sets maximum feedrates, mm / sec
M204 P2000 R1250 T2500 ; sets acceleration (P, T) and retract acceleration (R), mm/sec^2
M205 X8.00 Y8.00 Z2.00 E10.00 ; sets the jerk limits, mm/sec
M205 S0 T0 ; sets the minimum extruding and travel feed rate, mm/sec

; printing object binary_purple.stl id:0 copy 0
; stop printing object binary_purple.stl id:0 copy 0

;TYPE:Custom
M862.3 P "MINI" ; printer model check
G90 ; use absolute coordinates
M83 ; extruder relative mode
M104 S170 ; set extruder temp for bed leveling
M140 S60 ; set bed temp
M109 R170 ; wait for bed leveling temp
M190 S60 ; wait for bed temp
M204 T1250 ; set travel acceleration
G28 ; home all without mesh bed level
G29 ; mesh bed leveling 
M204 T2500 ; restore travel acceleration
M104 S215 ; set extruder temp
G92 E0
G1 Y-2 X179 F2400
G1 Z3 F720
M109 S215 ; wait for extruder temp

; intro line
G1 X170 F1000
G1 Z0.2 F720
G1 X110 E8 F900
G1 X40 E10 F700
M73 P1 R10
G92 E0

M221 S95 ; set flow
G21 ; set units to millimeters
G90 ; use absolute coordinates
M83 ; use relative distances for extrusion
M900 K0.2 ; Filament gcode LA 1.5
; ; Filament gcode LA 1.0
M107
;LAYER_CHANGE
;Z:0.2
;HEIGHT:0.2
G1 E-3.2 F4200
M73 P2 R10
G1 Z.4 F720
G1 X79.009 Y50.951 F9000
G1 Z.2 F720
G1 E3.2 F2400
M204 P600
;TYPE:Skirt/Brim
;WIDTH:0.42
G1 F1200
G1 X80.232 Y49.667 E.0556
G1 X80.618 Y49.357 E.01552
G1 X82.159 Y48.51 E.05513
G1 X82.892 Y48.241 E.02448
G1 X84.359 Y47.976 E.04674
G1 X85.693 Y48.007 E.04184
G1 X92.139 Y49.092 E.20495
G1 X92.29 Y49.142 E.00499
G1 X93.62 Y50.251 E.0543
G1 X114.82 Y88.79 E1.37912
G1 X115.114 Y89.936 E.0371
G1 X115.019 Y90.694 E.02395
G1 X104.401 Y127.088 E1.18868
M73 P3 R10
G1 X103.162 Y128.558 E.06028
G1 X97.506 Y131.318 E.19733
G1 X96.786 Y131.58 E.02402
G1 X95.567 Y131.813 E.03891
G1 X94.407 Y131.813 E.03637
G1 X88.338 Y130.657 E.19371
G1 X87.322 Y130.192 E.03503
G1 X70.936 Y117.284 E.65403
G1 X69.57 Y115.857 E.06194
G1 X66.563 Y111.282 E.17166
G1 X66.173 Y109.977 E.04271
G1 X66.222 Y109.405 E.018
G1 X77.699 Y53.72 E1.78266
G1 X78.111 Y52.558 E.03866
M73 P4 R10
G1 X78.979 Y51.003 E.05584
M204 P1000
G1 E-2.24 F4200
;WIPE_START
G1 F7200
G1 X79.009 Y50.951 E-.03327
G1 X80.162 Y49.74 E-.92673
;WIPE_END
G1 Z.4 F720
; printing object binary_purple.stl id:0 copy 0
G1 X89.982 Y117.584 F9000
G1 Z.2 F720
G1 E3.2 F2400
M204 P600
;TYPE:Perimeter
;WIDTH:0.419999
G1 F1200
G1 X89.999 Y117.654 E.00226
G1 X90.369 Y118.12 E.01866
G1 X90.379 Y118.191 E.00225
G1 X90.526 Y118.437 E.00899
G1 X91.202 Y119.096 E.0296
G1 X91.409 Y119.178 E.00698
G1 X91.719 Y119.478 E.01353
G1 X92.169 Y119.722 E.01605
G1 X92.611 Y120.018 E.01668
G1 X92.839 Y120.066 E.00731
G1 X93.026 Y120.151 E.00644
G1 X93.276 Y120.209 E.00805
G1 X93.429 Y120.281 E.0053
G1 X93.705 Y120.352 E.00894
G1 X94.584 Y120.352 E.02756
G1 X94.838 Y120.474 E.00884
G1 X94.987 Y120.495 E.00472
G1 X95.728 Y120.495 E.02323
G1 X95.987 Y120.618 E.00899
G1 X96.136 Y120.638 E.00471
G1 X96.309 Y120.72 E.006
G1 X96.565 Y120.781 E.00825
G1 X97.129 Y121.032 E.01936
G1 X97.32 Y121.206 E.0081
G1 X97.543 Y121.307 E.00768
G1 X98.397 Y122.162 E.03789
G1 X98.562 Y122.545 E.01308
G1 X98.794 Y122.837 E.01169
G1 X98.798 Y123.364 E.01652
G1 X98.907 Y123.636 E.00919
G1 X98.945 Y123.82 E.00589
G1 X99.541 Y125.082 E.04376
G1 X99.693 Y125.315 E.00872
G1 X100.174 Y125.755 E.02044
;WIDTH:0.420306
G1 X100.341 Y126.025 E.00996
G1 X100.195 Y126.072 E.00481
;WIDTH:0.419999
G1 X99.684 Y126.209 E.01659
G1 X98.366 Y126.847 E.04591
G1 X98.119 Y127.003 E.00916
G1 X97.71 Y127.432 E.01858
G1 X97.259 Y127.867 E.01965
G1 X96.226 Y128.365 E.03596
G1 X96.03 Y128.405 E.00627
G1 X95.758 Y128.538 E.00949
G1 X95.251 Y128.539 E.0159
G1 X94.988 Y128.629 E.00872
G1 X94.753 Y128.541 E.00787
G1 X94.246 Y128.538 E.0159
G1 X94.022 Y128.425 E.00787
G1 X93.839 Y128.395 E.00581
G1 X93.67 Y128.316 E.00585
G1 X93.409 Y128.252 E.00843
G1 X93.152 Y128.056 E.01013
G1 X92.699 Y127.842 E.01571
G1 X92.387 Y127.823 E.0098
G1 X92.118 Y127.697 E.00931
G1 X91.672 Y127.68 E.01399
G1 X91.481 Y127.581 E.00675
G1 X91.215 Y127.538 E.00845
G1 X90.662 Y127.546 E.01734
G1 X90.097 Y127.596 E.01778
G1 X90.309 Y127.138 E.01582
G1 X90.322 Y127.015 E.00388
G1 X90.594 Y126.284 E.02446
G1 X90.608 Y125.706 E.01813
G1 X90.714 Y125.5 E.00726
G1 X90.751 Y125.299 E.00641
G1 X90.75 Y124.124 E.03684
G1 X90.608 Y123.756 E.01237
G1 X90.599 Y123.203 E.01734
G1 X90.495 Y122.966 E.00811
G1 X90.46 Y122.802 E.00526
G1 X90.352 Y122.537 E.00897
G1 X90.313 Y122.347 E.00608
G1 X90.139 Y121.945 E.01373
G1 X89.868 Y121.592 E.01395
G1 X89.802 Y121.405 E.00622
G1 X89.438 Y121.014 E.01675
G1 X89.408 Y120.886 E.00412
G1 X89.11 Y120.546 E.01418
G1 X88.734 Y120.194 E.01615
G1 X88.521 Y120.116 E.00711
G1 X88.227 Y119.86 E.01222
G1 X87.866 Y119.61 E.01377
G1 X88.081 Y119.564 E.00689
G1 X88.424 Y119.287 E.01382
G1 X88.739 Y119.119 E.01119
G1 X89.094 Y118.779 E.01541
G1 X89.517 Y118.332 E.0193
G1 X89.592 Y118.122 E.00699
G1 X89.865 Y117.815 E.01288
G1 X89.955 Y117.638 E.00623
M204 P1000
G1 X89.955 Y117.638 F9000
G1 X89.982 Y116.53
M204 P600
;TYPE:External perimeter
;WIDTH:0.609844
G1 F1200
G1 X90.059 Y116.63 E.00595
;WIDTH:0.566514
G1 X90.136 Y116.729 E.00546
;WIDTH:0.523183
G1 X90.183 Y116.856 E.00541
;WIDTH:0.550976
G1 X90.218 Y117.137 E.01196
;WIDTH:0.584566
G1 X90.252 Y117.418 E.01275
G1 X90.285 Y117.455 E.00223
;WIDTH:0.543425
G1 X90.317 Y117.491 E.002
;WIDTH:0.502283
G1 X90.349 Y117.528 E.00187
;WIDTH:0.461141
G1 X90.381 Y117.565 E.0017
;WIDTH:0.419999
G1 X90.735 Y117.963 E.0167
G1 X90.734 Y118.033 E.0022
G1 X90.79 Y118.169 E.00461
G1 X91.414 Y118.783 E.02745
G1 X91.593 Y118.831 E.00581
G1 X91.981 Y119.207 E.01694
G1 X92.22 Y119.298 E.00802
G1 X92.418 Y119.403 E.00703
G1 X92.737 Y119.659 E.01282
G1 X93.031 Y119.689 E.00927
G1 X93.192 Y119.813 E.00637
G1 X93.46 Y119.832 E.00842
G1 X93.587 Y119.934 E.00511
G1 X93.705 Y119.975 E.00392
G1 X94.747 Y119.975 E.03267
G1 X94.874 Y120.077 E.00511
G1 X94.99 Y120.118 E.00386
G1 X95.891 Y120.118 E.02825
G1 X96.086 Y120.255 E.00747
G1 X96.32 Y120.261 E.00734
G1 X96.48 Y120.384 E.00633
G1 X96.749 Y120.404 E.00846
G1 X96.876 Y120.506 E.00511
G1 X97.28 Y120.69 E.01392
G1 X97.574 Y120.927 E.01184
G1 X97.745 Y120.976 E.00558
G1 X98.664 Y121.895 E.04075
G1 X98.853 Y122.211 E.01154
G1 X98.892 Y122.356 E.00471
G1 X99.171 Y122.691 E.01367
G1 X99.171 Y123.311 E.01944
G1 X99.314 Y123.541 E.00849
G1 X99.317 Y123.757 E.00677
G1 X99.431 Y123.938 E.00671
G1 X99.463 Y124.059 E.00392
G1 X99.574 Y124.224 E.00624
G1 X99.606 Y124.345 E.00392
G1 X99.717 Y124.51 E.00624
G1 X99.749 Y124.631 E.00392
G1 X99.844 Y124.775 E.00541
G1 X99.948 Y125.037 E.00884
G1 X100.528 Y125.568 E.02466
G1 X100.605 Y125.744 E.00602
;WIDTH:0.468957
G1 X100.673 Y125.823 E.00369
;WIDTH:0.517915
G1 X100.742 Y125.903 E.00417
G1 X100.918 Y125.907 E.00695
;WIDTH:0.488034
G1 X101.06 Y125.96 E.00561
;WIDTH:0.486584
G1 X101.278 Y126.118 E.00993
;WIDTH:0.451699
G1 X101.497 Y126.275 E.00916
G1 X101.389 Y126.304 E.0038
;WIDTH:0.486584
G1 X101.1 Y126.356 E.01083
G1 X100.478 Y126.367 E.02295
;WIDTH:0.470467
G1 X100.349 Y126.434 E.00517
;WIDTH:0.445233
G1 X100.22 Y126.5 E.00485
;WIDTH:0.419999
G1 X100.008 Y126.49 E.00665
G1 X99.792 Y126.601 E.00761
G1 X99.668 Y126.633 E.00402
G1 X99.5 Y126.744 E.00631
G1 X99.378 Y126.776 E.00395
G1 X99.212 Y126.887 E.00626
G1 X99.091 Y126.919 E.00392
G1 X98.926 Y127.03 E.00624
G1 X98.806 Y127.062 E.00389
G1 X98.666 Y127.152 E.00522
G1 X98.395 Y127.259 E.00914
G1 X97.969 Y127.707 E.01938
G1 X97.422 Y128.2 E.02309
G1 X97.21 Y128.317 E.00759
G1 X97.089 Y128.349 E.00392
G1 X96.924 Y128.46 E.00624
G1 X96.804 Y128.492 E.00389
G1 X96.638 Y128.603 E.00626
G1 X96.517 Y128.635 E.00392
G1 X96.32 Y128.772 E.00752
G1 X96.111 Y128.774 E.00655
G1 X95.891 Y128.915 E.00819
G1 X95.28 Y128.915 E.01916
G1 X94.987 Y129.058 E.01022
G1 X94.814 Y128.956 E.0063
G1 X94.697 Y128.915 E.00389
G1 X94.083 Y128.915 E.01925
G1 X93.9 Y128.782 E.00709
G1 X93.654 Y128.772 E.00772
G1 X93.496 Y128.65 E.00626
G1 X93.233 Y128.629 E.00827
G1 X92.972 Y128.392 E.01105
G1 X92.845 Y128.343 E.00427
G1 X92.648 Y128.226 E.00718
G1 X92.224 Y128.2 E.01332
G1 X92.026 Y128.063 E.00755
G1 X91.509 Y128.057 E.01621
G1 X91.382 Y127.956 E.00509
G1 X91.22 Y127.915 E.00524
G1 X90.325 Y127.951 E.02808
G1 X89.24 Y128.095 E.03432
G1 X89.458 Y127.884 E.00951
G1 X89.514 Y127.768 E.00404
G1 X89.798 Y127.348 E.0159
G1 X89.941 Y127.056 E.01019
G1 X89.945 Y126.83 E.00709
G1 X90.061 Y126.684 E.00585
G1 X90.088 Y126.401 E.00891
G1 X90.19 Y126.274 E.00511
G1 X90.231 Y126.156 E.00392
G1 X90.231 Y125.543 E.01922
G1 X90.333 Y125.416 E.00511
G1 X90.374 Y125.299 E.00389
G1 X90.374 Y124.15 E.03603
G1 X90.231 Y123.919 E.00852
G1 X90.228 Y123.271 E.02032
G1 X90.088 Y123.061 E.00791
G1 X90.087 Y122.852 E.00655
G1 X89.945 Y122.632 E.00821
G1 X89.942 Y122.414 E.00684
G1 X89.833 Y122.241 E.00641
G1 X89.797 Y122.11 E.00426
G1 X89.552 Y121.805 E.01227
G1 X89.486 Y121.611 E.00643
G1 X89.131 Y121.239 E.01612
G1 X89.031 Y120.996 E.00824
G1 X88.528 Y120.509 E.02195
G1 X88.363 Y120.478 E.00526
G1 X88.175 Y120.314 E.00782
;WIDTH:0.451592
G1 X87.961 Y120.121 E.00979
;WIDTH:0.483184
G1 X87.747 Y119.928 E.01055
;WIDTH:0.514605
G1 X87.625 Y119.9 E.00491
;WIDTH:0.546026
G1 X87.337 Y119.858 E.01218
;WIDTH:0.496501
G1 X87.17 Y119.845 E.00632
;WIDTH:0.446976
G1 X87.002 Y119.831 E.00566
;WIDTH:0.423359
G1 X86.851 Y119.698 E.00637
;WIDTH:0.467896
G1 X86.655 Y119.653 E.00711
G1 X86.834 Y119.515 E.00799
;WIDTH:0.432105
G1 X87.126 Y119.478 E.00952
;WIDTH:0.474495
G1 X87.271 Y119.425 E.00554
;WIDTH:0.516885
G1 X87.417 Y119.373 E.00611
;WIDTH:0.53192
G1 X87.539 Y119.392 E.00502
G1 X87.679 Y119.309 E.00662
;WIDTH:0.483184
G1 X87.831 Y119.271 E.00574
G1 X87.9 Y119.231 E.00292
;WIDTH:0.451592
G1 X87.969 Y119.191 E.00271
;WIDTH:0.419999
G1 X88.365 Y118.831 E.01678
G1 X88.492 Y118.822 E.00399
G1 X88.825 Y118.514 E.01422
G1 X89.2 Y118.128 E.01687
G1 X89.23 Y117.963 E.00526
G1 X89.583 Y117.565 E.01668
;WIDTH:0.461316
G1 X89.615 Y117.539 E.00143
;WIDTH:0.502632
G1 X89.647 Y117.514 E.00155
;WIDTH:0.543949
G1 X89.68 Y117.489 E.00172
;WIDTH:0.585265
G1 X89.712 Y117.463 E.00186
G1 X89.707 Y117.342 E.00546
;WIDTH:0.584614
G1 X89.739 Y117.089 E.01149
;WIDTH:0.551
G1 X89.771 Y116.837 E.01073
;WIDTH:0.563615
G1 X89.876 Y116.684 E.00803
;WIDTH:0.609844
G1 X89.948 Y116.58 E.00596
M204 P1000
G1 X89.948 Y116.58 F9000
G1 X89.982 Y116.341
M204 P600
G1 F1200
G1 X89.982 Y116.53 E.00891
M204 P1000
G1 E-2.24 F4200
;WIPE_START
G1 F7200
G1 X89.982 Y116.341 E-.10474
;WIPE_END
G1 E-.85526 F4200
G1 Z.4 F720
G1 X86.025 Y119.655 F9000
G1 Z.2 F720
G1 E3.2 F2400
M73 P5 R10
M204 P600
;WIDTH:0.38292
G1 F1200
G1 X86.43 Y119.6 E.01155
;WIDTH:0.425408
G1 X86.543 Y119.627 E.0037
;WIDTH:0.467896
G1 X86.655 Y119.653 E.00406
M204 P1000
G1 E-2.24 F4200
;WIPE_START
G1 F7200
G1 X86.543 Y119.627 E-.06372
G1 X86.43 Y119.6 E-.06438
G1 X86.025 Y119.655 E-.2265
;WIPE_END
G1 E-.6054 F4200
G1 Z.4 F720
G1 X96.832 Y121.083 F9000
G1 Z.2 F720
G1 E3.2 F2400
M204 P600
;TYPE:Solid infill
;WIDTH:0.428984
G1 F1200
G1 X98.127 Y122.378 E.05879
G1 X98.275 Y122.732 E.01232
G1 X98.456 Y122.963 E.00942
G1 X98.462 Y123.258 E.00947
G1 X96.278 Y121.075 E.09913
G1 X96.077 Y120.972 E.00725
G1 X95.892 Y120.946 E.006
G1 X95.672 Y120.834 E.00792
G1 X95.49 Y120.833 E.00584
G1 X98.644 Y123.986 E.14316
G1 X98.656 Y124.052 E.00215
G1 X98.778 Y124.263 E.00782
G1 X98.835 Y124.417 E.00527
G1 X98.922 Y124.552 E.00516
G1 X98.976 Y124.697 E.00497
G1 X99.067 Y124.84 E.00544
G1 X99.147 Y125.035 E.00677
G1 X94.94 Y120.829 E.19097
G1 X94.737 Y120.799 E.00659
G1 X94.527 Y120.692 E.00757
G1 X94.257 Y120.692 E.00867
G1 X99.493 Y125.927 E.23768
G1 X99.179 Y126.089 E.01134
G1 X99.128 Y126.108 E.00175
G1 X93.711 Y120.692 E.2459
G1 X93.505 Y120.67 E.00665
G1 X93.332 Y120.612 E.00586
G1 X93.214 Y120.543 E.00439
G1 X93.078 Y120.528 E.00439
G1 X92.964 Y120.491 E.00385
G1 X98.755 Y126.281 E.26288
G1 X98.598 Y126.379 E.00594
G1 X98.394 Y126.466 E.00712
G1 X91.868 Y119.941 E.29625
G1 X91.791 Y119.919 E.00257
G1 X91.579 Y119.804 E.00774
G1 X91.234 Y119.48 E.01519
G1 X91.143 Y119.459 E.003
G1 X90.942 Y119.323 E.00779
G1 X90.268 Y118.659 E.03037
G1 X90.153 Y118.513 E.00597
G1 X90.062 Y118.285 E.00788
G1 X89.982 Y118.194 E.00389
G1 X89.898 Y118.289 E.00407
G1 X89.832 Y118.45 E.00559
G1 X98.026 Y126.644 E.37199
G1 X97.895 Y126.746 E.00533
G1 X97.745 Y126.909 E.00711
G1 X89.592 Y118.756 E.37013
G1 X89.321 Y119.031 E.01239
G1 X97.479 Y127.19 E.37038
G1 X97.199 Y127.455 E.01238
G1 X89.048 Y119.304 E.37004
G1 X88.918 Y119.409 E.00536
G1 X88.696 Y119.498 E.00768
G1 X96.868 Y127.671 E.37102
G1 X96.497 Y127.845 E.01315
M73 P6 R10
G1 X90.424 Y121.772 E.2757
G1 X90.603 Y122.122 E.01262
G1 X90.654 Y122.383 E.00854
G1 X90.748 Y122.557 E.00635
G1 X90.768 Y122.663 E.00346
G1 X96.131 Y128.026 E.24347
G1 X96.069 Y128.063 E.00232
G1 X95.84 Y128.103 E.00746
G1 X95.725 Y128.166 E.00421
G1 X90.94 Y123.38 E.21725
G1 X90.947 Y123.693 E.01005
G1 X91.042 Y123.867 E.00636
G1 X91.084 Y124.07 E.00665
G1 X95.216 Y128.202 E.18759
G1 X94.988 Y128.251 E.00749
G1 X94.787 Y128.202 E.00664
G1 X94.669 Y128.201 E.00379
G1 X91.089 Y124.621 E.16253
G1 X91.089 Y125.168 E.01756
G1 X94.002 Y128.08 E.13222
G1 X93.9 Y128.063 E.00332
G1 X93.71 Y127.962 E.00691
G1 X93.522 Y127.927 E.00614
G1 X93.308 Y127.753 E.00885
G1 X92.974 Y127.599 E.01181
G1 X91.02 Y125.644 E.08873
G1 X90.948 Y125.771 E.00469
G1 X90.948 Y126.118 E.01114
G1 X92.207 Y127.377 E.05716
G1 X92.085 Y127.346 E.00404
G1 X91.739 Y127.341 E.01111
G1 X91.616 Y127.268 E.00459
G1 X91.522 Y127.238 E.00317
G1 X90.85 Y126.566 E.03051
G1 X90.801 Y126.646 E.00301
G1 X90.794 Y126.733 E.0028
G1 X90.7 Y126.962 E.00795
G1 X91.11 Y127.373 E.01864
M204 P1000
G1 E-2.24 F4200
;WIPE_START
G1 F7200
G1 X90.7 Y126.962 E-.32171
G1 X90.794 Y126.733 E-.13718
G1 X90.801 Y126.646 E-.04837
G1 X90.85 Y126.566 E-.05199
G1 X91.361 Y127.077 E-.40075
;WIPE_END
G1 Z.4 F720
G1 X79.395 Y117.131 F9000
G1 Z.2 F720
G1 E3.2 F2400
M204 P600
;TYPE:Perimeter
;WIDTH:0.610968
G1 F1200
G1 X79.306 Y117.076 E.00494
;WIDTH:0.561738
G1 X79.217 Y117.021 E.00451
;WIDTH:0.512507
G1 X79.129 Y116.966 E.00405
;WIDTH:0.463276
G1 X78.808 Y116.825 E.01225
;WIDTH:0.419999
G1 X78.64 Y116.673 E.0071
G1 X78.389 Y116.549 E.00878
G1 X78.211 Y116.387 E.00755
G1 X77.843 Y116.187 E.01313
G1 X77.537 Y116.097 E.01
G1 X77.382 Y116.025 E.00536
G1 X77.108 Y115.954 E.00887
G1 X76.942 Y115.876 E.00575
G1 X76.679 Y115.811 E.00849
G1 X75.656 Y115.811 E.03208
G1 X75.341 Y115.675 E.01076
G1 X74.798 Y115.668 E.01703
G1 X74.574 Y115.555 E.00787
G1 X74.391 Y115.525 E.00581
G1 X74.215 Y115.442 E.0061
G1 X73.886 Y115.363 E.01061
G1 X73.683 Y115.273 E.00696
G1 X73.498 Y115.105 E.00784
G1 X72.979 Y114.853 E.01809
G1 X72.278 Y114.157 E.03097
G1 X72.194 Y113.964 E.0066
G1 X71.986 Y113.72 E.01005
G1 X71.806 Y113.31 E.01404
G1 X71.333 Y112.384 E.0326
G1 X71.287 Y112.161 E.00714
G1 X70.835 Y111.227 E.03253
G1 X70.641 Y110.961 E.01032
G1 X70.454 Y110.655 E.01124
G1 X70.009 Y110.285 E.01815
G1 X70.598 Y110.144 E.01899
G1 X70.76 Y110.045 E.00595
G1 X71.225 Y109.85 E.01581
G1 X71.523 Y109.606 E.01208
G1 X71.634 Y109.584 E.00355
G1 X71.818 Y109.46 E.00696
G1 X72.921 Y108.334 E.04942
G1 X72.995 Y108.135 E.00666
G1 X73.178 Y107.932 E.00857
G1 X73.657 Y106.993 E.03305
G1 X73.734 Y106.708 E.00926
G1 X73.814 Y106.54 E.00583
G1 X73.877 Y106.279 E.00842
G1 X74.272 Y105.433 E.02927
G1 X74.426 Y105.266 E.00712
G1 X74.555 Y105.007 E.00907
G1 X75.82 Y103.741 E.05611
G1 X76.011 Y103.669 E.0064
G1 X76.348 Y103.354 E.01446
;WIDTH:0.442798
G1 X76.827 Y103.102 E.018
G1 X76.793 Y103.26 E.00537
;WIDTH:0.432915
G1 X76.796 Y103.525 E.00859
;WIDTH:0.419999
G1 X76.63 Y104.001 E.01581
