; generated by PrusaSlicer 2.7.4 on 2024-10-19 at 16:47:43 UTC


;
;

;
;
; 

; external perimeters extrusion width = 0.45mm
; perimeters extrusion width = 0.45mm
; infill extrusion width = 0.45mm
; solid infill extrusion width = 0.45mm
; top infill extrusion width = 0.40mm
; first layer extrusion width = 0.42mm

M73 P0 R12
M201 X2500 Y2500 Z400 E5000 ; sets maximum accelerations, mm/sec^2
M203 X180 Y180 Z12 E80 ; sets maximum feedrates, mm / sec
M204 P2000 R1250 T2500 ; sets acceleration (P, T) and retract acceleration (R), mm/sec^2
M205 X8.00 Y8.00 Z2.00 E10.00 ; sets the jerk limits, mm/sec
M205 S0 T0 ; sets the minimum extruding and travel feed rate, mm/sec

; printing object binary_cyan.stl id:0 copy 0
; stop printing object binary_cyan.stl id:0 copy 0

;TYPE:Custom
M862.3 P "MINI" ; printer model check
G90 ; use absolute coordinates
M83 ; extruder relative mode
M104 S170 ; set extruder temp for bed leveling
M140 S60 ; set bed temp
M109 R170 ; wait for bed leveling temp
M190 S60 ; wait for bed temp
M204 T1250 ; set travel acceleration
G28 ; home all without mesh bed level
G29 ; mesh bed leveling 
M204 T2500 ; restore travel acceleration
M104 S215 ; set extruder temp
G92 E0
G1 Y-2 X179 F2400
G1 Z3 F720
M109 S215 ; wait for extruder temp

; intro line
G1 X170 F1000
G1 Z0.2 F720
G1 X110 E8 F900
G1 X40 E10 F700
M73 P1 R12
G92 E0

M221 S95 ; set flow
G21 ; set units to millimeters
G90 ; use absolute coordinates
M83 ; use relative distances for extrusion
M900 K0.2 ; Filament gcode LA 1.5
; ; Filament gcode LA 1.0
M107
;LAYER_CHANGE
;Z:0.2
;HEIGHT:0.2
G1 E-3.2 F4200
M73 P2 R12
G1 Z.4 F720
G1 X64.002 Y69.538 F9000
G1 Z.2 F720
G1 E3.2 F2400
M204 P600
;TYPE:Skirt/Brim
;WIDTH:0.42
G1 F1200
G1 X68.678 Y66.428 E.17608
G1 X69.994 Y66.03 E.04311
G1 X70.191 Y66.033 E.00618
G1 X112.304 Y67.999 E1.32186
G1 X112.945 Y68.118 E.02044
G1 X113.681 Y68.388 E.02458
G1 X115.791 Y69.52 E.07508
G1 X116.184 Y69.837 E.01583
G1 X117.534 Y71.25 E.06127
G1 X118.3 Y72.582 E.04818
G1 X118.71 Y73.74 E.03852
G1 X118.832 Y74.492 E.02389
G1 X118.832 Y76.158 E.05224
G1 X118.618 Y77.306 E.03661
G1 X117.712 Y79.215 E.06625
G1 X96.513 Y110.732 E1.19093
G1 X95.952 Y111.317 E.02541
G1 X91.042 Y114.887 E.19034
G1 X71.094 Y124.289 E.69145
G1 X69.994 Y124.516 E.03522
M73 P3 R12
G1 X68.86 Y124.228 E.03668
G1 X62.34 Y120.689 E.2326
G1 X61.035 Y119.778 E.0499
G1 X60.211 Y118.971 E.03616
G1 X59.284 Y117.64 E.05086
G1 X51.448 Y103.244 E.51391
G1 X51.202 Y102.615 E.02118
G1 X50.664 Y100.573 E.06621
G1 X50.586 Y99.874 E.02205
G1 X50.76 Y98.981 E.02853
G1 X61.308 Y73.021 E.87858
G1 X62.008 Y71.621 E.04908
M73 P3 R11
G1 X62.436 Y71.038 E.02268
G1 X63.958 Y69.58 E.06608
M204 P1000
G1 E-2.24 F4200
;WIPE_START
G1 F7200
G1 X64.002 Y69.538 E-.03371
G1 X65.394 Y68.612 E-.92629
;WIPE_END
G1 Z.4 F720
; printing object binary_cyan.stl id:0 copy 0
G1 X106.248 Y76.814 F9000
G1 Z.2 F720
G1 E3.2 F2400
M204 P600
;TYPE:Perimeter
;WIDTH:0.419999
G1 F1200
G1 X107.091 Y76.033 E.03603
G1 X107.174 Y75.814 E.00734
G1 X107.338 Y75.634 E.00764
G1 X107.838 Y74.67 E.03405
G1 X107.911 Y74.391 E.00904
G1 X107.994 Y74.216 E.00607
G1 X108.054 Y73.962 E.00818
G1 X108.448 Y73.111 E.0294
G1 X108.636 Y72.904 E.00877
G1 X108.729 Y72.69 E.00732
G1 X109.273 Y72.142 E.02421
G1 X109.461 Y72.063 E.00639
G1 X109.723 Y71.841 E.01077
G1 X110.48 Y71.476 E.02635
G1 X110.676 Y71.436 E.00627
G1 X110.923 Y71.322 E.00853
G1 X111.227 Y71.297 E.00956
G1 X111.495 Y71.179 E.00918
G1 X111.887 Y71.16 E.01231
G1 X112.03 Y71.238 E.00511
G1 X112.37 Y71.322 E.01098
G1 X112.615 Y71.433 E.00843
G1 X113.053 Y71.678 E.01574
G1 X113.717 Y71.983 E.02291
G1 X113.908 Y72.157 E.0081
G1 X114.132 Y72.259 E.00772
G1 X114.834 Y72.961 E.03113
G1 X114.921 Y73.16 E.00681
G1 X115.13 Y73.401 E.01
G1 X115.352 Y73.872 E.01633
G1 X115.387 Y74.037 E.00529
G1 X115.495 Y74.301 E.00894
G1 X115.532 Y74.483 E.00582
G1 X115.668 Y74.798 E.01076
G1 X115.668 Y75.851 E.03302
G1 X115.551 Y76.09 E.00834
G1 X115.525 Y76.423 E.01047
G1 X115.29 Y76.881 E.01614
G1 X114.998 Y77.521 E.02206
G1 X114.471 Y78.078 E.02404
G1 X113.99 Y78.531 E.02072
G1 X113.856 Y78.567 E.00435
G1 X113.574 Y78.809 E.01165
G1 X113.099 Y79.03 E.01643
G1 X112.903 Y79.07 E.00627
G1 X112.657 Y79.184 E.0085
G1 X112.35 Y79.21 E.00966
G1 X112.062 Y79.346 E.00999
G1 X111.263 Y79.346 E.02505
G1 X111.054 Y79.239 E.00736
G1 X110.856 Y79.203 E.00631
G1 X110.62 Y79.094 E.00815
G1 X110.262 Y79.06 E.01128
G1 X110.003 Y78.95 E.00882
G1 X109.814 Y78.778 E.00801
G1 X109.29 Y78.523 E.01827
G1 X109.099 Y78.349 E.0081
G1 X108.879 Y78.248 E.00759
G1 X108.359 Y77.747 E.02264
G1 X108.135 Y77.655 E.00759
G1 X107.955 Y77.491 E.00764
G1 X107.53 Y77.259 E.01518
G1 X107.023 Y77.017 E.01761
G1 X106.306 Y76.829 E.02324
M204 P1000
G1 X106.306 Y76.829 F9000
G1 X105.115 Y77.206
M204 P600
;TYPE:External perimeter
G1 F1200
G1 X105.545 Y76.794 E.01867
G1 X105.964 Y76.539 E.01538
G1 X106.784 Y75.815 E.0343
G1 X106.818 Y75.644 E.00547
G1 X107.056 Y75.383 E.01107
G1 X107.248 Y74.963 E.01448
G1 X107.35 Y74.795 E.00616
G1 X107.391 Y74.677 E.00392
G1 X107.503 Y74.495 E.0067
G1 X107.534 Y74.207 E.00908
G1 X107.657 Y74.047 E.00633
G1 X107.677 Y73.777 E.00849
G1 X107.779 Y73.65 E.00511
G1 X107.82 Y73.533 E.00389
G1 X107.922 Y73.364 E.00619
G1 X108.106 Y72.961 E.01389
G1 X108.343 Y72.666 E.01186
G1 X108.392 Y72.494 E.00561
G1 X109.098 Y71.783 E.03142
G1 X109.226 Y71.753 E.00412
G1 X109.515 Y71.519 E.01166
G1 X109.649 Y71.48 E.00438
G1 X109.781 Y71.381 E.00517
G1 X109.902 Y71.349 E.00392
G1 X110.067 Y71.238 E.00624
G1 X110.188 Y71.206 E.00392
G1 X110.385 Y71.069 E.00752
G1 X110.595 Y71.068 E.00658
G1 X110.814 Y70.926 E.00818
G1 X111.162 Y70.925 E.01091
G1 X111.386 Y70.783 E.00832
G1 X112.05 Y70.783 E.02082
G1 X112.207 Y70.904 E.00621
G1 X112.479 Y70.926 E.00856
G1 X112.606 Y71.028 E.00511
G1 X113.01 Y71.212 E.01392
G1 X113.75 Y71.6 E.0262
G1 X113.868 Y71.641 E.00392
G1 X114.162 Y71.878 E.01184
G1 X114.333 Y71.927 E.00558
G1 X115.19 Y72.784 E.038
G1 X115.219 Y72.907 E.00396
G1 X115.452 Y73.193 E.01157
G1 X115.491 Y73.327 E.00438
G1 X115.59 Y73.459 E.00517
G1 X115.622 Y73.58 E.00392
G1 X115.759 Y73.777 E.00752
G1 X115.761 Y73.987 E.00658
G1 X115.902 Y74.207 E.00819
G1 X115.904 Y74.421 E.00671
G1 X116.045 Y74.636 E.00806
G1 X116.045 Y74.798 E.00508
G1 X116.045 Y76.014 E.03813
G1 X115.911 Y76.202 E.00724
G1 X115.902 Y76.586 E.01204
G1 X115.8 Y76.713 E.00511
G1 X115.759 Y76.831 E.00392
G1 X115.514 Y77.285 E.01618
G1 X115.473 Y77.403 E.00392
G1 X115.371 Y77.571 E.00616
G1 X115.33 Y77.721 E.00488
G1 X114.811 Y78.252 E.02328
G1 X114.758 Y78.384 E.00446
G1 X114.577 Y78.487 E.00653
G1 X114.217 Y78.836 E.01572
G1 X114.049 Y78.892 E.00555
G1 X113.783 Y79.128 E.01115
G1 X113.642 Y79.17 E.00461
G1 X113.512 Y79.268 E.0051
G1 X113.391 Y79.3 E.00392
G1 X113.194 Y79.437 E.00752
G1 X112.985 Y79.439 E.00655
G1 X112.765 Y79.58 E.00819
G1 X112.422 Y79.581 E.01075
G1 X112.192 Y79.723 E.00848
G1 X111.1 Y79.723 E.03424
G1 X110.922 Y79.592 E.00693
G1 X110.671 Y79.58 E.00788
G1 X110.516 Y79.46 E.00615
G1 X110.099 Y79.437 E.01309
G1 X109.972 Y79.335 E.00511
G1 X109.855 Y79.294 E.00389
G1 X109.587 Y79.081 E.01073
G1 X109.258 Y78.906 E.01168
G1 X109.14 Y78.865 E.00392
G1 X108.845 Y78.628 E.01186
G1 X108.649 Y78.551 E.0066
G1 X108.138 Y78.052 E.02239
G1 X107.962 Y78.007 E.0057
G1 X107.701 Y77.77 E.01105
G1 X107.28 Y77.578 E.01451
M73 P4 R11
G1 X107.111 Y77.477 E.00617
G1 X106.993 Y77.436 E.00392
G1 X106.811 Y77.33 E.0066
G1 X106.491 Y77.307 E.01006
G1 X106.368 Y77.223 E.00467
G1 X106.222 Y77.195 E.00466
G1 X105.708 Y77.306 E.01649
G1 X105.592 Y77.234 E.00428
G1 X105.175 Y77.21 E.0131
M204 P1000
G1 E-2.24 F4200
;WIPE_START
G1 F7200
G1 X105.115 Y77.206 E-.03332
G1 X105.545 Y76.794 E-.33002
G1 X105.964 Y76.539 E-.27182
G1 X106.403 Y76.151 E-.32484
;WIPE_END
G1 Z.4 F720
G1 X113.43 Y72.04 F9000
G1 Z.2 F720
G1 E3.2 F2400
M204 P600
;TYPE:Solid infill
;WIDTH:0.42415
G1 F1200
G1 X114.562 Y73.172 E.05075
G1 X114.642 Y73.357 E.00639
G1 X114.824 Y73.568 E.00883
G1 X114.837 Y73.625 E.00185
G1 X114.938 Y73.786 E.00602
G1 X114.99 Y73.929 E.00482
G1 X115.049 Y74.025 E.00357
G1 X115.089 Y74.238 E.00687
G1 X112.732 Y71.882 E.10564
G1 X112.611 Y71.837 E.00409
G1 X112.469 Y71.747 E.00533
G1 X112.231 Y71.637 E.00831
G1 X112.086 Y71.619 E.00463
G1 X111.811 Y71.5 E.0095
G1 X115.328 Y75.017 E.15767
G1 X115.328 Y75.556 E.01709
G1 X111.38 Y71.608 E.17699
G1 X111.242 Y71.638 E.00448
G1 X111.046 Y71.642 E.00621
G1 X110.935 Y71.702 E.004
G1 X115.228 Y75.995 E.19245
G1 X115.187 Y76.197 E.00653
G1 X115.186 Y76.351 E.00488
G1 X115.133 Y76.439 E.00326
G1 X110.533 Y71.839 E.20622
G1 X110.395 Y71.89 E.00466
G1 X110.167 Y72.012 E.0082
G1 X114.959 Y76.804 E.21482
G1 X114.782 Y77.166 E.01277
G1 X109.821 Y72.206 E.22238
G1 X109.675 Y72.332 E.00611
G1 X109.489 Y72.412 E.00642
G1 X114.56 Y77.484 E.22735
G1 X114.294 Y77.757 E.01208
G1 X109.217 Y72.68 E.2276
G1 X109.02 Y72.879 E.00888
G1 X108.982 Y72.984 E.00354
G1 X114.024 Y78.026 E.22603
G1 X113.802 Y78.24 E.00977
G1 X113.726 Y78.267 E.00256
G1 X108.75 Y73.291 E.22307
G1 X108.736 Y73.352 E.00198
G1 X108.641 Y73.501 E.0056
G1 X108.579 Y73.659 E.00538
G1 X113.416 Y78.496 E.21684
G1 X113.047 Y78.667 E.01289
G1 X108.395 Y74.014 E.20857
G1 X108.361 Y74.208 E.00624
G1 X108.259 Y74.418 E.0074
G1 X112.647 Y78.805 E.19669
G1 X112.53 Y78.866 E.00418
G1 X112.199 Y78.896 E.01054
G1 X108.133 Y74.831 E.18226
G1 X107.944 Y75.181 E.01261
G1 X111.77 Y79.007 E.17152
G1 X111.327 Y79.007 E.01404
G1 X111.136 Y78.912 E.00676
G1 X107.773 Y75.549 E.15076
G1 X107.694 Y75.722 E.00603
G1 X107.564 Y75.879 E.00646
G1 X110.407 Y78.722 E.12745
G1 X110.335 Y78.721 E.00228
G1 X110.229 Y78.657 E.00393
G1 X110.168 Y78.643 E.00198
G1 X109.91 Y78.425 E.01071
G1 X109.679 Y78.329 E.00793
G1 X109.53 Y78.235 E.00558
G1 X109.459 Y78.218 E.00231
G1 X109.224 Y78.014 E.00986
G1 X109.125 Y77.979 E.00333
G1 X107.371 Y76.225 E.07863
G1 X107.103 Y76.496 E.01208
G1 X107.841 Y77.235 E.03311
M204 P1000
G1 E-2.24 F4200
;WIPE_START
G1 F7200
G1 X107.103 Y76.496 E-.57877
G1 X107.371 Y76.225 E-.21121
G1 X107.588 Y76.442 E-.17002
;WIPE_END
G1 Z.4 F720
G1 X89.999 Y111.347 F9000
G1 Z.2 F720
M73 P5 R11
G1 E3.2 F2400
M204 P600
;TYPE:Perimeter
;WIDTH:0.419999
G1 F1200
G1 X89.919 Y111.207 E.00506
G1 X89.811 Y110.881 E.01077
G1 X89.71 Y110.738 E.00549
G1 X88.841 Y109.843 E.03911
G1 X88.771 Y109.78 E.00295
G1 X88.544 Y109.687 E.00769
G1 X88.347 Y109.508 E.00835
G1 X88.122 Y109.407 E.00773
G1 X87.935 Y109.237 E.00792
G1 X87.54 Y109.021 E.01412
G1 X87.261 Y108.947 E.00905
G1 X87.092 Y108.867 E.00586
G1 X86.832 Y108.804 E.00839
G1 X86.659 Y108.722 E.006
G1 X86.403 Y108.661 E.00825
G1 X83.695 Y108.661 E.08491
G1 X83.598 Y108.669 E.00305
G1 X83.318 Y108.804 E.00975
G1 X82.234 Y108.804 E.03399
G1 X81.996 Y108.687 E.00832
G1 X81.827 Y108.661 E.00536
G1 X81.659 Y108.582 E.00582
G1 X81.398 Y108.518 E.00843
G1 X80.562 Y108.133 E.02886
G1 X80.25 Y107.832 E.01359
G1 X79.998 Y107.701 E.00891
G1 X79.714 Y107.427 E.01237
G1 X79.616 Y107.203 E.00767
G1 X79.267 Y106.838 E.01583
G1 X79.055 Y106.378 E.01588
G1 X79.016 Y106.183 E.00624
G1 X78.913 Y105.95 E.00799
G1 X78.874 Y105.759 E.00611
G1 X78.739 Y105.482 E.00966
G1 X78.738 Y104.966 E.01618
G1 X78.648 Y104.711 E.00848
G1 X78.737 Y104.477 E.00785
G1 X78.739 Y103.97 E.0159
G1 X78.852 Y103.746 E.00787
G1 X78.882 Y103.563 E.00581
G1 X79.409 Y102.444 E.03878
G1 X80.07 Y101.758 E.02987
G1 X80.161 Y101.519 E.00802
G1 X80.666 Y100.555 E.03412
G1 X80.741 Y100.273 E.00915
G1 X80.818 Y100.11 E.00565
G1 X80.884 Y99.844 E.00859
G1 X80.988 Y99.624 E.00763
G1 X81.027 Y99.251 E.01176
G1 X81.104 Y99.11 E.00504
G1 X81.17 Y98.843 E.00862
G1 X81.17 Y98.25 E.01859
G1 X81.291 Y98.001 E.00868
G1 X81.313 Y97.842 E.00503
G1 X81.307 Y96.197 E.05158
G1 X81.2 Y95.94 E.00873
G1 X81.163 Y95.758 E.00582
G1 X81.027 Y95.472 E.00993
G1 X81.027 Y94.389 E.03396
G1 X81.144 Y94.151 E.00832
G1 X81.17 Y93.817 E.0105
G1 X81.247 Y93.675 E.00506
G1 X81.313 Y93.409 E.00859
G1 X81.452 Y93.226 E.00721
G1 X81.708 Y92.706 E.01817
G1 X81.869 Y92.532 E.00743
G1 X81.992 Y92.274 E.00896
G1 X82.417 Y91.857 E.01867
G1 X82.528 Y91.83 E.00358
G1 X82.831 Y91.579 E.01234
G1 X82.933 Y91.556 E.00328
G1 X83.264 Y91.289 E.01333
G1 X83.453 Y91.21 E.00642
G1 X83.62 Y91.175 E.00535
G1 X83.882 Y91.067 E.00889
G1 X84.07 Y91.029 E.00601
G1 X84.349 Y90.894 E.00972
G1 X85.718 Y90.894 E.04292
G1 X85.977 Y91.017 E.00899
G1 X86.126 Y91.037 E.00471
G1 X86.299 Y91.119 E.006
G1 X86.555 Y91.18 E.00825
G1 X87.119 Y91.431 E.01936
G1 X87.31 Y91.605 E.0081
G1 X87.534 Y91.707 E.00772
G1 X88.236 Y92.409 E.03113
G1 X88.323 Y92.608 E.00681
G1 X88.532 Y92.849 E.01
G1 X88.754 Y93.32 E.01633
G1 X88.789 Y93.485 E.00529
G1 X88.897 Y93.749 E.00894
G1 X88.936 Y93.937 E.00602
G1 X89.07 Y94.216 E.0097
G1 X89.079 Y96.367 E.06744
G1 X89.183 Y96.609 E.00826
G1 X89.22 Y96.785 E.00564
G1 X89.326 Y97.038 E.0086
G1 X89.363 Y97.215 E.00567
G1 X89.543 Y97.639 E.01444
G1 X89.816 Y97.988 E.01389
G1 X89.838 Y98.09 E.00327
G1 X90.092 Y98.407 E.01274
G1 X90.114 Y98.518 E.00355
G1 X90.238 Y98.702 E.00696
G1 X91.204 Y99.65 E.04244
G1 X91.42 Y99.736 E.00729
G1 X91.6 Y99.899 E.00761
G1 X92.132 Y100.159 E.01857
G1 X92.275 Y100.287 E.00602
G1 X92.547 Y100.452 E.00997
G1 X93.138 Y100.578 E.01895
G1 X92.744 Y100.963 E.01727
G1 X92.68 Y101.132 E.00567
G1 X92.209 Y101.611 E.02106
G1 X91.722 Y102.57 E.03372
G1 X91.644 Y102.857 E.00933
G1 X91.54 Y103.078 E.00766
G1 X91.501 Y103.45 E.01173
G1 X91.424 Y103.591 E.00504
G1 X91.358 Y103.858 E.00862
G1 X91.372 Y106.121 E.07096
G1 X91.482 Y106.347 E.00788
G1 X91.504 Y106.625 E.00874
G1 X91.644 Y106.994 E.01237
G1 X91.713 Y107.266 E.0088
G1 X91.949 Y107.709 E.01574
G1 X92.161 Y108.169 E.01588
G1 X92.942 Y108.962 E.0349
G1 X92.715 Y108.972 E.00712
G1 X92.139 Y109.165 E.01905
G1 X91.852 Y109.402 E.01167
G1 X91.761 Y109.42 E.00291
G1 X91.424 Y109.683 E.0134
G1 X91.314 Y109.705 E.00352
G1 X91.125 Y109.833 E.00716
G1 X90.259 Y110.736 E.03923
G1 X90.152 Y110.883 E.0057
G1 X90.091 Y111.152 E.00865
G1 X90.025 Y111.292 E.00485
M204 P1000
G1 E-2.24 F4200
;WIPE_START
G1 F7200
G1 X89.999 Y111.347 E-.03371
G1 X89.919 Y111.207 E-.08936
G1 X89.811 Y110.881 E-.19031
G1 X89.71 Y110.738 E-.09702
G1 X89.019 Y110.027 E-.5496
;WIPE_END
G1 Z.4 F720
G1 X94.289 Y100.286 F9000
G1 Z.2 F720
G1 E3.2 F2400
M204 P600
;TYPE:External perimeter
;WIDTH:0.601112
G1 F1200
G1 X94.396 Y100.26 E.00511
;WIDTH:0.557474
G1 X94.503 Y100.234 E.00471
;WIDTH:0.513836
G1 X94.609 Y100.207 E.00428
;WIDTH:0.470197
G1 X94.716 Y100.181 E.00391
;WIDTH:0.426559
G1 X94.823 Y100.155 E.00351
;WIDTH:0.38292
G1 X95.37 Y100.064 E.01568
M204 P1000
G1 E-2.24 F4200
;WIPE_START
G1 F7200
G1 X94.823 Y100.155 E-.3073
G1 X94.716 Y100.181 E-.06102
G1 X94.609 Y100.207 E-.06102
G1 X94.503 Y100.234 E-.06062
G1 X94.396 Y100.26 E-.06102
G1 X94.289 Y100.286 E-.06102
;WIPE_END
G1 E-.348 F4200
G1 Z.4 F720
G1 X89.982 Y112.079 F9000
G1 Z.2 F720
G1 E3.2 F2400
M204 P600
;WIDTH:0.607692
G1 F1200
G1 X89.918 Y112.001 E.00474
;WIDTH:0.560769
G1 X89.854 Y111.923 E.00434
;WIDTH:0.513846
G1 X89.789 Y111.845 E.00398
;WIDTH:0.466923
G1 X89.725 Y111.767 E.00356
;WIDTH:0.419999
G1 X89.699 Y111.592 E.00555
G1 X89.487 Y111.24 E.01288
G1 X89.493 Y111.143 E.00305
G1 X89.442 Y111.003 E.00467
G1 X88.571 Y110.106 E.0392
G1 X88.55 Y110.086 E.00091
G1 X88.371 Y110.039 E.0058
G1 X88.11 Y109.802 E.01105
G1 X87.942 Y109.753 E.00549
G1 X87.681 Y109.516 E.01105
G1 X87.555 Y109.467 E.00424
G1 X87.363 Y109.354 E.00699
G1 X87.077 Y109.324 E.00902
G1 X86.918 Y109.202 E.00628
G1 X86.647 Y109.181 E.00852
G1 X86.52 Y109.079 E.00511
G1 X86.403 Y109.038 E.00389
G1 X83.695 Y109.038 E.08491
G1 X83.45 Y109.181 E.00889
G1 X82.071 Y109.181 E.04324
G1 X81.883 Y109.047 E.00724
G1 X81.643 Y109.038 E.00753
G1 X81.485 Y108.916 E.00626
G1 X81.213 Y108.895 E.00855
G1 X81.086 Y108.793 E.00511
G1 X80.969 Y108.752 E.00389
G1 X80.514 Y108.507 E.0162
G1 X80.363 Y108.466 E.00491
G1 X80.002 Y108.117 E.01574
G1 X79.785 Y108.039 E.00723
G1 X79.399 Y107.644 E.01732
G1 X79.348 Y107.483 E.0053
G1 X78.934 Y107.004 E.01985
G1 X78.817 Y106.791 E.00762
