; generated by PrusaSlicer 2.7.4 on 2024-10-19 at 23:21:54 UTC


;
;

;
;
; 

; external perimeters extrusion width = 0.45mm
; perimeters extrusion width = 0.45mm
; infill extrusion width = 0.45mm
; solid infill extrusion width = 0.45mm
; top infill extrusion width = 0.40mm
; first layer extrusion width = 0.42mm

M73 P0 R191
M201 X2500 Y2500 Z400 E5000 ; sets maximum accelerations, mm/sec^2
M203 X180 Y180 Z12 E80 ; sets maximum feedrates, mm / sec
M204 P2000 R1250 T2500 ; sets acceleration (P, T) and retract acceleration (R), mm/sec^2
M205 X8.00 Y8.00 Z2.00 E10.00 ; sets the jerk limits, mm/sec
M205 S0 T0 ; sets the minimum extruding and travel feed rate, mm/sec

; printing object binary_black.stl id:0 copy 0
; stop printing object binary_black.stl id:0 copy 0

;TYPE:Custom
M862.3 P "MINI" ; printer model check
G90 ; use absolute coordinates
M83 ; extruder relative mode
M104 S170 ; set extruder temp for bed leveling
M140 S60 ; set bed temp
M109 R170 ; wait for bed leveling temp
M190 S60 ; wait for bed temp
M204 T1250 ; set travel acceleration
G28 ; home all without mesh bed level
G29 ; mesh bed leveling 
M204 T2500 ; restore travel acceleration
M104 S215 ; set extruder temp
G92 E0
G1 Y-2 X179 F2400
G1 Z3 F720
M109 S215 ; wait for extruder temp

; intro line
G1 X170 F1000
G1 Z0.2 F720
G1 X110 E8 F900
G1 X40 E10 F700
G92 E0

M221 S95 ; set flow
G21 ; set units to millimeters
G90 ; use absolute coordinates
M83 ; use relative distances for extrusion
M900 K0.2 ; Filament gcode LA 1.5
; ; Filament gcode LA 1.0
M107
;LAYER_CHANGE
;Z:0.2
;HEIGHT:0.2
G1 E-3.2 F4200
G1 Z.4 F720
G1 X16.515 Y17.193 F9000
G1 Z.2 F720
G1 E3.2 F2400
M204 P600
;TYPE:Skirt/Brim
;WIDTH:0.42
G1 F1200
G1 X17.56 Y16.317 E.04275
G1 X18.5 Y16.123 E.03009
G1 X161.5 Y16.123 E4.48366
G1 X162.807 Y16.515 E.04278
G1 X163.683 Y17.56 E.04275
G1 X163.877 Y18.5 E.03009
G1 X163.877 Y161.5 E4.48366
G1 X163.485 Y162.807 E.04278
G1 X162.44 Y163.683 E.04275
G1 X161.5 Y163.877 E.03009
G1 X18.5 Y163.877 E4.48366
G1 X17.193 Y163.485 E.04278
G1 X16.317 Y162.44 E.04275
G1 X16.123 Y161.5 E.03009
G1 X16.123 Y18.5 E4.48366
G1 X16.497 Y17.25 E.04091
M204 P1000
G1 E-2.24 F4200
;WIPE_START
G1 F7200
G1 X16.515 Y17.193 E-.03313
G1 X17.56 Y16.317 E-.75566
G1 X17.863 Y16.255 E-.17121
;WIPE_END
G1 Z.4 F720
; printing object binary_black.stl id:0 copy 0
G1 X160.713 Y160.713 F9000
G1 Z.2 F720
G1 E3.2 F2400
M204 P600
;TYPE:Perimeter
;WIDTH:0.419999
G1 F1200
G1 X19.287 Y160.713 E4.43431
G1 X19.287 Y19.287 E4.43431
M73 P0 R190
G1 X160.713 Y19.287 E4.43431
G1 X160.713 Y90 E2.21715
G1 X160.713 Y160.653 E2.21527
M204 P1000
G1 X161.09 Y161.09 F9000
M204 P600
;TYPE:External perimeter
G1 F1200
G1 X18.91 Y161.09 E4.45795
G1 X18.91 Y18.91 E4.45795
G1 X161.09 Y18.91 E4.45795
G1 X161.09 Y90 E2.22897
G1 X161.09 Y161.03 E2.22709
M204 P1000
G1 E-2.24 F4200
;WIPE_START
G1 F7200
G1 X161.09 Y161.09 E-.03325
G1 X159.418 Y161.09 E-.92675
;WIPE_END
G1 Z.4 F720
G1 X160.543 Y20.219 F9000
G1 Z.2 F720
G1 E3.2 F2400
M204 P600
;TYPE:Solid infill
;WIDTH:0.420197
G1 F1200
G1 X159.95 Y19.626 E.02631
G1 X159.417 Y19.626 E.01672
G1 X160.374 Y20.583 E.04246
G1 X160.374 Y21.117 E.01675
G1 X158.883 Y19.626 E.06615
G1 X158.35 Y19.626 E.01672
G1 X160.374 Y21.65 E.08979
G1 X160.374 Y22.184 E.01675
G1 X157.816 Y19.626 E.11349
G1 X157.282 Y19.626 E.01675
G1 X160.374 Y22.718 E.13718
G1 X160.374 Y23.251 E.01672
G1 X156.749 Y19.626 E.16082
G1 X156.215 Y19.626 E.01675
G1 X160.374 Y23.785 E.18451
G1 X160.374 Y24.318 E.01672
G1 X155.682 Y19.626 E.20816
G1 X155.148 Y19.626 E.01675
G1 X160.374 Y24.852 E.23185
G1 X160.374 Y25.385 E.01672
G1 X154.615 Y19.626 E.2555
G1 X154.081 Y19.626 E.01675
G1 X160.374 Y25.919 E.27919
G1 X160.374 Y26.452 E.01672
G1 X153.548 Y19.626 E.30283
G1 X153.014 Y19.626 E.01675
G1 X160.374 Y26.986 E.32653
G1 X160.374 Y27.519 E.01672
G1 X152.481 Y19.626 E.35017
G1 X151.947 Y19.626 E.01675
G1 X160.374 Y28.053 E.37386
G1 X160.374 Y28.587 E.01675
G1 X151.413 Y19.626 E.39755
G1 X150.88 Y19.626 E.01672
M73 P0 R189
G1 X160.374 Y29.12 E.4212
G1 X160.374 Y29.654 E.01675
G1 X150.346 Y19.626 E.44489
G1 X149.813 Y19.626 E.01672
G1 X160.374 Y30.187 E.46854
G1 X160.374 Y30.721 E.01675
G1 X149.279 Y19.626 E.49223
G1 X148.746 Y19.626 E.01672
G1 X160.374 Y31.254 E.51587
G1 X160.374 Y31.788 E.01675
M73 P1 R189
G1 X148.212 Y19.626 E.53957
G1 X147.679 Y19.626 E.01672
G1 X160.374 Y32.321 E.56321
G1 X160.374 Y32.855 E.01675
G1 X147.145 Y19.626 E.5869
G1 X146.611 Y19.626 E.01675
G1 X160.374 Y33.389 E.61059
G1 X160.374 Y33.922 E.01672
G1 X146.078 Y19.626 E.63424
G1 X145.544 Y19.626 E.01675
G1 X160.374 Y34.456 E.65793
G1 X160.374 Y34.989 E.01672
G1 X145.011 Y19.626 E.68158
G1 X144.477 Y19.626 E.01675
G1 X160.374 Y35.523 E.70527
G1 X160.374 Y36.056 E.01672
G1 X143.944 Y19.626 E.72892
G1 X143.41 Y19.626 E.01675
G1 X160.374 Y36.59 E.75261
G1 X160.374 Y37.123 E.01672
G1 X142.877 Y19.626 E.77625
G1 X142.343 Y19.626 E.01675
G1 X160.374 Y37.657 E.79994
G1 X160.374 Y38.19 E.01672
G1 X141.81 Y19.626 E.82359
G1 X141.276 Y19.626 E.01675
G1 X160.374 Y38.724 E.84728
G1 X160.374 Y39.258 E.01675
G1 X140.742 Y19.626 E.87097
G1 X140.209 Y19.626 E.01672
G1 X160.374 Y39.791 E.89462
G1 X160.374 Y40.325 E.01675
G1 X139.675 Y19.626 E.91831
G1 X139.142 Y19.626 E.01672
G1 X160.374 Y40.858 E.94196
G1 X160.374 Y41.392 E.01675
G1 X138.608 Y19.626 E.96565
G1 X138.075 Y19.626 E.01672
G1 X160.374 Y41.925 E.98929
G1 X160.374 Y42.459 E.01675
G1 X137.541 Y19.626 E1.01298
G1 X137.008 Y19.626 E.01672
G1 X160.374 Y42.992 E1.03663
G1 X160.374 Y43.526 E.01675
G1 X136.474 Y19.626 E1.06032
G1 X135.94 Y19.626 E.01675
G1 X160.374 Y44.06 E1.08401
G1 X160.374 Y44.593 E.01672
G1 X135.407 Y19.626 E1.10766
G1 X134.873 Y19.626 E.01675
G1 X160.374 Y45.127 E1.13135
G1 X160.374 Y45.66 E.01672
G1 X134.34 Y19.626 E1.155
G1 X133.806 Y19.626 E.01675
G1 X160.374 Y46.194 E1.17869
G1 X160.374 Y46.727 E.01672
G1 X133.273 Y19.626 E1.20233
G1 X132.739 Y19.626 E.01675
G1 X160.374 Y47.261 E1.22602
G1 X160.374 Y47.794 E.01672
G1 X132.206 Y19.626 E1.24967
G1 X131.672 Y19.626 E.01675
G1 X160.374 Y48.328 E1.27336
G1 X160.374 Y48.861 E.01672
G1 X131.139 Y19.626 E1.29701
G1 X130.605 Y19.626 E.01675
G1 X160.374 Y49.395 E1.3207
G1 X160.374 Y49.929 E.01675
G1 X130.071 Y19.626 E1.34439
G1 X129.538 Y19.626 E.01672
G1 X160.374 Y50.462 E1.36804
G1 X160.374 Y50.996 E.01675
M73 P1 R188
G1 X129.004 Y19.626 E1.39173
G1 X128.471 Y19.626 E.01672
G1 X160.374 Y51.529 E1.41537
G1 X160.374 Y52.063 E.01675
G1 X127.937 Y19.626 E1.43906
G1 X127.404 Y19.626 E.01672
G1 X160.374 Y52.596 E1.46271
G1 X160.374 Y53.13 E.01675
G1 X126.87 Y19.626 E1.4864
G1 X126.337 Y19.626 E.01672
G1 X160.374 Y53.663 E1.51005
G1 X160.374 Y54.197 E.01675
G1 X125.803 Y19.626 E1.53374
G1 X125.269 Y19.626 E.01675
G1 X160.374 Y54.731 E1.55743
G1 X160.374 Y55.264 E.01672
G1 X124.736 Y19.626 E1.58108
G1 X124.202 Y19.626 E.01675
G1 X160.374 Y55.798 E1.60477
G1 X160.374 Y56.331 E.01672
G1 X123.669 Y19.626 E1.62841
G1 X123.135 Y19.626 E.01675
G1 X160.374 Y56.865 E1.6521
G1 X160.374 Y57.398 E.01672
G1 X122.602 Y19.626 E1.67575
G1 X122.068 Y19.626 E.01675
G1 X160.374 Y57.932 E1.69944
G1 X160.374 Y58.465 E.01672
G1 X121.535 Y19.626 E1.72309
G1 X121.001 Y19.626 E.01675
G1 X160.374 Y58.999 E1.74678
G1 X160.374 Y59.532 E.01672
G1 X120.468 Y19.626 E1.77042
G1 X119.934 Y19.626 E.01675
G1 X160.374 Y60.066 E1.79412
G1 X160.374 Y60.6 E.01675
G1 X119.4 Y19.626 E1.81781
G1 X118.867 Y19.626 E.01672
G1 X160.374 Y61.133 E1.84145
G1 X160.374 Y61.667 E.01675
G1 X118.333 Y19.626 E1.86514
G1 X117.8 Y19.626 E.01672
G1 X160.374 Y62.2 E1.88879
G1 X160.374 Y62.734 E.01675
M73 P2 R188
G1 X117.266 Y19.626 E1.91248
G1 X116.733 Y19.626 E.01672
M73 P2 R187
G1 X160.374 Y63.267 E1.93613
G1 X160.374 Y63.801 E.01675
G1 X116.199 Y19.626 E1.95982
G1 X115.666 Y19.626 E.01672
G1 X160.374 Y64.334 E1.98347
G1 X160.374 Y64.868 E.01675
G1 X115.132 Y19.626 E2.00716
G1 X114.598 Y19.626 E.01675
G1 X160.374 Y65.402 E2.03085
G1 X160.374 Y65.935 E.01672
G1 X114.065 Y19.626 E2.05449
G1 X113.531 Y19.626 E.01675
G1 X160.374 Y66.469 E2.07818
G1 X160.374 Y67.002 E.01672
G1 X112.998 Y19.626 E2.10183
G1 X112.464 Y19.626 E.01675
G1 X160.374 Y67.536 E2.12552
G1 X160.374 Y68.069 E.01672
G1 X111.931 Y19.626 E2.14917
G1 X111.397 Y19.626 E.01675
G1 X160.374 Y68.603 E2.17286
G1 X160.374 Y69.136 E.01672
G1 X110.864 Y19.626 E2.19651
G1 X110.33 Y19.626 E.01675
G1 X160.374 Y69.67 E2.2202
G1 X160.374 Y70.203 E.01672
G1 X109.797 Y19.626 E2.24384
G1 X109.263 Y19.626 E.01675
G1 X160.374 Y70.737 E2.26753
G1 X160.374 Y71.271 E.01675
G1 X108.729 Y19.626 E2.29122
G1 X108.196 Y19.626 E.01672
G1 X160.374 Y71.804 E2.31487
G1 X160.374 Y72.338 E.01675
M73 P2 R186
G1 X107.662 Y19.626 E2.33856
G1 X107.129 Y19.626 E.01672
G1 X160.374 Y72.871 E2.36221
G1 X160.374 Y73.405 E.01675
G1 X106.595 Y19.626 E2.3859
G1 X106.062 Y19.626 E.01672
G1 X160.374 Y73.938 E2.40955
G1 X160.374 Y74.472 E.01675
G1 X105.528 Y19.626 E2.43324
G1 X104.995 Y19.626 E.01672
G1 X160.374 Y75.005 E2.45688
G1 X160.374 Y75.539 E.01675
G1 X104.461 Y19.626 E2.48057
G1 X103.927 Y19.626 E.01675
G1 X160.374 Y76.073 E2.50426
G1 X160.374 Y76.606 E.01672
G1 X103.394 Y19.626 E2.52791
G1 X102.86 Y19.626 E.01675
G1 X160.374 Y77.14 E2.5516
G1 X160.374 Y77.673 E.01672
G1 X102.327 Y19.626 E2.57525
G1 X101.793 Y19.626 E.01675
G1 X160.374 Y78.207 E2.59894
G1 X160.374 Y78.74 E.01672
G1 X101.26 Y19.626 E2.62259
G1 X100.726 Y19.626 E.01675
G1 X160.374 Y79.274 E2.64628
G1 X160.374 Y79.807 E.01672
M73 P3 R186
G1 X100.193 Y19.626 E2.66992
G1 X99.659 Y19.626 E.01675
M73 P3 R185
G1 X160.374 Y80.341 E2.69361
G1 X160.374 Y80.874 E.01672
G1 X99.126 Y19.626 E2.71726
G1 X98.592 Y19.626 E.01675
G1 X160.374 Y81.408 E2.74095
G1 X160.374 Y81.942 E.01675
G1 X98.058 Y19.626 E2.76464
G1 X97.525 Y19.626 E.01672
G1 X160.374 Y82.475 E2.78829
G1 X160.374 Y83.009 E.01675
G1 X96.991 Y19.626 E2.81198
G1 X96.458 Y19.626 E.01672
G1 X160.374 Y83.542 E2.83563
G1 X160.374 Y84.076 E.01675
G1 X95.924 Y19.626 E2.85932
G1 X95.391 Y19.626 E.01672
G1 X160.374 Y84.609 E2.88296
G1 X160.374 Y85.143 E.01675
G1 X94.857 Y19.626 E2.90665
G1 X94.324 Y19.626 E.01672
G1 X160.374 Y85.676 E2.9303
G1 X160.374 Y86.21 E.01675
G1 X93.79 Y19.626 E2.95399
G1 X93.256 Y19.626 E.01675
G1 X160.374 Y86.744 E2.97768
G1 X160.374 Y87.277 E.01672
M73 P3 R184
G1 X92.723 Y19.626 E3.00133
G1 X92.189 Y19.626 E.01675
G1 X160.374 Y87.811 E3.02502
G1 X160.374 Y88.344 E.01672
G1 X91.656 Y19.626 E3.04867
G1 X91.122 Y19.626 E.01675
G1 X160.374 Y88.878 E3.07236
G1 X160.374 Y89.411 E.01672
G1 X90.589 Y19.626 E3.096
G1 X90.055 Y19.626 E.01675
G1 X160.374 Y89.945 E3.11969
G1 X160.374 Y90.478 E.01672
G1 X89.522 Y19.626 E3.14334
G1 X88.988 Y19.626 E.01675
G1 X160.374 Y91.012 E3.16703
G1 X160.374 Y91.546 E.01675
G1 X88.455 Y19.626 E3.1907
G1 X87.921 Y19.626 E.01675
G1 X160.374 Y92.079 E3.21437
G1 X160.374 Y92.613 E.01675
M73 P4 R184
G1 X87.387 Y19.626 E3.23806
G1 X86.854 Y19.626 E.01672
G1 X160.374 Y93.146 E3.26171
G1 X160.374 Y93.68 E.01675
M73 P4 R183
G1 X86.32 Y19.626 E3.2854
G1 X85.787 Y19.626 E.01672
G1 X160.374 Y94.213 E3.30904
G1 X160.374 Y94.747 E.01675
G1 X85.253 Y19.626 E3.33273
G1 X84.72 Y19.626 E.01672
G1 X160.374 Y95.28 E3.35638
G1 X160.374 Y95.814 E.01675
G1 X84.186 Y19.626 E3.38007
G1 X83.653 Y19.626 E.01672
G1 X160.374 Y96.347 E3.40372
G1 X160.374 Y96.881 E.01675
G1 X83.119 Y19.626 E3.42741
G1 X82.585 Y19.626 E.01675
G1 X160.374 Y97.415 E3.4511
G1 X160.374 Y97.948 E.01672
G1 X82.052 Y19.626 E3.47475
G1 X81.518 Y19.626 E.01675
G1 X160.374 Y98.482 E3.49844
G1 X160.374 Y99.015 E.01672
G1 X80.985 Y19.626 E3.52208
G1 X80.451 Y19.626 E.01675
M73 P4 R182
G1 X160.374 Y99.549 E3.54577
G1 X160.374 Y100.082 E.01672
G1 X79.918 Y19.626 E3.56942
G1 X79.384 Y19.626 E.01675
G1 X160.374 Y100.616 E3.59311
G1 X160.374 Y101.149 E.01672
G1 X78.851 Y19.626 E3.61676
G1 X78.317 Y19.626 E.01675
G1 X160.374 Y101.683 E3.64045
G1 X160.374 Y102.217 E.01675
G1 X77.783 Y19.626 E3.66414
G1 X77.25 Y19.626 E.01672
G1 X160.374 Y102.75 E3.68779
G1 X160.374 Y103.284 E.01675
G1 X76.716 Y19.626 E3.71148
G1 X76.183 Y19.626 E.01672
M73 P5 R182
G1 X160.374 Y103.817 E3.73512
G1 X160.374 Y104.351 E.01675
G1 X75.649 Y19.626 E3.75881
G1 X75.116 Y19.626 E.01672
G1 X160.374 Y104.884 E3.78246
G1 X160.374 Y105.418 E.01675
M73 P5 R181
G1 X74.582 Y19.626 E3.80615
G1 X74.049 Y19.626 E.01672
G1 X160.374 Y105.951 E3.8298
G1 X160.374 Y106.485 E.01675
G1 X73.515 Y19.626 E3.85349
G1 X72.982 Y19.626 E.01672
G1 X160.374 Y107.018 E3.87714
G1 X160.374 Y107.552 E.01675
G1 X72.448 Y19.626 E3.90083
G1 X71.914 Y19.626 E.01675
G1 X160.374 Y108.086 E3.92452
G1 X160.374 Y108.619 E.01672
G1 X71.381 Y19.626 E3.94816
G1 X70.847 Y19.626 E.01675
G1 X160.374 Y109.153 E3.97185
G1 X160.374 Y109.686 E.01672
G1 X70.314 Y19.626 E3.9955
G1 X69.78 Y19.626 E.01675
M73 P5 R180
G1 X160.374 Y110.22 E4.01919
G1 X160.374 Y110.753 E.01672
G1 X69.247 Y19.626 E4.04284
G1 X68.713 Y19.626 E.01675
G1 X160.374 Y111.287 E4.06653
G1 X160.374 Y111.82 E.01672
G1 X68.18 Y19.626 E4.09018
G1 X67.646 Y19.626 E.01675
G1 X160.374 Y112.354 E4.11387
G1 X160.374 Y112.888 E.01675
G1 X67.112 Y19.626 E4.13756
G1 X66.579 Y19.626 E.01672
M73 P6 R180
G1 X160.374 Y113.421 E4.1612
G1 X160.374 Y113.955 E.01675
G1 X66.045 Y19.626 E4.18489
G1 X65.512 Y19.626 E.01672
G1 X160.374 Y114.488 E4.20854
G1 X160.374 Y115.022 E.01675
M73 P6 R179
G1 X64.978 Y19.626 E4.23223
G1 X64.445 Y19.626 E.01672
G1 X160.374 Y115.555 E4.25588
G1 X160.374 Y116.089 E.01675
G1 X63.911 Y19.626 E4.27957
G1 X63.378 Y19.626 E.01672
G1 X160.374 Y116.622 E4.30322
G1 X160.374 Y117.156 E.01675
G1 X62.844 Y19.626 E4.32691
G1 X62.311 Y19.626 E.01672
G1 X160.374 Y117.689 E4.35055
G1 X160.374 Y118.223 E.01675
G1 X61.777 Y19.626 E4.37424
G1 X61.243 Y19.626 E.01675
G1 X160.374 Y118.757 E4.39794
G1 X160.374 Y119.29 E.01672
G1 X60.71 Y19.626 E4.42158
G1 X60.176 Y19.626 E.01675
M73 P6 R178
G1 X160.374 Y119.824 E4.44527
G1 X160.374 Y120.357 E.01672
G1 X59.643 Y19.626 E4.46892
G1 X59.109 Y19.626 E.01675
G1 X160.374 Y120.891 E4.49261
G1 X160.374 Y121.424 E.01672
G1 X58.576 Y19.626 E4.51626
G1 X58.042 Y19.626 E.01675
G1 X160.374 Y121.958 E4.53995
G1 X160.374 Y122.491 E.01672
M73 P7 R178
G1 X57.509 Y19.626 E4.56359
G1 X56.975 Y19.626 E.01675
G1 X160.374 Y123.025 E4.58728
G1 X160.374 Y123.559 E.01675
G1 X56.441 Y19.626 E4.61098
G1 X55.908 Y19.626 E.01672
M73 P7 R177
G1 X160.374 Y124.092 E4.63462
G1 X160.374 Y124.626 E.01675
G1 X55.374 Y19.626 E4.65831
G1 X54.841 Y19.626 E.01672
G1 X160.374 Y125.159 E4.68196
G1 X160.374 Y125.693 E.01675
G1 X54.307 Y19.626 E4.70565
G1 X53.774 Y19.626 E.01672
G1 X160.374 Y126.226 E4.7293
G1 X160.374 Y126.76 E.01675
G1 X53.24 Y19.626 E4.75299
G1 X52.707 Y19.626 E.01672
G1 X160.374 Y127.293 E4.77663
G1 X160.374 Y127.827 E.01675
G1 X52.173 Y19.626 E4.80032
G1 X51.64 Y19.626 E.01672
M73 P7 R176
G1 X160.374 Y128.36 E4.82397
G1 X160.374 Y128.894 E.01675
G1 X51.106 Y19.626 E4.84766
G1 X50.572 Y19.626 E.01675
G1 X160.374 Y129.428 E4.87135
G1 X160.374 Y129.961 E.01672
G1 X50.039 Y19.626 E4.895
G1 X49.505 Y19.626 E.01675
M73 P8 R176
G1 X160.374 Y130.495 E4.91869
G1 X160.374 Y131.028 E.01672
G1 X48.972 Y19.626 E4.94234
G1 X48.438 Y19.626 E.01675
G1 X160.374 Y131.562 E4.96603
G1 X160.374 Y132.095 E.01672
G1 X47.905 Y19.626 E4.98967
G1 X47.371 Y19.626 E.01675
M73 P8 R175
G1 X160.374 Y132.629 E5.01336
G1 X160.374 Y133.162 E.01672
G1 X46.838 Y19.626 E5.03701
G1 X46.304 Y19.626 E.01675
G1 X160.374 Y133.696 E5.0607
G1 X160.374 Y134.23 E.01675
G1 X45.77 Y19.626 E5.08439
G1 X45.237 Y19.626 E.01672
G1 X160.374 Y134.763 E5.10804
G1 X160.374 Y135.297 E.01675
G1 X44.703 Y19.626 E5.13173
G1 X44.17 Y19.626 E.01672
G1 X160.374 Y135.83 E5.15538
G1 X160.374 Y136.364 E.01675
M73 P8 R174
G1 X43.636 Y19.626 E5.17907
G1 X43.103 Y19.626 E.01672
G1 X160.374 Y136.897 E5.20271
G1 X160.374 Y137.431 E.01675
G1 X42.569 Y19.626 E5.2264
G1 X42.036 Y19.626 E.01672
M73 P9 R174
G1 X160.374 Y137.964 E5.25005
G1 X160.374 Y138.498 E.01675
G1 X41.502 Y19.626 E5.27374
G1 X40.969 Y19.626 E.01672
G1 X160.374 Y139.031 E5.29739
G1 X160.374 Y139.565 E.01675
G1 X40.435 Y19.626 E5.32108
G1 X39.901 Y19.626 E.01675
