; generated by PrusaSlicer 2.7.4 on 2024-10-19 at 16:47:20 UTC


;
;

;
;
; 

; external perimeters extrusion width = 0.45mm
; perimeters extrusion width = 0.45mm
; infill extrusion width = 0.45mm
; solid infill extrusion width = 0.45mm
; top infill extrusion width = 0.40mm
; first layer extrusion width = 0.42mm

M73 P0 R92
M201 X2500 Y2500 Z400 E5000 ; sets maximum accelerations, mm/sec^2
M203 X180 Y180 Z12 E80 ; sets maximum feedrates, mm / sec
M204 P2000 R1250 T2500 ; sets acceleration (P, T) and retract acceleration (R), mm/sec^2
M205 X8.00 Y8.00 Z2.00 E10.00 ; sets the jerk limits, mm/sec
M205 S0 T0 ; sets the minimum extruding and travel feed rate, mm/sec

; printing object binary_black.stl id:0 copy 0
; stop printing object binary_black.stl id:0 copy 0

;TYPE:Custom
M862.3 P "MINI" ; printer model check
G90 ; use absolute coordinates
M83 ; extruder relative mode
M104 S170 ; set extruder temp for bed leveling
M140 S60 ; set bed temp
M109 R170 ; wait for bed leveling temp
M190 S60 ; wait for bed temp
M204 T1250 ; set travel acceleration
G28 ; home all without mesh bed level
G29 ; mesh bed leveling 
M204 T2500 ; restore travel acceleration
M104 S215 ; set extruder temp
G92 E0
G1 Y-2 X179 F2400
G1 Z3 F720
M109 S215 ; wait for extruder temp

; intro line
G1 X170 F1000
G1 Z0.2 F720
G1 X110 E8 F900
G1 X40 E10 F700
G92 E0

M221 S95 ; set flow
G21 ; set units to millimeters
G90 ; use absolute coordinates
M83 ; use relative distances for extrusion
M900 K0.2 ; Filament gcode LA 1.5
; ; Filament gcode LA 1.0
M107
;LAYER_CHANGE
;Z:0.2
;HEIGHT:0.2
G1 E-3.2 F4200
G1 Z.4 F720
G1 X31.284 Y31.284 F9000
G1 Z.2 F720
G1 E3.2 F2400
M204 P600
;TYPE:Skirt/Brim
;WIDTH:0.42
G1 F1200
G1 X31.341 Y31.227 E.00253
G1 X33.022 Y30.53 E.05706
G1 X146.943 Y30.53 E3.57191
G1 X148.623 Y31.226 E.05702
G1 X148.737 Y31.34 E.00505
G1 X149.434 Y33.022 E.05709
G1 X149.434 Y146.943 E3.57191
G1 X148.738 Y148.623 E.05702
G1 X148.623 Y148.738 E.0051
G1 X146.943 Y149.434 E.05702
G1 X33.022 Y149.434 E3.57191
G1 X31.34 Y148.737 E.05709
G1 X31.226 Y148.623 E.00505
G1 X30.53 Y146.943 E.05702
G1 X30.53 Y33.022 E3.57191
G1 X31.227 Y31.341 E.05706
G1 X31.241 Y31.326 E.00064
M204 P1000
G1 E-2.24 F4200
;WIPE_START
G1 F7200
G1 X31.284 Y31.284 E-.03331
G1 X31.341 Y31.227 E-.04467
G1 X32.811 Y30.618 E-.88202
;WIPE_END
G1 Z.4 F720
; printing object binary_black.stl id:0 copy 0
G1 X47.297 Y137.994 F9000
G1 Z.2 F720
G1 E3.2 F2400
M204 P600
;TYPE:External perimeter
;WIDTH:0.480272
G1 F1200
G1 X47.305 Y137.517 E.01735
M204 P1000
G1 X47.305 Y137.517 F9000
G1 X47.501 Y136.85
M204 P600
;WIDTH:0.4601
G1 F1200
G1 X47.543 Y136.86 E.0015
;WIDTH:0.415021
G1 X47.585 Y136.87 E.00134
;WIDTH:0.392386
G1 X48.162 Y136.922 E.01683
;WIDTH:0.411075
G1 X48.299 Y136.872 E.00446
G1 X48.421 Y137.005 E.00552
G1 X48.468 Y137.124 E.00392
G1 X48.468 Y137.291 E.00511
G1 X48.367 Y137.391 E.00435
G1 X48.171 Y137.278 E.00693
;WIDTH:0.398153
G1 X47.957 Y137.181 E.00694
;WIDTH:0.391972
G1 X47.781 Y137.171 E.00512
;WIDTH:0.426036
G1 X47.605 Y137.162 E.00561
;WIDTH:0.4601
G1 X47.429 Y137.152 E.00612
G1 X47.322 Y137.327 E.00712
;WIDTH:0.480272
G1 X47.305 Y137.517 E.00694
G1 X47.23 Y137.367 E.0061
;WIDTH:0.458815
G1 X47.018 Y137.179 E.0098
;WIDTH:0.435675
G1 X46.996 Y137.059 E.00398
;WIDTH:0.4601
G1 X47.136 Y136.89 E.00761
G1 X47.13 Y136.811 E.00275
;WIDTH:0.43383
G1 X47.125 Y136.732 E.00257
;WIDTH:0.40756
G1 X47.125 Y135.84 E.02705
G1 X47.49 Y136.195 E.01544
G1 X47.49 Y136.285 E.00273
;WIDTH:0.43383
G1 X47.495 Y136.567 E.00917
;WIDTH:0.4601
G1 X47.499 Y136.79 E.00774
M204 P1000
G1 E-2.24 F4200
;WIPE_START
G1 F7200
G1 X47.501 Y136.85 E-.03327
G1 X47.543 Y136.86 E-.02393
G1 X47.585 Y136.87 E-.02393
G1 X48.162 Y136.922 E-.32105
G1 X48.299 Y136.872 E-.08082
G1 X48.421 Y137.005 E-.10002
G1 X48.468 Y137.124 E-.0709
G1 X48.468 Y137.291 E-.09255
G1 X48.367 Y137.391 E-.07876
G1 X48.171 Y137.278 E-.12538
G1 X48.156 Y137.271 E-.00939
;WIPE_END
G1 Z.4 F720
G1 X44.819 Y134.039 F9000
G1 Z.2 F720
G1 E3.2 F2400
M204 P600
;TYPE:Perimeter
;WIDTH:0.361943
G1 F1200
G1 X44.71 Y134.266 E.00668
G1 X44.432 Y134.435 E.00863
;WIDTH:0.36124
G1 X44.209 Y134.313 E.00673
;WIDTH:0.361943
G1 X44.651 Y133.871 E.01658
G1 X44.776 Y133.997 E.00471
M204 P1000
G1 X44.776 Y133.997 F9000
G1 X45.174 Y134.146
M204 P600
;TYPE:External perimeter
;WIDTH:0.419999
G1 F1200
G1 X45.109 Y134.232 E.00338
G1 X45.019 Y134.453 E.00748
G1 X44.883 Y134.581 E.00586
G1 X44.436 Y134.835 E.01612
G1 X44.28 Y134.748 E.0056
G1 X44.079 Y134.678 E.00667
G1 X43.721 Y134.31 E.0161
G1 X44.651 Y133.379 E.04126
G1 X45.174 Y133.902 E.02319
G1 X45.174 Y134.037 E.00423
G1 X45.174 Y134.086 E.00154
M204 P1000
G1 E-2.24 F4200
;WIPE_START
G1 F7200
G1 X45.174 Y134.146 E-.03325
G1 X45.109 Y134.232 E-.05974
G1 X45.019 Y134.453 E-.13224
G1 X44.883 Y134.581 E-.1035
G1 X44.436 Y134.835 E-.28491
G1 X44.28 Y134.748 E-.09899
G1 X44.079 Y134.678 E-.11795
G1 X43.916 Y134.51 E-.12942
;WIPE_END
G1 Z.4 F720
G1 X50.229 Y130.631 F9000
G1 Z.2 F720
G1 E3.2 F2400
M204 P600
;TYPE:Perimeter
G1 F1200
G1 X49.862 Y130.521 E.01201
G1 X49.407 Y130.307 E.01577
G1 X49.138 Y129.793 E.01819
G1 X49.138 Y129.281 E.01605
G1 X49.225 Y129.12 E.00574
G1 X49.3 Y128.798 E.01037
G1 X49.39 Y128.595 E.00696
G1 X49.586 Y128.377 E.00919
G1 X49.675 Y128.172 E.00701
G1 X50.024 Y127.805 E.01588
G1 X50.107 Y127.596 E.00705
G1 X51.367 Y126.336 E.05587
G1 X51.557 Y126.253 E.0065
G1 X51.953 Y125.893 E.01678
G1 X52.063 Y125.867 E.00354
G1 X52.376 Y125.609 E.01272
G1 X52.565 Y125.53 E.00642
G1 X52.732 Y125.495 E.00535
G1 X53.062 Y125.357 E.01122
G1 X53.598 Y125.376 E.01682
G1 X54.052 Y125.588 E.01571
G1 X54.083 Y125.676 E.00293
G1 X54.3 Y125.96 E.01121
G1 X54.332 Y126.126 E.0053
G1 X54.452 Y126.376 E.00869
G1 X54.359 Y126.533 E.00572
G1 X54.321 Y126.737 E.00651
G1 X54.252 Y126.887 E.00518
G1 X54.159 Y127.243 E.01154
G1 X54.069 Y127.446 E.00696
G1 X53.827 Y127.731 E.01172
G1 X53.777 Y127.882 E.00499
G1 X53.636 Y128.037 E.00657
G1 X53.501 Y128.303 E.00935
G1 X52.079 Y129.719 E.06292
G1 X51.962 Y129.748 E.00378
G1 X51.66 Y129.999 E.01231
G1 X51.558 Y130.021 E.00327
G1 X51.227 Y130.288 E.01333
G1 X51.038 Y130.367 E.00642
G1 X50.871 Y130.402 E.00535
G1 X50.607 Y130.511 E.00896
G1 X50.449 Y130.544 E.00506
G1 X50.285 Y130.609 E.00553
M204 P1000
G1 X50.285 Y130.609 F9000
G1 X50.226 Y131.059
M204 P600
;TYPE:External perimeter
G1 F1200
G1 X49.992 Y130.925 E.00845
G1 X49.753 Y130.917 E.0075
G1 X49.626 Y130.815 E.00511
G1 X49.192 Y130.64 E.01467
G1 X49.068 Y130.507 E.0057
G1 X49.042 Y130.413 E.00306
G1 X48.93 Y130.243 E.00638
G1 X48.898 Y130.123 E.00389
G1 X48.761 Y129.925 E.00755
G1 X48.761 Y129.118 E.0253
G1 X48.885 Y128.956 E.0064
G1 X48.904 Y128.689 E.00839
G1 X49.006 Y128.562 E.00511
G1 X49.047 Y128.444 E.00392
G1 X49.279 Y128.156 E.0116
G1 X49.362 Y127.952 E.00691
G1 X49.724 Y127.577 E.01634
G1 X49.762 Y127.407 E.00546
G1 X51.191 Y125.979 E.06334
G1 X51.367 Y125.928 E.00575
G1 X51.733 Y125.581 E.01581
G1 X51.891 Y125.531 E.0052
G1 X52.167 Y125.289 E.01151
G1 X52.308 Y125.247 E.00461
G1 X52.471 Y125.123 E.00642
G1 X52.68 Y125.121 E.00655
G1 X52.899 Y124.98 E.00817
G1 X53.706 Y124.98 E.0253
G1 X53.833 Y125.082 E.00511
G1 X54.266 Y125.256 E.01463
G1 X54.386 Y125.384 E.0055
G1 X54.416 Y125.489 E.00342
G1 X54.698 Y125.837 E.01404
G1 X54.702 Y126.051 E.00671
G1 X54.841 Y126.258 E.00782
G1 X54.841 Y126.376 E.0037
G1 X54.841 Y126.493 E.00367
G1 X54.711 Y126.669 E.00686
G1 X54.698 Y126.922 E.00794
G1 X54.58 Y127.073 E.00601
G1 X54.555 Y127.351 E.00875
G1 X54.453 Y127.478 E.00511
G1 X54.412 Y127.596 E.00392
G1 X54.181 Y127.884 E.01158
G1 X54.126 Y128.058 E.00572
G1 X53.915 Y128.291 E.00986
G1 X53.843 Y128.494 E.00675
G1 X52.304 Y130.027 E.06811
G1 X52.138 Y130.081 E.00547
G1 X51.87 Y130.317 E.0112
G1 X51.718 Y130.363 E.00498
G1 X51.435 Y130.608 E.01174
G1 X51.295 Y130.65 E.00458
G1 X51.132 Y130.774 E.00642
G1 X50.922 Y130.776 E.00658
G1 X50.703 Y130.917 E.00817
G1 X50.54 Y130.917 E.00511
G1 X50.281 Y131.036 E.00894
M204 P1000
G1 E-2.24 F4200
;WIPE_START
G1 F7200
G1 X50.226 Y131.059 E-.03304
G1 X49.992 Y130.925 E-.14943
G1 X49.753 Y130.917 E-.13252
G1 X49.626 Y130.815 E-.09027
G1 X49.192 Y130.64 E-.25932
G1 X49.068 Y130.507 E-.10077
G1 X49.042 Y130.413 E-.05405
G1 X48.93 Y130.243 E-.11282
G1 X48.917 Y130.194 E-.02778
;WIPE_END
G1 Z.4 F720
G1 X52.981 Y125.588 F9000
G1 Z.2 F720
G1 E3.2 F2400
M204 P600
;TYPE:Solid infill
;WIDTH:0.435957
G1 F1200
G1 X54.002 Y126.609 E.04719
G1 X53.869 Y126.931 E.01139
M73 P0 R91
G1 X53.857 Y127.019 E.0029
G1 X52.689 Y125.851 E.05398
G1 X52.545 Y125.913 E.00512
G1 X52.36 Y126.078 E.0081
G1 X53.672 Y127.39 E.06064
G1 X53.531 Y127.559 E.00719
G1 X53.458 Y127.732 E.00614
G1 X52.021 Y126.295 E.06642
G1 X51.812 Y126.492 E.00939
G1 X51.72 Y126.55 E.00355
G1 X53.233 Y128.063 E.06993
G1 X53.211 Y128.112 E.00176
G1 X52.968 Y128.354 E.01121
G1 X51.398 Y126.784 E.07256
G1 X51.12 Y127.062 E.01285
G1 X52.69 Y128.631 E.07254
G1 X52.411 Y128.909 E.01287
G1 X50.843 Y127.34 E.07249
G1 X50.565 Y127.618 E.01285
G1 X52.133 Y129.186 E.07247
G1 X51.898 Y129.42 E.01084
G1 X51.828 Y129.437 E.00235
G1 X50.336 Y127.945 E.06896
G1 X50.077 Y128.241 E.01285
G1 X51.512 Y129.677 E.06635
G1 X51.341 Y129.75 E.00608
G1 X51.171 Y129.891 E.00722
G1 X49.859 Y128.579 E.06064
G1 X49.694 Y128.764 E.0081
G1 X49.632 Y128.909 E.00515
G1 X50.799 Y130.076 E.05394
G1 X50.713 Y130.088 E.00284
G1 X50.549 Y130.149 E.00572
G1 X50.453 Y130.208 E.00368
G1 X50.386 Y130.218 E.00221
G1 X49.368 Y129.201 E.04703
M204 P1000
G1 E-2.24 F4200
;WIPE_START
G1 F7200
G1 X50.386 Y130.218 E-.79743
G1 X50.453 Y130.208 E-.03754
G1 X50.549 Y130.149 E-.06244
G1 X50.655 Y130.109 E-.06259
;WIPE_END
G1 Z.4 F720
G1 X71.16 Y122.328 F9000
G1 Z.2 F720
G1 E3.2 F2400
M204 P600
;TYPE:Perimeter
;WIDTH:0.419999
G1 F1200
G1 X71.16 Y121.273 E.03308
G1 X71.268 Y121.062 E.00743
G1 X71.303 Y120.865 E.00627
G1 X71.376 Y120.709 E.0054
G1 X71.446 Y120.437 E.00881
G1 X71.831 Y119.6 E.02889
G1 X72.818 Y118.613 E.04377
G1 X73.027 Y118.519 E.00719
G1 X73.258 Y118.316 E.00964
G1 X73.729 Y118.094 E.01633
G1 X73.925 Y118.054 E.00627
G1 X74.172 Y117.94 E.00853
G1 X74.481 Y117.914 E.00972
G1 X74.768 Y117.778 E.00996
G1 X75.565 Y117.778 E.02499
G1 X75.775 Y117.885 E.00739
G1 X76.137 Y117.921 E.01141
G1 X76.279 Y117.998 E.00506
G1 X76.545 Y118.064 E.00859
G1 X77.109 Y118.315 E.01936
G1 X77.315 Y118.502 E.00872
G1 X77.528 Y118.596 E.0073
G1 X77.994 Y119.009 E.01952
G1 X78.047 Y119.139 E.0044
G1 X78.198 Y119.316 E.00729
G1 X78.498 Y119.44 E.01018
G1 X78.582 Y119.521 E.00366
G1 X78.83 Y119.628 E.00847
G1 X79.184 Y120.361 E.02552
G1 X79.206 Y120.638 E.00871
G1 X79.327 Y120.933 E.01
G1 X79.346 Y121.437 E.01581
G1 X79.407 Y121.657 E.00716
G1 X79.35 Y121.811 E.00515
G1 X79.346 Y122.326 E.01615
G1 X79.234 Y122.55 E.00785
G1 X79.203 Y122.898 E.01095
G1 X78.68 Y124.001 E.03827
G1 X77.81 Y124.866 E.03847
G1 X77.66 Y124.91 E.0049
G1 X77.395 Y125.141 E.01102
G1 X76.921 Y125.362 E.0164
G1 X76.725 Y125.402 E.00627
G1 X76.477 Y125.516 E.00856
G1 X76.183 Y125.54 E.00925
G1 X75.883 Y125.678 E.01035
G1 X74.655 Y125.678 E.0385
G1 X74.405 Y125.557 E.00871
G1 X74.226 Y125.535 E.00565
G1 X73.767 Y125.3 E.01617
G1 X73.126 Y125.007 E.0221
G1 X72.801 Y124.693 E.01417
G1 X72.543 Y124.552 E.00922
G1 X72.405 Y124.303 E.00893
G1 X71.974 Y123.857 E.01945
G1 X71.628 Y123.121 E.0255
G1 X71.582 Y122.906 E.00689
G1 X71.503 Y122.7 E.00692
G1 X71.201 Y122.372 E.01398
M204 P1000
G1 X71.201 Y122.372 F9000
G1 X70.783 Y122.481
M204 P600
;TYPE:External perimeter
G1 F1200
G1 X70.783 Y121.11 E.04299
G1 X70.915 Y120.931 E.00697
G1 X70.926 Y120.681 E.00785
G1 X71.046 Y120.527 E.00612
G1 X71.069 Y120.252 E.00865
G1 X71.171 Y120.125 E.00511
G1 X71.212 Y120.007 E.00392
G1 X71.457 Y119.553 E.01618
G1 X71.498 Y119.399 E.005
G1 X72.641 Y118.257 E.05066
G1 X72.764 Y118.227 E.00397
G1 X73.05 Y117.994 E.01157
G1 X73.184 Y117.955 E.00438
G1 X73.316 Y117.856 E.00517
G1 X73.437 Y117.824 E.00392
G1 X73.635 Y117.687 E.00755
G1 X73.844 Y117.685 E.00655
G1 X74.063 Y117.544 E.00817
G1 X74.408 Y117.543 E.01082
G1 X74.636 Y117.401 E.00842
G1 X75.728 Y117.401 E.03424
G1 X75.907 Y117.532 E.00695
G1 X76.3 Y117.544 E.01233
G1 X76.456 Y117.665 E.00619
G1 X76.729 Y117.687 E.00859
G1 X76.856 Y117.789 E.00511
G1 X77.26 Y117.973 E.01392
G1 X77.554 Y118.21 E.01184
G1 X77.722 Y118.259 E.00549
G1 X78.111 Y118.635 E.01696
G1 X78.292 Y118.688 E.00591
G1 X78.404 Y118.996 E.01028
G1 X78.711 Y119.106 E.01022
G1 X78.811 Y119.221 E.00478
G1 X79.005 Y119.26 E.0062
G1 X79.063 Y119.315 E.00251
G1 X79.267 Y119.644 E.01214
G1 X79.297 Y119.753 E.00354
G1 X79.411 Y119.934 E.00671
G1 X79.443 Y120.055 E.00392
G1 X79.58 Y120.252 E.00752
G1 X79.58 Y120.592 E.01066
G1 X79.723 Y120.824 E.00854
G1 X79.723 Y121.441 E.01935
G1 X79.845 Y121.657 E.00778
G1 X79.764 Y121.758 E.00406
G1 X79.723 Y121.876 E.00392
G1 X79.723 Y122.489 E.01922
G1 X79.59 Y122.672 E.00709
G1 X79.58 Y123.061 E.0122
G1 X79.478 Y123.188 E.00511
G1 X79.294 Y123.592 E.01392
G1 X79.192 Y123.76 E.00616
G1 X79.017 Y124.198 E.01479
G1 X78.044 Y125.165 E.04301
G1 X77.865 Y125.227 E.00594
G1 X77.604 Y125.46 E.01097
G1 X77.463 Y125.502 E.00461
G1 X77.333 Y125.6 E.0051
G1 X77.213 Y125.632 E.00389
G1 X77.015 Y125.769 E.00755
G1 X76.806 Y125.771 E.00655
G1 X76.586 Y125.912 E.00819
G1 X76.243 Y125.913 E.01075
G1 X76.013 Y126.055 E.00848
G1 X74.492 Y126.055 E.04769
G1 X74.3 Y125.919 E.00738
G1 X74.064 Y125.912 E.0074
G1 X73.936 Y125.81 E.00513
G1 X73.533 Y125.626 E.01389
G1 X73.078 Y125.381 E.0162
G1 X72.927 Y125.34 E.00491
G1 X72.539 Y124.964 E.01694
G1 X72.277 Y124.834 E.00917
G1 X72.122 Y124.554 E.01003
G1 X71.641 Y124.02 E.02253
G1 X71.524 Y123.808 E.00759
G1 X71.492 Y123.687 E.00392
G1 X71.381 Y123.522 E.00624
G1 X71.349 Y123.402 E.00389
G1 X71.212 Y123.204 E.00755
G1 X71.212 Y123 E.0064
G1 X71.159 Y122.869 E.00443
G1 X70.825 Y122.524 E.01506
M204 P1000
G1 E-2.24 F4200
;WIPE_START
G1 F7200
G1 X70.783 Y122.481 E-.03331
G1 X70.783 Y121.11 E-.75976
G1 X70.915 Y120.931 E-.12325
G1 X70.919 Y120.852 E-.04368
;WIPE_END
G1 Z.4 F720
G1 X76.356 Y118.202 F9000
G1 Z.2 F720
G1 E3.2 F2400
M204 P600
;TYPE:Solid infill
;WIDTH:0.422633
G1 F1200
G1 X78.881 Y120.727 E.11274
G1 X78.915 Y120.882 E.00501
G1 X79.007 Y121.049 E.00602
G1 X79.009 Y121.392 E.01083
G1 X75.871 Y118.254 E.14012
G1 X75.708 Y118.222 E.00524
G1 X75.504 Y118.118 E.00723
G1 X75.197 Y118.118 E.00969
G1 X79.009 Y121.929 E.17019
G1 X79.007 Y122.268 E.0107
G1 X78.942 Y122.4 E.00465
G1 X74.733 Y118.191 E.18794
G1 X74.6 Y118.237 E.00444
G1 X74.276 Y118.271 E.01029
G1 X78.852 Y122.846 E.2043
G1 X78.759 Y123.053 E.00716
G1 X78.667 Y123.198 E.00542
G1 X73.872 Y118.404 E.21408
G1 X73.645 Y118.508 E.00788
G1 X73.521 Y118.589 E.00468
G1 X78.494 Y123.562 E.22205
G1 X78.39 Y123.811 E.00852
G1 X78.298 Y123.903 E.00411
G1 X73.204 Y118.809 E.22745
G1 X73.025 Y118.886 E.00615
G1 X72.884 Y119.026 E.00627
G1 X78.028 Y124.171 E.22971
G1 X77.759 Y124.438 E.01197
G1 X72.616 Y119.295 E.22964
G1 X72.347 Y119.563 E.01199
G1 X77.438 Y124.654 E.22732
G1 X77.227 Y124.836 E.0088
G1 X77.121 Y124.874 E.00356
G1 X72.106 Y119.859 E.22393
G1 X71.922 Y120.213 E.0126
G1 X76.768 Y125.058 E.21636
G1 X76.548 Y125.096 E.00705
G1 X76.364 Y125.191 E.00654
G1 X71.767 Y120.594 E.20526
G1 X71.756 Y120.67 E.00242
G1 X71.624 Y120.988 E.01087
G1 X75.916 Y125.28 E.19164
G1 X75.795 Y125.338 E.00424
G1 X75.437 Y125.338 E.0113
G1 X71.5 Y121.401 E.17579
G1 X71.5 Y121.938 E.01695
M73 P1 R91
G1 X74.9 Y125.338 E.15181
G1 X74.712 Y125.338 E.00594
G1 X74.504 Y125.231 E.00739
G1 X74.313 Y125.202 E.0061
G1 X74.141 Y125.116 E.00607
G1 X71.663 Y122.638 E.11065
M204 P1000
G1 E-2.24 F4200
;WIPE_START
G1 F7200
G1 X72.888 Y123.863 E-.96
;WIPE_END
G1 Z.4 F720
G1 X63.116 Y101.727 F9000
G1 Z.2 F720
G1 E3.2 F2400
M204 P600
;TYPE:Perimeter
;WIDTH:0.595695
G1 F1200
G1 X63.038 Y101.641 E.00534
G1 X62.966 Y101.472 E.00844
G1 X62.606 Y101.062 E.02508
G1 X62.534 Y100.935 E.00671
G1 X63.651 Y100.935 E.05134
G1 X63.607 Y101.034 E.00498
G1 X63.469 Y101.199 E.00989
G1 X63.149 Y101.677 E.02644
M204 P1000
G1 X63.149 Y101.677 F9000
G1 X63.17 Y102.784
M204 P600
